assets/luts/autumn.cube
TITLE "秋季"
LUT_3D_SIZE 8
DOMAIN_MIN 0.0 0.0 0.0
DOMAIN_MAX 1.0 1.0 1.0
0.050000 0.000000 0.000000
0.179381 0.000000 0.000000
0.334639 0.000000 0.000000
0.489896 0.000000 0.000000
0.645154 0.000000 0.000000
0.800411 0.000000 0.000000
0.955669 0.000000 0.000000
1.000000 0.000000 0.000000
0.046331 0.117581 0.000000
0.175712 0.115713 0.000000
0.330970 0.113470 0.000000
0.486227 0.111228 0.000000
0.641485 0.108985 0.000000
0.796742 0.106743 0.000000
0.952000 0.104500 0.000000
1.000000 0.102631 0.000000
0.041929 0.270679 0.000000
0.171310 0.268810 0.000000
0.326567 0.266567 0.000000
0.481825 0.264325 0.000000
0.637082 0.262082 0.000000
0.792340 0.259840 0.000000
0.947598 0.257597 0.000000
1.000000 0.255729 0.000000
0.037526 0.423776 0.000000
0.166907 0.421907 0.000000
0.322165 0.419665 0.000000
0.477422 0.417422 0.000000
0.632680 0.415180 0.000000
0.787937 0.412937 0.000000
0.943195 0.410695 0.000000
1.000000 0.408826 0.000000
0.033124 0.576874 0.000000
0.162505 0.575005 0.000000
0.317762 0.572762 0.000000
0.473020 0.570520 0.000000
0.628278 0.568277 0.000000
0.783535 0.566035 0.000000
0.938793 0.563792 0.000000
1.000000 0.561924 0.000000
0.028721 0.729971 0.000000
0.158102 0.728102 0.000000
0.313360 0.725860 0.000000
0.468617 0.723617 0.000000
0.623875 0.721375 0.000000
0.779132 0.719132 0.000000
0.934390 0.716890 0.000000
1.000000 0.715021 0.000000
0.024319 0.883069 0.000000
0.153700 0.881200 0.000000
0.308957 0.878958 0.000000
0.464215 0.876715 0.000000
0.619472 0.874472 0.000000
0.774730 0.872230 0.000000
0.929988 0.869988 0.000000
1.000000 0.868119 0.000000
0.020650 1.000000 0.000000
0.150031 1.000000 0.000000
0.305289 1.000000 0.000000
0.460546 1.000000 0.000000
0.615804 1.000000 0.000000
0.771061 0.999811 0.000000
0.926319 0.997569 0.000000
1.000000 0.995700 0.000000
0.049287 0.000000 0.130538
0.178669 0.000000 0.128669
0.333926 0.000000 0.126426
0.489184 0.000000 0.124184
0.644441 0.000000 0.121941
0.799699 0.000000 0.119699
0.954956 0.000000 0.117456
1.000000 0.000000 0.115587
0.045619 0.116869 0.126869
0.175000 0.115000 0.125000
0.330257 0.112757 0.122757
0.485515 0.110515 0.120515
0.640772 0.108273 0.118273
0.796030 0.106030 0.116030
0.951288 0.103787 0.113787
1.000000 0.101919 0.111919
0.041216 0.269966 0.122466
0.170598 0.268097 0.120597
0.325855 0.265855 0.118355
0.481112 0.263612 0.116113
0.636370 0.261370 0.113870
0.791627 0.259127 0.111627
0.946885 0.256885 0.109385
1.000000 0.255016 0.107516
0.036814 0.423064 0.118064
0.166195 0.421195 0.116195
0.321452 0.418952 0.113952
0.476710 0.416710 0.111710
0.631968 0.414467 0.109467
0.787225 0.412225 0.107225
0.942483 0.409982 0.104982
1.000000 0.408114 0.103114
0.032411 0.576161 0.113661
0.161793 0.574292 0.111793
0.317050 0.572050 0.109550
0.472307 0.569807 0.107308
0.627565 0.567565 0.105065
0.782822 0.565322 0.102822
0.938080 0.563080 0.100580
1.000000 0.561211 0.098711
0.028009 0.729259 0.109259
0.157390 0.727390 0.107390
0.312647 0.725147 0.105148
0.467905 0.722905 0.102905
0.623163 0.720662 0.100662
0.778420 0.718420 0.098420
0.933678 0.716177 0.096178
1.000000 0.714309 0.094309
0.023606 0.882356 0.104856
0.152987 0.880487 0.102987
0.308245 0.878245 0.100745
0.463502 0.876003 0.098502
0.618760 0.873760 0.096260
0.774017 0.871517 0.094017
0.929275 0.869275 0.091775
1.000000 0.867406 0.089906
0.019938 1.000000 0.101187
0.149319 1.000000 0.099319
0.304576 1.000000 0.097076
0.459834 1.000000 0.094834
0.615091 1.000000 0.092591
0.770349 0.999099 0.090349
0.925606 0.996856 0.088106
1.000000 0.994987 0.086237
0.048433 0.000000 0.287182
0.177814 0.000000 0.285314
0.333071 0.000000 0.283071
0.488329 0.000000 0.280829
0.643586 0.000000 0.278586
0.798844 0.000000 0.276344
0.954101 0.000000 0.274101
1.000000 0.000000 0.272232
0.044764 0.116014 0.283514
0.174145 0.114145 0.281645
0.329402 0.111903 0.279402
0.484660 0.109660 0.277160
0.639918 0.107418 0.274917
0.795175 0.105175 0.272675
0.950433 0.102932 0.270432
1.000000 0.101064 0.268564
0.040361 0.269111 0.279111
0.169743 0.267242 0.277242
0.325000 0.265000 0.275000
0.480258 0.262757 0.272757
0.635515 0.260515 0.270515
0.790772 0.258272 0.268272
0.946030 0.256030 0.266030
1.000000 0.254161 0.264161
0.035959 0.422209 0.274709
0.165340 0.420340 0.272840
0.320597 0.418098 0.270597
0.475855 0.415855 0.268355
0.631112 0.413612 0.266112
0.786370 0.411370 0.263870
0.941628 0.409127 0.261627
1.000000 0.407259 0.259759
0.031556 0.575306 0.270306
0.160937 0.573437 0.268437
0.316195 0.571195 0.266195
0.471452 0.568952 0.263952
0.626710 0.566710 0.261710
0.781967 0.564467 0.259467
0.937225 0.562225 0.257225
1.000000 0.560356 0.255356
0.027154 0.728404 0.265904
0.156535 0.726535 0.264035
0.311792 0.724292 0.261792
0.467050 0.722050 0.259550
0.622308 0.719807 0.257307
0.777565 0.717565 0.255065
0.932823 0.715322 0.252822
1.000000 0.713454 0.250954
0.022751 0.881501 0.261501
0.152132 0.879633 0.259632
0.307390 0.877390 0.257390
0.462647 0.875147 0.255147
0.617905 0.872905 0.252905
0.773162 0.870663 0.250662
0.928420 0.868420 0.248420
1.000000 0.866551 0.246551
0.019082 1.000000 0.257832
0.148464 1.000000 0.255964
0.303721 1.000000 0.253721
0.458979 1.000000 0.251479
0.614236 1.000000 0.249236
0.769494 0.998244 0.246994
0.924751 0.996001 0.244751
1.000000 0.994133 0.242882
0.047578 0.000000 0.443827
0.176959 0.000000 0.441959
0.332216 0.000000 0.439716
0.487474 0.000000 0.437474
0.642731 0.000000 0.435231
0.797989 0.000000 0.432989
0.953246 0.000000 0.430746
1.000000 0.000000 0.428878
0.043909 0.115159 0.440159
0.173290 0.113290 0.438290
0.328547 0.111048 0.436048
0.483805 0.108805 0.433805
0.639063 0.106562 0.431562
0.794320 0.104320 0.429320
0.949578 0.102078 0.427077
1.000000 0.100209 0.425209
0.039506 0.268256 0.435756
0.168888 0.266387 0.433887
0.324145 0.264145 0.431645
0.479403 0.261902 0.429403
0.634660 0.259660 0.427160
0.789917 0.257417 0.424918
0.945175 0.255175 0.422675
1.000000 0.253306 0.420806
0.035104 0.421354 0.431354
0.164485 0.419485 0.429485
0.319742 0.417242 0.427242
0.475000 0.415000 0.425000
0.630258 0.412757 0.422758
0.785515 0.410515 0.420515
0.940773 0.408272 0.418272
1.000000 0.406404 0.416404
0.030701 0.574451 0.426951
0.160082 0.572582 0.425082
0.315340 0.570340 0.422840
0.470597 0.568097 0.420597
0.625855 0.565855 0.418355
0.781112 0.563612 0.416112
0.936370 0.561370 0.413870
1.000000 0.559501 0.412001
0.026299 0.727549 0.422549
0.155680 0.725680 0.420680
0.310937 0.723437 0.418438
0.466195 0.721195 0.416195
0.621452 0.718952 0.413953
0.776710 0.716710 0.411710
0.931968 0.714467 0.409467
1.000000 0.712599 0.407599
0.021896 0.880646 0.418146
0.151277 0.878777 0.416277
0.306535 0.876535 0.414035
0.461792 0.874293 0.411792
0.617050 0.872050 0.409550
0.772307 0.869807 0.407307
0.927565 0.867565 0.405065
1.000000 0.865696 0.403196
0.018228 1.000000 0.414477
0.147609 1.000000 0.412609
0.302866 1.000000 0.410366
0.458124 1.000000 0.408124
0.613381 0.999631 0.405881
0.768639 0.997389 0.403639
0.923896 0.995146 0.401396
1.000000 0.993278 0.399527
0.046723 0.000000 0.600472
0.176104 0.000000 0.598604
0.331361 0.000000 0.596361
0.486619 0.000000 0.594119
0.641876 0.000000 0.591876
0.797134 0.000000 0.589634
0.952391 0.000000 0.587391
1.000000 0.000000 0.585522
0.043054 0.114304 0.596804
0.172435 0.112435 0.594935
0.327692 0.110192 0.592692
0.482950 0.107950 0.590450
0.638208 0.105707 0.588207
0.793465 0.103465 0.585965
0.948723 0.101223 0.583722
1.000000 0.099354 0.581854
0.038651 0.267401 0.592401
0.168032 0.265532 0.590532
0.323290 0.263290 0.588290
0.478547 0.261047 0.586047
0.633805 0.258805 0.583805
0.789062 0.256562 0.581562
0.944320 0.254320 0.579320
1.000000 0.252451 0.577451
0.034249 0.420499 0.587999
0.163630 0.418630 0.586130
0.318887 0.416387 0.583887
0.474145 0.414145 0.581645
0.629402 0.411902 0.579402
0.784660 0.409660 0.577160
0.939918 0.407417 0.574917
1.000000 0.405549 0.573049
0.029846 0.573596 0.583596
0.159227 0.571727 0.581727
0.314485 0.569485 0.579485
0.469743 0.567242 0.577242
0.625000 0.565000 0.575000
0.780257 0.562757 0.572757
0.935515 0.560515 0.570515
1.000000 0.558646 0.568646
0.025444 0.726694 0.579194
0.154825 0.724825 0.577325
0.310082 0.722582 0.575082
0.465340 0.720340 0.572840
0.620598 0.718097 0.570597
0.775855 0.715855 0.568355
0.931113 0.713612 0.566113
1.000000 0.711744 0.564244
0.021041 0.879791 0.574791
0.150422 0.877922 0.572923
0.305680 0.875680 0.570680
0.460937 0.873437 0.568437
0.616195 0.871195 0.566195
0.771452 0.868953 0.563952
0.926710 0.866710 0.561710
1.000000 0.864841 0.559841
0.017372 1.000000 0.571122
0.146754 1.000000 0.569254
0.302011 1.000000 0.567011
0.457269 1.000000 0.564769
0.612526 0.998776 0.562526
0.767784 0.996534 0.560284
0.923041 0.994291 0.558041
1.000000 0.992422 0.556172
0.045868 0.000000 0.757117
0.175249 0.000000 0.755249
0.330506 0.000000 0.753006
0.485764 0.000000 0.750764
0.641021 0.000000 0.748521
0.796279 0.000000 0.746279
0.951536 0.000000 0.744036
1.000000 0.000000 0.742167
0.042199 0.113449 0.753449
0.171580 0.111580 0.751580
0.326837 0.109338 0.749337
0.482095 0.107095 0.747095
0.637352 0.104853 0.744852
0.792610 0.102610 0.742610
0.947868 0.100368 0.740367
1.000000 0.098499 0.738499
0.037796 0.266546 0.749046
0.167177 0.264677 0.747177
0.322435 0.262435 0.744935
0.477692 0.260192 0.742692
0.632950 0.257950 0.740450
0.788207 0.255707 0.738207
0.943465 0.253465 0.735965
1.000000 0.251596 0.734096
0.033394 0.419644 0.744644
0.162775 0.417775 0.742775
0.318032 0.415532 0.740532
0.473290 0.413290 0.738290
0.628548 0.411048 0.736047
0.783805 0.408805 0.733805
0.939063 0.406562 0.731562
1.000000 0.404694 0.729694
0.028991 0.572741 0.740241
0.158372 0.570872 0.738372
0.313630 0.568630 0.736130
0.468887 0.566387 0.733887
0.624145 0.564145 0.731645
0.779402 0.561902 0.729402
0.934660 0.559660 0.727160
1.000000 0.557791 0.725291
0.024589 0.725839 0.735839
0.153970 0.723970 0.733970
0.309227 0.721727 0.731727
0.464485 0.719485 0.729485
0.619742 0.717242 0.727242
0.775000 0.715000 0.725000
0.930258 0.712757 0.722757
1.000000 0.710889 0.720889
0.020186 0.878936 0.731436
0.149567 0.877067 0.729567
0.304825 0.874825 0.727325
0.460082 0.872583 0.725082
0.615340 0.870340 0.722840
0.770597 0.868097 0.720597
0.925855 0.865855 0.718355
1.000000 0.863986 0.716486
0.016517 1.000000 0.727767
0.145899 1.000000 0.725899
0.301156 1.000000 0.723656
0.456414 1.000000 0.721414
0.611671 0.997921 0.719171
0.766929 0.995679 0.716929
0.922186 0.993436 0.714686
1.000000 0.991567 0.712817
0.045012 0.000000 0.913763
0.174394 0.000000 0.911894
0.329651 0.000000 0.909651
0.484909 0.000000 0.907409
0.640166 0.000000 0.905166
0.795424 0.000000 0.902924
0.950681 0.000000 0.900681
1.000000 0.000000 0.898813
0.041344 0.112594 0.910094
0.170725 0.110725 0.908225
0.325982 0.108482 0.905983
0.481240 0.106240 0.903740
0.636498 0.103998 0.901498
0.791755 0.101755 0.899255
0.947013 0.099513 0.897012
1.000000 0.097644 0.895144
0.036941 0.265691 0.905691
0.166322 0.263822 0.903822
0.321580 0.261580 0.901580
0.476837 0.259337 0.899338
0.632095 0.257095 0.897095
0.787352 0.254852 0.894853
0.942610 0.252610 0.892610
1.000000 0.250741 0.890741
0.032539 0.418789 0.901289
0.161920 0.416920 0.899420
0.317177 0.414677 0.897177
0.472435 0.412435 0.894935
0.627692 0.410192 0.892692
0.782950 0.407950 0.890450
0.938208 0.405707 0.888208
1.000000 0.403839 0.886339
0.028136 0.571886 0.896886
0.157517 0.570017 0.895018
0.312775 0.567775 0.892775
0.468032 0.565532 0.890532
0.623290 0.563290 0.888290
0.778547 0.561047 0.886047
0.933805 0.558805 0.883805
1.000000 0.556936 0.881936
0.023734 0.724984 0.892484
0.153115 0.723115 0.890615
0.308372 0.720872 0.888373
0.463630 0.718630 0.886130
0.618888 0.716387 0.883888
0.774145 0.714145 0.881645
0.929403 0.711902 0.879402
1.000000 0.710034 0.877534
0.019331 0.878081 0.888081
0.148712 0.876213 0.886213
0.303970 0.873970 0.883970
0.459227 0.871727 0.881727
0.614485 0.869485 0.879485
0.769742 0.867243 0.877243
0.925000 0.865000 0.875000
1.000000 0.863131 0.873131
0.015662 1.000000 0.884413
0.145044 1.000000 0.882544
0.300301 1.000000 0.880301
0.455559 0.999309 0.878059
0.610816 0.997066 0.875816
0.766074 0.994824 0.873574
0.921331 0.992581 0.871331
1.000000 0.990713 0.869463
0.044300 0.000000 1.000000
0.173681 0.000000 1.000000
0.328939 0.000000 1.000000
0.484196 0.000000 1.000000
0.639454 0.000000 1.000000
0.794711 0.000000 1.000000
0.949969 0.000000 1.000000
1.000000 0.000000 1.000000
0.040631 0.111881 1.000000
0.170013 0.110012 1.000000
0.325270 0.107770 1.000000
0.480527 0.105527 1.000000
0.635785 0.103285 1.000000
0.791042 0.101042 1.000000
0.946300 0.098800 1.000000
1.000000 0.096931 1.000000
0.036229 0.264979 1.000000
0.165610 0.263110 1.000000
0.320867 0.260867 1.000000
0.476125 0.258625 1.000000
0.631382 0.256382 1.000000
0.786640 0.254140 1.000000
0.941898 0.251897 1.000000
1.000000 0.250029 1.000000
0.031826 0.418076 1.000000
0.161208 0.416207 1.000000
0.316465 0.413965 1.000000
0.471722 0.411722 1.000000
0.626980 0.409480 1.000000
0.782237 0.407237 1.000000
0.937495 0.404995 1.000000
1.000000 0.403126 1.000000
0.027424 0.571174 1.000000
0.156805 0.569305 1.000000
0.312062 0.567062 1.000000
0.467320 0.564820 1.000000
0.622578 0.562577 1.000000
0.777835 0.560335 1.000000
0.933093 0.558092 1.000000
1.000000 0.556224 1.000000
0.023021 0.724271 1.000000
0.152402 0.722402 1.000000
0.307660 0.720160 1.000000
0.462917 0.717917 1.000000
0.618175 0.715675 1.000000
0.773432 0.713432 1.000000
0.928690 0.711190 1.000000
1.000000 0.709321 1.000000
0.018619 0.877369 1.000000
0.148000 0.875500 1.000000
0.303257 0.873258 1.000000
0.458515 0.871015 1.000000
0.613773 0.868772 1.000000
0.769030 0.866530 1.000000
0.924288 0.864287 1.000000
1.000000 0.862419 1.000000
0.014950 1.000000 1.000000
0.144331 1.000000 1.000000
0.299589 1.000000 1.000000
0.454846 0.998596 1.000000
0.610104 0.996354 1.000000
0.765361 0.994111 1.000000
0.920619 0.991869 1.000000
1.000000 0.990000 1.000000
