assets/luts/bleach_bypass.cube
TITLE "漂白旁路"
LUT_3D_SIZE 8
DOMAIN_MIN 0.0 0.0 0.0
DOMAIN_MAX 1.0 1.0 1.0
0.000000 0.000000 0.000000
0.072201 0.008201 0.008201
0.207578 0.023578 0.023578
0.342955 0.038955 0.038955
0.478333 0.054333 0.054333
0.613710 0.069710 0.069710
0.749087 0.085087 0.085087
0.789700 0.089700 0.089700
0.016101 0.080101 0.016101
0.088302 0.088302 0.024302
0.223679 0.103679 0.039679
0.359056 0.119056 0.055056
0.494433 0.134433 0.070433
0.629810 0.149810 0.085810
0.765187 0.165187 0.101187
0.805801 0.169801 0.105801
0.046289 0.230289 0.046289
0.118490 0.238490 0.054490
0.253867 0.253867 0.069867
0.389245 0.269245 0.085245
0.524622 0.284622 0.100622
0.659999 0.299999 0.115999
0.795376 0.315376 0.131376
0.835989 0.319989 0.135989
0.076478 0.380478 0.076478
0.148679 0.388679 0.084679
0.284056 0.404056 0.100056
0.419433 0.419433 0.115433
0.554810 0.434810 0.130810
0.690187 0.450187 0.146187
0.825565 0.465565 0.161565
0.866178 0.470178 0.166178
0.106666 0.530666 0.106666
0.178867 0.538867 0.114867
0.314245 0.554245 0.130245
0.449622 0.569622 0.145622
0.584999 0.584999 0.160999
0.720376 0.600376 0.176376
0.855753 0.615753 0.191753
0.896366 0.620366 0.196366
0.136855 0.680855 0.136855
0.209056 0.689056 0.145056
0.344433 0.704433 0.160433
0.479810 0.719810 0.175810
0.615187 0.735187 0.191187
0.750565 0.750565 0.206565
0.885942 0.765942 0.221942
0.926555 0.770555 0.226555
0.167043 0.831043 0.167043
0.239245 0.839245 0.175245
0.374622 0.854622 0.190622
0.509999 0.869999 0.205999
0.645376 0.885376 0.221376
0.780753 0.900753 0.236753
0.916130 0.916130 0.252130
0.956743 0.920743 0.256743
0.176100 0.876100 0.176100
0.248301 0.884301 0.184301
0.383678 0.899678 0.199678
0.519055 0.915055 0.215055
0.654433 0.930433 0.230433
0.789810 0.945810 0.245810
0.925187 0.961187 0.261187
0.965800 0.965800 0.265800
0.003127 0.003127 0.067127
0.075328 0.011328 0.075328
0.210705 0.026705 0.090705
0.346082 0.042082 0.106082
0.481459 0.057459 0.121459
0.616837 0.072837 0.136837
0.752214 0.088214 0.152214
0.792827 0.092827 0.156827
0.019227 0.083227 0.083227
0.091429 0.091429 0.091429
0.226806 0.106806 0.106806
0.362183 0.122183 0.122183
0.497560 0.137560 0.137560
0.632937 0.152937 0.152937
0.768314 0.168314 0.168314
0.808927 0.172927 0.172927
0.049416 0.233416 0.113416
0.121617 0.241617 0.121617
0.256994 0.256994 0.136994
0.392371 0.272371 0.152371
0.527749 0.287749 0.167749
0.663126 0.303126 0.183126
0.798503 0.318503 0.198503
0.839116 0.323116 0.203116
0.079605 0.383605 0.143605
0.151806 0.391806 0.151806
0.287183 0.407183 0.167183
0.422560 0.422560 0.182560
0.557937 0.437937 0.197937
0.693314 0.453314 0.213314
0.828691 0.468691 0.228691
0.869305 0.473305 0.233305
0.109793 0.533793 0.173793
0.181994 0.541994 0.181994
0.317371 0.557371 0.197371
0.452749 0.572749 0.212749
0.588126 0.588126 0.228126
0.723503 0.603503 0.243503
0.858880 0.618880 0.258880
0.899493 0.623493 0.263493
0.139982 0.683982 0.203982
0.212183 0.692183 0.212183
0.347560 0.707560 0.227560
0.482937 0.722937 0.242937
0.618314 0.738314 0.258314
0.753691 0.753691 0.273691
0.889069 0.769069 0.289069
0.929682 0.773682 0.293682
0.170170 0.834170 0.234170
0.242371 0.842371 0.242371
0.377749 0.857749 0.257749
0.513126 0.873126 0.273126
0.648503 0.888503 0.288503
0.783880 0.903880 0.303880
0.919257 0.919257 0.319257
0.959870 0.923870 0.323870
0.179227 0.879227 0.243227
0.251428 0.887428 0.251428
0.386805 0.902805 0.266805
0.522182 0.918182 0.282182
0.657559 0.933559 0.297559
0.792937 0.948937 0.312937
0.928314 0.964314 0.328314
0.968927 0.968927 0.332927
0.008990 0.008990 0.192990
0.081191 0.017191 0.201191
0.216568 0.032568 0.216568
0.351945 0.047945 0.231945
0.487322 0.063322 0.247322
0.622699 0.078699 0.262699
0.758077 0.094077 0.278077
0.798690 0.098690 0.282690
0.025090 0.089090 0.209090
0.097291 0.097291 0.217291
0.232669 0.112669 0.232669
0.368046 0.128046 0.248046
0.503423 0.143423 0.263423
0.638800 0.158800 0.278800
0.774177 0.174177 0.294177
0.814790 0.178790 0.298790
0.055279 0.239279 0.239279
0.127480 0.247480 0.247480
0.262857 0.262857 0.262857
0.398234 0.278234 0.278234
0.533611 0.293611 0.293611
0.668989 0.308989 0.308989
0.804366 0.324366 0.324366
0.844979 0.328979 0.328979
0.085467 0.389467 0.269467
0.157669 0.397669 0.277669
0.293046 0.413046 0.293046
0.428423 0.428423 0.308423
0.563800 0.443800 0.323800
0.699177 0.459177 0.339177
0.834554 0.474554 0.354554
0.875167 0.479167 0.359167
0.115656 0.539656 0.299656
0.187857 0.547857 0.307857
0.323234 0.563234 0.323234
0.458611 0.578611 0.338611
0.593989 0.593989 0.353989
0.729366 0.609366 0.369366
0.864743 0.624743 0.384743
0.905356 0.629356 0.389356
0.145845 0.689845 0.329845
0.218046 0.698046 0.338046
0.353423 0.713423 0.353423
0.488800 0.728800 0.368800
0.624177 0.744177 0.384177
0.759554 0.759554 0.399554
0.894931 0.774931 0.414931
0.935545 0.779545 0.419545
0.176033 0.840033 0.360033
0.248234 0.848234 0.368234
0.383611 0.863611 0.383611
0.518989 0.878989 0.398989
0.654366 0.894366 0.414366
0.789743 0.909743 0.429743
0.925120 0.925120 0.445120
0.965733 0.929733 0.449733
0.185090 0.885090 0.369090
0.257291 0.893291 0.377291
0.392668 0.908668 0.392668
0.528045 0.924045 0.408045
0.663422 0.939422 0.423422
0.798799 0.954799 0.438799
0.934177 0.970177 0.454177
0.974790 0.974790 0.458790
0.014853 0.014853 0.318853
0.087054 0.023054 0.327054
0.222431 0.038431 0.342431
0.357808 0.053808 0.357808
0.493185 0.069185 0.373185
0.628562 0.084562 0.388562
0.763939 0.099939 0.403939
0.804553 0.104553 0.408553
0.030953 0.094953 0.334953
0.103154 0.103154 0.343154
0.238531 0.118531 0.358531
0.373909 0.133909 0.373909
0.509286 0.149286 0.389286
0.644663 0.164663 0.404663
0.780040 0.180040 0.420040
0.820653 0.184653 0.424653
0.061142 0.245142 0.365142
0.133343 0.253343 0.373343
0.268720 0.268720 0.388720
0.404097 0.284097 0.404097
0.539474 0.299474 0.419474
0.674851 0.314851 0.434851
0.810229 0.330229 0.450229
0.850842 0.334842 0.454842
0.091330 0.395330 0.395330
0.163531 0.403531 0.403531
0.298909 0.418909 0.418909
0.434286 0.434286 0.434286
0.569663 0.449663 0.449663
0.705040 0.465040 0.465040
0.840417 0.480417 0.480417
0.881030 0.485030 0.485030
0.121519 0.545519 0.425519
0.193720 0.553720 0.433720
0.329097 0.569097 0.449097
0.464474 0.584474 0.464474
0.599851 0.599851 0.479851
0.735229 0.615229 0.495229
0.870606 0.630606 0.510606
0.911219 0.635219 0.515219
0.151707 0.695707 0.455707
0.223909 0.703909 0.463909
0.359286 0.719286 0.479286
0.494663 0.734663 0.494663
0.630040 0.750040 0.510040
0.765417 0.765417 0.525417
0.900794 0.780794 0.540794
0.941407 0.785407 0.545407
0.181896 0.845896 0.485896
0.254097 0.854097 0.494097
0.389474 0.869474 0.509474
0.524851 0.884851 0.524851
0.660229 0.900229 0.540229
0.795606 0.915606 0.555606
0.930983 0.930983 0.570983
0.971596 0.935596 0.575596
0.190953 0.890953 0.494953
0.263154 0.899154 0.503154
0.398531 0.914531 0.518531
0.533908 0.929908 0.533908
0.669285 0.945285 0.549285
0.804662 0.960662 0.564662
0.940039 0.976039 0.580039
0.980653 0.980653 0.584653
0.020715 0.020715 0.444715
0.092917 0.028917 0.452917
0.228294 0.044294 0.468294
0.363671 0.059671 0.483671
0.499048 0.075048 0.499048
0.634425 0.090425 0.514425
0.769802 0.105802 0.529802
0.810415 0.110415 0.534415
0.036816 0.100816 0.460816
0.109017 0.109017 0.469017
0.244394 0.124394 0.484394
0.379771 0.139771 0.499771
0.515149 0.155149 0.515149
0.650526 0.170526 0.530526
0.785903 0.185903 0.545903
0.826516 0.190516 0.550516
0.067005 0.251005 0.491005
0.139206 0.259206 0.499206
0.274583 0.274583 0.514583
0.409960 0.289960 0.529960
0.545337 0.305337 0.545337
0.680714 0.320714 0.560714
0.816091 0.336091 0.576091
0.856705 0.340705 0.580705
0.097193 0.401193 0.521193
0.169394 0.409394 0.529394
0.304771 0.424771 0.544771
0.440149 0.440149 0.560149
0.575526 0.455526 0.575526
0.710903 0.470903 0.590903
0.846280 0.486280 0.606280
0.886893 0.490893 0.610893
0.127382 0.551382 0.551382
0.199583 0.559583 0.559583
0.334960 0.574960 0.574960
0.470337 0.590337 0.590337
0.605714 0.605714 0.605714
0.741091 0.621091 0.621091
0.876469 0.636469 0.636469
0.917082 0.641082 0.641082
0.157570 0.701570 0.581570
0.229771 0.709771 0.589771
0.365149 0.725149 0.605149
0.500526 0.740526 0.620526
0.635903 0.755903 0.635903
0.771280 0.771280 0.651280
0.906657 0.786657 0.666657
0.947270 0.791270 0.671270
0.187759 0.851759 0.611759
0.259960 0.859960 0.619960
0.395337 0.875337 0.635337
0.530714 0.890714 0.650714
0.666091 0.906091 0.666091
0.801469 0.921469 0.681469
0.936846 0.936846 0.696846
0.977459 0.941459 0.701459
0.196815 0.896815 0.620815
0.269017 0.905017 0.629017
0.404394 0.920394 0.644394
0.539771 0.935771 0.659771
0.675148 0.951148 0.675148
0.810525 0.966525 0.690525
0.945902 0.981902 0.705902
0.986515 0.986515 0.710515
0.026578 0.026578 0.570578
0.098779 0.034779 0.578779
0.234157 0.050157 0.594157
0.369534 0.065534 0.609534
0.504911 0.080911 0.624911
0.640288 0.096288 0.640288
0.775665 0.111665 0.655665
0.816278 0.116278 0.660278
0.042679 0.106679 0.586679
0.114880 0.114880 0.594880
0.250257 0.130257 0.610257
0.385634 0.145634 0.625634
0.521011 0.161011 0.641011
0.656389 0.176389 0.656389
0.791766 0.191766 0.671766
0.832379 0.196379 0.676379
0.072867 0.256867 0.616867
0.145069 0.265069 0.625069
0.280446 0.280446 0.640446
0.415823 0.295823 0.655823
0.551200 0.311200 0.671200
0.686577 0.326577 0.686577
0.821954 0.341954 0.701954
0.862567 0.346567 0.706567
0.103056 0.407056 0.647056
0.175257 0.415257 0.655257
0.310634 0.430634 0.670634
0.446011 0.446011 0.686011
0.581389 0.461389 0.701389
0.716766 0.476766 0.716766
0.852143 0.492143 0.732143
0.892756 0.496756 0.736756
0.133245 0.557245 0.677245
0.205446 0.565446 0.685446
0.340823 0.580823 0.700823
0.476200 0.596200 0.716200
0.611577 0.611577 0.731577
0.746954 0.626954 0.746954
0.882331 0.642331 0.762331
0.922945 0.646945 0.766945
0.163433 0.707433 0.707433
0.235634 0.715634 0.715634
0.371011 0.731011 0.731011
0.506389 0.746389 0.746389
0.641766 0.761766 0.761766
0.777143 0.777143 0.777143
0.912520 0.792520 0.792520
0.953133 0.797133 0.797133
0.193622 0.857622 0.737622
0.265823 0.865823 0.745823
0.401200 0.881200 0.761200
0.536577 0.896577 0.776577
0.671954 0.911954 0.791954
0.807331 0.927331 0.807331
0.942709 0.942709 0.822709
0.983322 0.947322 0.827322
0.202678 0.902678 0.746678
0.274879 0.910879 0.754879
0.410257 0.926257 0.770257
0.545634 0.941634 0.785634
0.681011 0.957011 0.801011
0.816388 0.972388 0.816388
0.951765 0.987765 0.831765
0.992378 0.992378 0.836378
0.032441 0.032441 0.696441
0.104642 0.040642 0.704642
0.240019 0.056019 0.720019
0.375397 0.071397 0.735397
0.510774 0.086774 0.750774
0.646151 0.102151 0.766151
0.781528 0.117528 0.781528
0.822141 0.122141 0.786141
0.048542 0.112542 0.712542
0.120743 0.120743 0.720743
0.256120 0.136120 0.736120
0.391497 0.151497 0.751497
0.526874 0.166874 0.766874
0.662251 0.182251 0.782251
0.797629 0.197629 0.797629
0.838242 0.202242 0.802242
0.078730 0.262730 0.742730
0.150931 0.270931 0.750931
0.286309 0.286309 0.766309
0.421686 0.301686 0.781686
0.557063 0.317063 0.797063
0.692440 0.332440 0.812440
0.827817 0.347817 0.827817
0.868430 0.352430 0.832430
0.108919 0.412919 0.772919
0.181120 0.421120 0.781120
0.316497 0.436497 0.796497
0.451874 0.451874 0.811874
0.587251 0.467251 0.827251
0.722629 0.482629 0.842629
0.858006 0.498006 0.858006
0.898619 0.502619 0.862619
0.139107 0.563107 0.803107
0.211309 0.571309 0.811309
0.346686 0.586686 0.826686
0.482063 0.602063 0.842063
0.617440 0.617440 0.857440
0.752817 0.632817 0.872817
0.888194 0.648194 0.888194
0.928807 0.652807 0.892807
0.169296 0.713296 0.833296
0.241497 0.721497 0.841497
0.376874 0.736874 0.856874
0.512251 0.752251 0.872251
0.647629 0.767629 0.887629
0.783006 0.783006 0.903006
0.918383 0.798383 0.918383
0.958996 0.802996 0.922996
0.199485 0.863485 0.863485
0.271686 0.871686 0.871686
0.407063 0.887063 0.887063
0.542440 0.902440 0.902440
0.677817 0.917817 0.917817
0.813194 0.933194 0.933194
0.948571 0.948571 0.948571
0.989185 0.953185 0.953185
0.208541 0.908541 0.872541
0.280742 0.916742 0.880742
0.416119 0.932119 0.896119
0.551497 0.947497 0.911497
0.686874 0.962874 0.926874
0.822251 0.978251 0.942251
0.957628 0.993628 0.957628
0.998241 0.998241 0.962241
0.034200 0.034200 0.734200
0.106401 0.042401 0.742401
0.241778 0.057778 0.757778
0.377155 0.073155 0.773155
0.512533 0.088533 0.788533
0.647910 0.103910 0.803910
0.783287 0.119287 0.819287
0.823900 0.123900 0.823900
0.050301 0.114301 0.750301
0.122502 0.122502 0.758502
0.257879 0.137879 0.773879
0.393256 0.153256 0.789256
0.528633 0.168633 0.804633
0.664010 0.184010 0.820010
0.799387 0.199387 0.835387
0.840001 0.204001 0.840001
0.080489 0.264489 0.780489
0.152690 0.272690 0.788690
0.288067 0.288067 0.804067
0.423445 0.303445 0.819445
0.558822 0.318822 0.834822
0.694199 0.334199 0.850199
0.829576 0.349576 0.865576
0.870189 0.354189 0.870189
0.110678 0.414678 0.810678
0.182879 0.422879 0.818879
0.318256 0.438256 0.834256
0.453633 0.453633 0.849633
0.589010 0.469010 0.865010
0.724387 0.484387 0.880387
0.859765 0.499765 0.895765
0.900378 0.504378 0.900378
0.140866 0.564866 0.840866
0.213067 0.573067 0.849067
0.348445 0.588445 0.864445
0.483822 0.603822 0.879822
0.619199 0.619199 0.895199
0.754576 0.634576 0.910576
0.889953 0.649953 0.925953
0.930566 0.654566 0.930566
0.171055 0.715055 0.871055
0.243256 0.723256 0.879256
0.378633 0.738633 0.894633
0.514010 0.754010 0.910010
0.649387 0.769387 0.925387
0.784765 0.784765 0.940765
0.920142 0.800142 0.956142
0.960755 0.804755 0.960755
0.201243 0.865243 0.901243
0.273445 0.873445 0.909445
0.408822 0.888822 0.924822
0.544199 0.904199 0.940199
0.679576 0.919576 0.955576
0.814953 0.934953 0.970953
0.950330 0.950330 0.986330
0.990943 0.954943 0.990943
0.210300 0.910300 0.910300
0.282501 0.918501 0.918501
0.417878 0.933878 0.933878
0.553255 0.949255 0.949255
0.688633 0.964633 0.964633
0.824010 0.980010 0.980010
0.959387 0.995387 0.995387
1.000000 1.000000 1.000000
