assets/luts/bw.cube
TITLE "黑白"
LUT_3D_SIZE 8
DOMAIN_MIN 0.0 0.0 0.0
DOMAIN_MAX 1.0 1.0 1.0
0.000000 0.000000 0.000000
0.032036 0.032036 0.032036
0.079021 0.079021 0.079021
0.126007 0.126007 0.126007
0.172993 0.172993 0.172993
0.219979 0.219979 0.219979
0.266964 0.266964 0.266964
0.299000 0.299000 0.299000
0.062893 0.062893 0.062893
0.094929 0.094929 0.094929
0.141914 0.141914 0.141914
0.188900 0.188900 0.188900
0.235886 0.235886 0.235886
0.282871 0.282871 0.282871
0.329857 0.329857 0.329857
0.361893 0.361893 0.361893
0.155136 0.155136 0.155136
0.187171 0.187171 0.187171
0.234157 0.234157 0.234157
0.281143 0.281143 0.281143
0.328129 0.328129 0.328129
0.375114 0.375114 0.375114
0.422100 0.422100 0.422100
0.454136 0.454136 0.454136
0.247379 0.247379 0.247379
0.279414 0.279414 0.279414
0.326400 0.326400 0.326400
0.373386 0.373386 0.373386
0.420371 0.420371 0.420371
0.467357 0.467357 0.467357
0.514343 0.514343 0.514343
0.546379 0.546379 0.546379
0.339621 0.339621 0.339621
0.371657 0.371657 0.371657
0.418643 0.418643 0.418643
0.465629 0.465629 0.465629
0.512614 0.512614 0.512614
0.559600 0.559600 0.559600
0.606586 0.606586 0.606586
0.638621 0.638621 0.638621
0.431864 0.431864 0.431864
0.463900 0.463900 0.463900
0.510886 0.510886 0.510886
0.557871 0.557871 0.557871
0.604857 0.604857 0.604857
0.651843 0.651843 0.651843
0.698829 0.698829 0.698829
0.730864 0.730864 0.730864
0.524107 0.524107 0.524107
0.556143 0.556143 0.556143
0.603129 0.603129 0.603129
0.650114 0.650114 0.650114
0.697100 0.697100 0.697100
0.744086 0.744086 0.744086
0.791071 0.791071 0.791071
0.823107 0.823107 0.823107
0.587000 0.587000 0.587000
0.619036 0.619036 0.619036
0.666021 0.666021 0.666021
0.713007 0.713007 0.713007
0.759993 0.759993 0.759993
0.806979 0.806979 0.806979
0.853964 0.853964 0.853964
0.886000 0.886000 0.886000
0.012214 0.012214 0.012214
0.044250 0.044250 0.044250
0.091236 0.091236 0.091236
0.138221 0.138221 0.138221
0.185207 0.185207 0.185207
0.232193 0.232193 0.232193
0.279179 0.279179 0.279179
0.311214 0.311214 0.311214
0.075107 0.075107 0.075107
0.107143 0.107143 0.107143
0.154129 0.154129 0.154129
0.201114 0.201114 0.201114
0.248100 0.248100 0.248100
0.295086 0.295086 0.295086
0.342071 0.342071 0.342071
0.374107 0.374107 0.374107
0.167350 0.167350 0.167350
0.199386 0.199386 0.199386
0.246371 0.246371 0.246371
0.293357 0.293357 0.293357
0.340343 0.340343 0.340343
0.387329 0.387329 0.387329
0.434314 0.434314 0.434314
0.466350 0.466350 0.466350
0.259593 0.259593 0.259593
0.291629 0.291629 0.291629
0.338614 0.338614 0.338614
0.385600 0.385600 0.385600
0.432586 0.432586 0.432586
0.479571 0.479571 0.479571
0.526557 0.526557 0.526557
0.558593 0.558593 0.558593
0.351836 0.351836 0.351836
0.383871 0.383871 0.383871
0.430857 0.430857 0.430857
0.477843 0.477843 0.477843
0.524829 0.524829 0.524829
0.571814 0.571814 0.571814
0.618800 0.618800 0.618800
0.650836 0.650836 0.650836
0.444079 0.444079 0.444079
0.476114 0.476114 0.476114
0.523100 0.523100 0.523100
0.570086 0.570086 0.570086
0.617071 0.617071 0.617071
0.664057 0.664057 0.664057
0.711043 0.711043 0.711043
0.743079 0.743079 0.743079
0.536321 0.536321 0.536321
0.568357 0.568357 0.568357
0.615343 0.615343 0.615343
0.662329 0.662329 0.662329
0.709314 0.709314 0.709314
0.756300 0.756300 0.756300
0.803286 0.803286 0.803286
0.835321 0.835321 0.835321
0.599214 0.599214 0.599214
0.631250 0.631250 0.631250
0.678236 0.678236 0.678236
0.725221 0.725221 0.725221
0.772207 0.772207 0.772207
0.819193 0.819193 0.819193
0.866179 0.866179 0.866179
0.898214 0.898214 0.898214
0.030129 0.030129 0.030129
0.062164 0.062164 0.062164
0.109150 0.109150 0.109150
0.156136 0.156136 0.156136
0.203121 0.203121 0.203121
0.250107 0.250107 0.250107
0.297093 0.297093 0.297093
0.329129 0.329129 0.329129
0.093021 0.093021 0.093021
0.125057 0.125057 0.125057
0.172043 0.172043 0.172043
0.219029 0.219029 0.219029
0.266014 0.266014 0.266014
0.313000 0.313000 0.313000
0.359986 0.359986 0.359986
0.392021 0.392021 0.392021
0.185264 0.185264 0.185264
0.217300 0.217300 0.217300
0.264286 0.264286 0.264286
0.311271 0.311271 0.311271
0.358257 0.358257 0.358257
0.405243 0.405243 0.405243
0.452229 0.452229 0.452229
0.484264 0.484264 0.484264
0.277507 0.277507 0.277507
0.309543 0.309543 0.309543
0.356529 0.356529 0.356529
0.403514 0.403514 0.403514
0.450500 0.450500 0.450500
0.497486 0.497486 0.497486
0.544471 0.544471 0.544471
0.576507 0.576507 0.576507
0.369750 0.369750 0.369750
0.401786 0.401786 0.401786
0.448771 0.448771 0.448771
0.495757 0.495757 0.495757
0.542743 0.542743 0.542743
0.589729 0.589729 0.589729
0.636714 0.636714 0.636714
0.668750 0.668750 0.668750
0.461993 0.461993 0.461993
0.494029 0.494029 0.494029
0.541014 0.541014 0.541014
0.588000 0.588000 0.588000
0.634986 0.634986 0.634986
0.681971 0.681971 0.681971
0.728957 0.728957 0.728957
0.760993 0.760993 0.760993
0.554236 0.554236 0.554236
0.586271 0.586271 0.586271
0.633257 0.633257 0.633257
0.680243 0.680243 0.680243
0.727229 0.727229 0.727229
0.774214 0.774214 0.774214
0.821200 0.821200 0.821200
0.853236 0.853236 0.853236
0.617129 0.617129 0.617129
0.649164 0.649164 0.649164
0.696150 0.696150 0.696150
0.743136 0.743136 0.743136
0.790121 0.790121 0.790121
0.837107 0.837107 0.837107
0.884093 0.884093 0.884093
0.916129 0.916129 0.916129
0.048043 0.048043 0.048043
0.080079 0.080079 0.080079
0.127064 0.127064 0.127064
0.174050 0.174050 0.174050
0.221036 0.221036 0.221036
0.268021 0.268021 0.268021
0.315007 0.315007 0.315007
0.347043 0.347043 0.347043
0.110936 0.110936 0.110936
0.142971 0.142971 0.142971
0.189957 0.189957 0.189957
0.236943 0.236943 0.236943
0.283929 0.283929 0.283929
0.330914 0.330914 0.330914
0.377900 0.377900 0.377900
0.409936 0.409936 0.409936
0.203179 0.203179 0.203179
0.235214 0.235214 0.235214
0.282200 0.282200 0.282200
0.329186 0.329186 0.329186
0.376171 0.376171 0.376171
0.423157 0.423157 0.423157
0.470143 0.470143 0.470143
0.502179 0.502179 0.502179
0.295421 0.295421 0.295421
0.327457 0.327457 0.327457
0.374443 0.374443 0.374443
0.421429 0.421429 0.421429
0.468414 0.468414 0.468414
0.515400 0.515400 0.515400
0.562386 0.562386 0.562386
0.594421 0.594421 0.594421
0.387664 0.387664 0.387664
0.419700 0.419700 0.419700
0.466686 0.466686 0.466686
0.513671 0.513671 0.513671
0.560657 0.560657 0.560657
0.607643 0.607643 0.607643
0.654629 0.654629 0.654629
0.686664 0.686664 0.686664
0.479907 0.479907 0.479907
0.511943 0.511943 0.511943
0.558929 0.558929 0.558929
0.605914 0.605914 0.605914
0.652900 0.652900 0.652900
0.699886 0.699886 0.699886
0.746871 0.746871 0.746871
0.778907 0.778907 0.778907
0.572150 0.572150 0.572150
0.604186 0.604186 0.604186
0.651171 0.651171 0.651171
0.698157 0.698157 0.698157
0.745143 0.745143 0.745143
0.792129 0.792129 0.792129
0.839114 0.839114 0.839114
0.871150 0.871150 0.871150
0.635043 0.635043 0.635043
0.667079 0.667079 0.667079
0.714064 0.714064 0.714064
0.761050 0.761050 0.761050
0.808036 0.808036 0.808036
0.855021 0.855021 0.855021
0.902007 0.902007 0.902007
0.934043 0.934043 0.934043
0.065957 0.065957 0.065957
0.097993 0.097993 0.097993
0.144979 0.144979 0.144979
0.191964 0.191964 0.191964
0.238950 0.238950 0.238950
0.285936 0.285936 0.285936
0.332921 0.332921 0.332921
0.364957 0.364957 0.364957
0.128850 0.128850 0.128850
0.160886 0.160886 0.160886
0.207871 0.207871 0.207871
0.254857 0.254857 0.254857
0.301843 0.301843 0.301843
0.348829 0.348829 0.348829
0.395814 0.395814 0.395814
0.427850 0.427850 0.427850
0.221093 0.221093 0.221093
0.253129 0.253129 0.253129
0.300114 0.300114 0.300114
0.347100 0.347100 0.347100
0.394086 0.394086 0.394086
0.441071 0.441071 0.441071
0.488057 0.488057 0.488057
0.520093 0.520093 0.520093
0.313336 0.313336 0.313336
0.345371 0.345371 0.345371
0.392357 0.392357 0.392357
0.439343 0.439343 0.439343
0.486329 0.486329 0.486329
0.533314 0.533314 0.533314
0.580300 0.580300 0.580300
0.612336 0.612336 0.612336
0.405579 0.405579 0.405579
0.437614 0.437614 0.437614
0.484600 0.484600 0.484600
0.531586 0.531586 0.531586
0.578571 0.578571 0.578571
0.625557 0.625557 0.625557
0.672543 0.672543 0.672543
0.704579 0.704579 0.704579
0.497821 0.497821 0.497821
0.529857 0.529857 0.529857
0.576843 0.576843 0.576843
0.623829 0.623829 0.623829
0.670814 0.670814 0.670814
0.717800 0.717800 0.717800
0.764786 0.764786 0.764786
0.796821 0.796821 0.796821
0.590064 0.590064 0.590064
0.622100 0.622100 0.622100
0.669086 0.669086 0.669086
0.716071 0.716071 0.716071
0.763057 0.763057 0.763057
0.810043 0.810043 0.810043
0.857029 0.857029 0.857029
0.889064 0.889064 0.889064
0.652957 0.652957 0.652957
0.684993 0.684993 0.684993
0.731979 0.731979 0.731979
0.778964 0.778964 0.778964
0.825950 0.825950 0.825950
0.872936 0.872936 0.872936
0.919921 0.919921 0.919921
0.951957 0.951957 0.951957
0.083871 0.083871 0.083871
0.115907 0.115907 0.115907
0.162893 0.162893 0.162893
0.209879 0.209879 0.209879
0.256864 0.256864 0.256864
0.303850 0.303850 0.303850
0.350836 0.350836 0.350836
0.382871 0.382871 0.382871
0.146764 0.146764 0.146764
0.178800 0.178800 0.178800
0.225786 0.225786 0.225786
0.272771 0.272771 0.272771
0.319757 0.319757 0.319757
0.366743 0.366743 0.366743
0.413729 0.413729 0.413729
0.445764 0.445764 0.445764
0.239007 0.239007 0.239007
0.271043 0.271043 0.271043
0.318029 0.318029 0.318029
0.365014 0.365014 0.365014
0.412000 0.412000 0.412000
0.458986 0.458986 0.458986
0.505971 0.505971 0.505971
0.538007 0.538007 0.538007
0.331250 0.331250 0.331250
0.363286 0.363286 0.363286
0.410271 0.410271 0.410271
0.457257 0.457257 0.457257
0.504243 0.504243 0.504243
0.551229 0.551229 0.551229
0.598214 0.598214 0.598214
0.630250 0.630250 0.630250
0.423493 0.423493 0.423493
0.455529 0.455529 0.455529
0.502514 0.502514 0.502514
0.549500 0.549500 0.549500
0.596486 0.596486 0.596486
0.643471 0.643471 0.643471
0.690457 0.690457 0.690457
0.722493 0.722493 0.722493
0.515736 0.515736 0.515736
0.547771 0.547771 0.547771
0.594757 0.594757 0.594757
0.641743 0.641743 0.641743
0.688729 0.688729 0.688729
0.735714 0.735714 0.735714
0.782700 0.782700 0.782700
0.814736 0.814736 0.814736
0.607979 0.607979 0.607979
0.640014 0.640014 0.640014
0.687000 0.687000 0.687000
0.733986 0.733986 0.733986
0.780971 0.780971 0.780971
0.827957 0.827957 0.827957
0.874943 0.874943 0.874943
0.906979 0.906979 0.906979
0.670871 0.670871 0.670871
0.702907 0.702907 0.702907
0.749893 0.749893 0.749893
0.796879 0.796879 0.796879
0.843864 0.843864 0.843864
0.890850 0.890850 0.890850
0.937836 0.937836 0.937836
0.969871 0.969871 0.969871
0.101786 0.101786 0.101786
0.133821 0.133821 0.133821
0.180807 0.180807 0.180807
0.227793 0.227793 0.227793
0.274779 0.274779 0.274779
0.321764 0.321764 0.321764
0.368750 0.368750 0.368750
0.400786 0.400786 0.400786
0.164679 0.164679 0.164679
0.196714 0.196714 0.196714
0.243700 0.243700 0.243700
0.290686 0.290686 0.290686
0.337671 0.337671 0.337671
0.384657 0.384657 0.384657
0.431643 0.431643 0.431643
0.463679 0.463679 0.463679
0.256921 0.256921 0.256921
0.288957 0.288957 0.288957
0.335943 0.335943 0.335943
0.382929 0.382929 0.382929
0.429914 0.429914 0.429914
0.476900 0.476900 0.476900
0.523886 0.523886 0.523886
0.555921 0.555921 0.555921
0.349164 0.349164 0.349164
0.381200 0.381200 0.381200
0.428186 0.428186 0.428186
0.475171 0.475171 0.475171
0.522157 0.522157 0.522157
0.569143 0.569143 0.569143
0.616129 0.616129 0.616129
0.648164 0.648164 0.648164
0.441407 0.441407 0.441407
0.473443 0.473443 0.473443
0.520429 0.520429 0.520429
0.567414 0.567414 0.567414
0.614400 0.614400 0.614400
0.661386 0.661386 0.661386
0.708371 0.708371 0.708371
0.740407 0.740407 0.740407
0.533650 0.533650 0.533650
0.565686 0.565686 0.565686
0.612671 0.612671 0.612671
0.659657 0.659657 0.659657
0.706643 0.706643 0.706643
0.753629 0.753629 0.753629
0.800614 0.800614 0.800614
0.832650 0.832650 0.832650
0.625893 0.625893 0.625893
0.657929 0.657929 0.657929
0.704914 0.704914 0.704914
0.751900 0.751900 0.751900
0.798886 0.798886 0.798886
0.845871 0.845871 0.845871
0.892857 0.892857 0.892857
0.924893 0.924893 0.924893
0.688786 0.688786 0.688786
0.720821 0.720821 0.720821
0.767807 0.767807 0.767807
0.814793 0.814793 0.814793
0.861779 0.861779 0.861779
0.908764 0.908764 0.908764
0.955750 0.955750 0.955750
0.987786 0.987786 0.987786
0.114000 0.114000 0.114000
0.146036 0.146036 0.146036
0.193021 0.193021 0.193021
0.240007 0.240007 0.240007
0.286993 0.286993 0.286993
0.333979 0.333979 0.333979
0.380964 0.380964 0.380964
0.413000 0.413000 0.413000
0.176893 0.176893 0.176893
0.208929 0.208929 0.208929
0.255914 0.255914 0.255914
0.302900 0.302900 0.302900
0.349886 0.349886 0.349886
0.396871 0.396871 0.396871
0.443857 0.443857 0.443857
0.475893 0.475893 0.475893
0.269136 0.269136 0.269136
0.301171 0.301171 0.301171
0.348157 0.348157 0.348157
0.395143 0.395143 0.395143
0.442129 0.442129 0.442129
0.489114 0.489114 0.489114
0.536100 0.536100 0.536100
0.568136 0.568136 0.568136
0.361379 0.361379 0.361379
0.393414 0.393414 0.393414
0.440400 0.440400 0.440400
0.487386 0.487386 0.487386
0.534371 0.534371 0.534371
0.581357 0.581357 0.581357
0.628343 0.628343 0.628343
0.660379 0.660379 0.660379
0.453621 0.453621 0.453621
0.485657 0.485657 0.485657
0.532643 0.532643 0.532643
0.579629 0.579629 0.579629
0.626614 0.626614 0.626614
0.673600 0.673600 0.673600
0.720586 0.720586 0.720586
0.752621 0.752621 0.752621
0.545864 0.545864 0.545864
0.577900 0.577900 0.577900
0.624886 0.624886 0.624886
0.671871 0.671871 0.671871
0.718857 0.718857 0.718857
0.765843 0.765843 0.765843
0.812829 0.812829 0.812829
0.844864 0.844864 0.844864
0.638107 0.638107 0.638107
0.670143 0.670143 0.670143
0.717129 0.717129 0.717129
0.764114 0.764114 0.764114
0.811100 0.811100 0.811100
0.858086 0.858086 0.858086
0.905071 0.905071 0.905071
0.937107 0.937107 0.937107
0.701000 0.701000 0.701000
0.733036 0.733036 0.733036
0.780021 0.780021 0.780021
0.827007 0.827007 0.827007
0.873993 0.873993 0.873993
0.920979 0.920979 0.920979
0.967964 0.967964 0.967964
1.000000 1.000000 1.000000
