assets/luts/cinematic.cube
TITLE "电影感"
LUT_3D_SIZE 8
DOMAIN_MIN 0.0 0.0 0.0
DOMAIN_MAX 1.0 1.0 1.0
0.020000 0.000000 0.020000
0.099897 0.004004 0.024004
0.246908 0.011373 0.031373
0.393919 0.018741 0.038741
0.540931 0.026109 0.046109
0.687942 0.033477 0.053477
0.834953 0.040846 0.060846
0.914850 0.044850 0.064850
0.027862 0.083754 0.027862
0.107759 0.087759 0.031866
0.254770 0.095127 0.039234
0.401781 0.102495 0.046603
0.548792 0.109864 0.053971
0.695803 0.117232 0.061339
0.842814 0.124600 0.068707
0.922712 0.128604 0.072712
0.042327 0.237863 0.042327
0.122224 0.241867 0.046331
0.269235 0.249235 0.053700
0.416246 0.256604 0.061068
0.563257 0.263972 0.068436
0.710269 0.271340 0.075804
0.857280 0.278708 0.083173
0.937177 0.282713 0.087177
0.056792 0.391971 0.056792
0.136690 0.395975 0.060797
0.283701 0.403344 0.068165
0.430712 0.410712 0.075533
0.577723 0.418080 0.082901
0.724734 0.425448 0.090270
0.871745 0.432816 0.097638
0.951642 0.436821 0.101642
0.071258 0.546079 0.071258
0.151155 0.550084 0.075262
0.298166 0.557452 0.082630
0.445177 0.564820 0.089999
0.592188 0.572188 0.097367
0.739199 0.579556 0.104735
0.886210 0.586925 0.112103
0.966108 0.590929 0.116108
0.085723 0.700187 0.085723
0.165620 0.704192 0.089728
0.312631 0.711560 0.097096
0.459642 0.718928 0.104464
0.606654 0.726296 0.111832
0.753665 0.733665 0.119200
0.900676 0.741033 0.126569
0.980573 0.745037 0.130573
0.100188 0.854296 0.100188
0.180086 0.858300 0.104193
0.327097 0.865668 0.111561
0.474108 0.873036 0.118929
0.621119 0.880405 0.126298
0.768130 0.887773 0.133666
0.915141 0.895141 0.141034
0.995038 0.899146 0.145038
0.108050 0.938050 0.108050
0.187947 0.942054 0.112054
0.334958 0.949423 0.119423
0.481969 0.956791 0.126791
0.628981 0.964159 0.134159
0.775992 0.971527 0.141527
0.923003 0.978896 0.148896
1.000000 0.982900 0.152900
0.021527 0.001527 0.097420
0.101424 0.005531 0.101424
0.248435 0.012899 0.108792
0.395446 0.020268 0.116161
0.542457 0.027636 0.123529
0.689468 0.035004 0.130897
0.836479 0.042372 0.138265
0.916377 0.046377 0.142270
0.029388 0.085281 0.105281
0.109286 0.089286 0.109286
0.256297 0.096654 0.116654
0.403308 0.104022 0.124022
0.550319 0.111390 0.131390
0.697330 0.118759 0.138759
0.844341 0.126127 0.146127
0.924238 0.130131 0.150131
0.043854 0.239389 0.119747
0.123751 0.243394 0.123751
0.270762 0.250762 0.131119
0.417773 0.258130 0.138488
0.564784 0.265499 0.145856
0.711795 0.272867 0.153224
0.858806 0.280235 0.160592
0.938704 0.284239 0.164597
0.058319 0.393498 0.134212
0.138216 0.397502 0.138216
0.285227 0.404870 0.145585
0.432239 0.412239 0.152953
0.579250 0.419607 0.160321
0.726261 0.426975 0.167689
0.873272 0.434343 0.175058
0.953169 0.438348 0.179062
0.072784 0.547606 0.148677
0.152682 0.551610 0.152682
0.299693 0.558979 0.160050
0.446704 0.566347 0.167418
0.593715 0.573715 0.174786
0.740726 0.581083 0.182155
0.887737 0.588451 0.189523
0.967634 0.592456 0.193527
0.087250 0.701714 0.163143
0.167147 0.705719 0.167147
0.314158 0.713087 0.174515
0.461169 0.720455 0.181884
0.608180 0.727823 0.189252
0.755191 0.735191 0.196620
0.902202 0.742560 0.203988
0.982100 0.746564 0.207993
0.101715 0.855822 0.177608
0.181613 0.859827 0.181613
0.328624 0.867195 0.188981
0.475635 0.874563 0.196349
0.622646 0.881931 0.203717
0.769657 0.889300 0.211085
0.916668 0.896668 0.218454
0.996565 0.900672 0.222458
0.109577 0.939577 0.185470
0.189474 0.943581 0.189474
0.336485 0.950949 0.196842
0.483496 0.958318 0.204211
0.630507 0.965686 0.211579
0.777518 0.973054 0.218947
0.924529 0.980422 0.226315
1.000000 0.984427 0.230320
0.024336 0.004336 0.239872
0.104233 0.008341 0.243876
0.251244 0.015709 0.251244
0.398256 0.023077 0.258613
0.545267 0.030445 0.265981
0.692278 0.037813 0.273349
0.839289 0.045182 0.280717
0.919186 0.049186 0.284722
0.032198 0.088091 0.247733
0.112095 0.092095 0.251738
0.259106 0.099463 0.259106
0.406117 0.106831 0.266474
0.553128 0.114200 0.273842
0.700139 0.121568 0.281211
0.847150 0.128936 0.288579
0.927048 0.132941 0.292583
0.046663 0.242199 0.262199
0.126560 0.246203 0.266203
0.273571 0.253571 0.273571
0.420582 0.260940 0.280940
0.567594 0.268308 0.288308
0.714605 0.275676 0.295676
0.861616 0.283044 0.303044
0.941513 0.287049 0.307049
0.061128 0.396307 0.276664
0.141026 0.400311 0.280669
0.288037 0.407680 0.288037
0.435048 0.415048 0.295405
0.582059 0.422416 0.302773
0.729070 0.429784 0.310141
0.876081 0.437152 0.317510
0.955978 0.441157 0.321514
0.075594 0.550415 0.291129
0.155491 0.554420 0.295134
0.302502 0.561788 0.302502
0.449513 0.569156 0.309870
0.596524 0.576524 0.317239
0.743535 0.583892 0.324607
0.890546 0.591261 0.331975
0.970444 0.595265 0.335979
0.090059 0.704523 0.305595
0.169956 0.708528 0.309599
0.316968 0.715896 0.316968
0.463979 0.723264 0.324336
0.610990 0.730632 0.331704
0.758001 0.738001 0.339072
0.905012 0.745369 0.346440
0.984909 0.749373 0.350445
0.104524 0.858632 0.320060
0.184422 0.862636 0.324065
0.331433 0.870004 0.331433
0.478444 0.877372 0.338801
0.625455 0.884741 0.346169
0.772466 0.892109 0.353538
0.919477 0.899477 0.360906
0.999374 0.903482 0.364910
0.112386 0.942386 0.327922
0.192283 0.946391 0.331926
0.339294 0.953759 0.339294
0.486306 0.961127 0.346663
0.633317 0.968495 0.354031
0.780328 0.975863 0.361399
0.927339 0.983232 0.368767
1.000000 0.987236 0.372772
0.027145 0.007145 0.382324
0.107043 0.011150 0.386328
0.254054 0.018518 0.393697
0.401065 0.025886 0.401065
0.548076 0.033254 0.408433
0.695087 0.040623 0.415801
0.842098 0.047991 0.423169
0.921995 0.051995 0.427174
0.035007 0.090900 0.390186
0.114904 0.094904 0.394190
0.261915 0.102273 0.401558
0.408926 0.109641 0.408926
0.555937 0.117009 0.416295
0.702949 0.124377 0.423663
0.849960 0.131745 0.431031
0.929857 0.135750 0.435036
0.049472 0.245008 0.404651
0.129370 0.249012 0.408655
0.276381 0.256381 0.416024
0.423392 0.263749 0.423392
0.570403 0.271117 0.430760
0.717414 0.278485 0.438128
0.864425 0.285854 0.445496
0.944322 0.289858 0.449501
0.063938 0.399116 0.419116
0.143835 0.403121 0.423121
0.290846 0.410489 0.430489
0.437857 0.417857 0.437857
0.584868 0.425225 0.445225
0.731879 0.432594 0.452594
0.878890 0.439962 0.459962
0.958788 0.443966 0.463966
0.078403 0.553224 0.433582
0.158300 0.557229 0.437586
0.305311 0.564597 0.444954
0.452322 0.571965 0.452322
0.599334 0.579334 0.459691
0.746345 0.586702 0.467059
0.893356 0.594070 0.474427
0.973253 0.598074 0.478432
0.092868 0.707333 0.448047
0.172766 0.711337 0.452051
0.319777 0.718705 0.459420
0.466788 0.726074 0.466788
0.613799 0.733442 0.474156
0.760810 0.740810 0.481524
0.907821 0.748178 0.488892
0.987718 0.752183 0.492897
0.107334 0.861441 0.462512
0.187231 0.865445 0.466517
0.334242 0.872814 0.473885
0.481253 0.880182 0.481253
0.628264 0.887550 0.488621
0.775275 0.894918 0.495990
0.922286 0.902286 0.503358
1.000000 0.906291 0.507362
0.115195 0.945195 0.470374
0.195093 0.949200 0.474378
0.342104 0.956568 0.481747
0.489115 0.963936 0.489115
0.636126 0.971304 0.496483
0.783137 0.978673 0.503851
0.930148 0.986041 0.511219
1.000000 0.990045 0.515224
0.029955 0.009955 0.524776
0.109852 0.013959 0.528781
0.256863 0.021327 0.536149
0.403874 0.028696 0.543517
0.550885 0.036064 0.550885
0.697896 0.043432 0.558253
0.844907 0.050800 0.565622
0.924805 0.054805 0.569626
0.037816 0.093709 0.532638
0.117714 0.097714 0.536642
0.264725 0.105082 0.544010
0.411736 0.112450 0.551379
0.558747 0.119818 0.558747
0.705758 0.127186 0.566115
0.852769 0.134555 0.573483
0.932666 0.138559 0.577488
0.052282 0.247817 0.547103
0.132179 0.251822 0.551107
0.279190 0.259190 0.558476
0.426201 0.266558 0.565844
0.573212 0.273926 0.573212
0.720223 0.281295 0.580580
0.867234 0.288663 0.587949
0.947132 0.292667 0.591953
0.066747 0.401926 0.561568
0.146644 0.405930 0.565573
0.293655 0.413298 0.572941
0.440666 0.420666 0.580309
0.587677 0.428035 0.587677
0.734689 0.435403 0.595046
0.881700 0.442771 0.602414
0.961597 0.446776 0.606418
0.081212 0.556034 0.576034
0.161110 0.560038 0.580038
0.308121 0.567406 0.587406
0.455132 0.574775 0.594775
0.602143 0.582143 0.602143
0.749154 0.589511 0.609511
0.896165 0.596879 0.616879
0.976062 0.600884 0.620884
0.095678 0.710142 0.590499
0.175575 0.714146 0.594504
0.322586 0.721515 0.601872
0.469597 0.728883 0.609240
0.616608 0.736251 0.616608
0.763619 0.743619 0.623976
0.910630 0.750987 0.631345
0.990528 0.754992 0.635349
0.110143 0.864250 0.604964
0.190040 0.868255 0.608969
0.337051 0.875623 0.616337
0.484063 0.882991 0.623705
0.631074 0.890359 0.631074
0.778085 0.897727 0.638442
0.925096 0.905096 0.645810
1.000000 0.909100 0.649814
0.118005 0.948005 0.612826
0.197902 0.952009 0.616831
0.344913 0.959377 0.624199
0.491924 0.966746 0.631567
0.638935 0.974114 0.638935
0.785946 0.981482 0.646303
0.932957 0.988850 0.653672
1.000000 0.992855 0.657676
0.032764 0.012764 0.667228
0.112661 0.016768 0.671233
0.259672 0.024137 0.678601
0.406683 0.031505 0.685969
0.553694 0.038873 0.693337
0.700706 0.046241 0.700706
0.847717 0.053609 0.708074
0.927614 0.057614 0.712078
0.040626 0.096518 0.675090
0.120523 0.100523 0.679094
0.267534 0.107891 0.686462
0.414545 0.115259 0.693831
0.561556 0.122628 0.701199
0.708567 0.129996 0.708567
0.855578 0.137364 0.715935
0.935476 0.141368 0.719940
0.055091 0.250627 0.689555
0.134988 0.254631 0.693560
0.281999 0.261999 0.700928
0.429010 0.269367 0.708296
0.576021 0.276736 0.715664
0.723032 0.284104 0.723032
0.870044 0.291472 0.730401
0.949941 0.295477 0.734405
0.069556 0.404735 0.704021
0.149454 0.408739 0.708025
0.296465 0.416107 0.715393
0.443476 0.423476 0.722761
0.590487 0.430844 0.730130
0.737498 0.438212 0.737498
0.884509 0.445580 0.744866
0.964406 0.449585 0.748871
0.084022 0.558843 0.718486
0.163919 0.562847 0.722490
0.310930 0.570216 0.729859
0.457941 0.577584 0.737227
0.604952 0.584952 0.744595
0.751963 0.592320 0.751963
0.898974 0.599689 0.759331
0.978872 0.603693 0.763336
0.098487 0.712951 0.732951
0.178384 0.716956 0.736956
0.325395 0.724324 0.744324
0.472406 0.731692 0.751692
0.619417 0.739060 0.759060
0.766429 0.746429 0.766429
0.913440 0.753797 0.773797
0.993337 0.757801 0.777801
0.112952 0.867059 0.747417
0.192850 0.871064 0.751421
0.339861 0.878432 0.758789
0.486872 0.885800 0.766157
0.633883 0.893169 0.773526
0.780894 0.900537 0.780894
0.927905 0.907905 0.788262
1.000000 0.911909 0.792267
0.120814 0.950814 0.755278
0.200711 0.954818 0.759283
0.347722 0.962187 0.766651
0.494733 0.969555 0.774019
0.641744 0.976923 0.781387
0.788756 0.984291 0.788756
0.935767 0.991659 0.796124
1.000000 0.995664 0.800128
0.035573 0.015573 0.809680
0.115471 0.019578 0.813685
0.262482 0.026946 0.821053
0.409493 0.034314 0.828421
0.556504 0.041682 0.835789
0.703515 0.049051 0.843158
0.850526 0.056419 0.850526
0.930423 0.060423 0.854530
0.043435 0.099328 0.817542
0.123332 0.103332 0.821546
0.270343 0.110700 0.828915
0.417354 0.118069 0.836283
0.564365 0.125437 0.843651
0.711376 0.132805 0.851019
0.858387 0.140173 0.858387
0.938285 0.144178 0.862392
0.057900 0.253436 0.832007
0.137797 0.257440 0.836012
0.284809 0.264809 0.843380
0.431820 0.272177 0.850748
0.578831 0.279545 0.858116
0.725842 0.286913 0.865485
0.872853 0.294281 0.872853
0.952750 0.298286 0.876857
0.072366 0.407544 0.846473
0.152263 0.411549 0.850477
0.299274 0.418917 0.857845
0.446285 0.426285 0.865214
0.593296 0.433653 0.872582
0.740307 0.441021 0.879950
0.887318 0.448390 0.887318
0.967216 0.452394 0.891323
0.086831 0.561652 0.860938
0.166728 0.565657 0.864942
0.313739 0.573025 0.872311
0.460750 0.580393 0.879679
0.607761 0.587761 0.887047
0.754772 0.595130 0.894415
0.901784 0.602498 0.901784
0.981681 0.606502 0.905788
0.101296 0.715761 0.875403
0.181194 0.719765 0.879408
0.328205 0.727133 0.886776
0.475216 0.734501 0.894144
0.622227 0.741870 0.901512
0.769238 0.749238 0.908881
0.916249 0.756606 0.916249
0.996146 0.760611 0.920253
0.115762 0.869869 0.889869
0.195659 0.873873 0.893873
0.342670 0.881241 0.901241
0.489681 0.888610 0.908610
0.636692 0.895978 0.915978
0.783703 0.903346 0.923346
0.930714 0.910714 0.930714
1.000000 0.914719 0.934719
0.123623 0.953623 0.897730
0.203521 0.957628 0.901735
0.350532 0.964996 0.909103
0.497543 0.972364 0.916471
0.644554 0.979732 0.923839
0.791565 0.987101 0.931208
0.938576 0.994469 0.938576
1.000000 0.998473 0.942580
0.037100 0.017100 0.887100
0.116997 0.021104 0.891104
0.264008 0.028473 0.898473
0.411019 0.035841 0.905841
0.558031 0.043209 0.913209
0.705042 0.050577 0.920577
0.852053 0.057946 0.927946
0.931950 0.061950 0.931950
0.044962 0.100854 0.894962
0.124859 0.104859 0.898966
0.271870 0.112227 0.906334
0.418881 0.119595 0.913702
0.565892 0.126964 0.921071
0.712903 0.134332 0.928439
0.859914 0.141700 0.935807
0.939812 0.145704 0.939812
0.059427 0.254963 0.909427
0.139324 0.258967 0.913431
0.286335 0.266335 0.920800
0.433346 0.273704 0.928168
0.580357 0.281072 0.935536
0.727369 0.288440 0.942904
0.874380 0.295808 0.950273
0.954277 0.299813 0.954277
0.073892 0.409071 0.923892
0.153790 0.413075 0.927897
0.300801 0.420444 0.935265
0.447812 0.427812 0.942633
0.594823 0.435180 0.950001
0.741834 0.442548 0.957370
0.888845 0.449916 0.964738
0.968742 0.453921 0.968742
0.088358 0.563179 0.938358
0.168255 0.567184 0.942362
0.315266 0.574552 0.949730
0.462277 0.581920 0.957099
0.609288 0.589288 0.964467
0.756299 0.596656 0.971835
0.903310 0.604025 0.979203
0.983208 0.608029 0.983208
0.102823 0.717287 0.952823
0.182720 0.721292 0.956827
0.329731 0.728660 0.964196
0.476742 0.736028 0.971564
0.623754 0.743396 0.978932
0.770765 0.750765 0.986300
0.917776 0.758133 0.993669
0.997673 0.762137 0.997673
0.117288 0.871396 0.967288
0.197186 0.875400 0.971293
0.344197 0.882768 0.978661
0.491208 0.890136 0.986029
0.638219 0.897505 0.993397
0.785230 0.904873 1.000000
0.932241 0.912241 1.000000
1.000000 0.916246 1.000000
0.125150 0.955150 0.975150
0.205047 0.959154 0.979154
0.352058 0.966523 0.986523
0.499069 0.973891 0.993891
0.646081 0.981259 1.000000
0.793092 0.988627 1.000000
0.940103 0.995996 1.000000
1.000000 1.000000 1.000000
