assets/luts/cool.cube
TITLE "冷色"
LUT_3D_SIZE 8
DOMAIN_MIN 0.0 0.0 0.0
DOMAIN_MAX 1.0 1.0 1.0
0.000000 0.000000 0.050000
0.117617 0.000000 0.049188
0.265374 0.000000 0.048317
0.413131 0.000000 0.047446
0.560889 0.000000 0.046574
0.708646 0.000000 0.045703
0.856403 0.000000 0.044832
0.994020 0.000000 0.044020
0.000000 0.136835 0.048407
0.116024 0.136024 0.047595
0.263781 0.135152 0.046724
0.411538 0.134281 0.045852
0.559295 0.133410 0.044981
0.707053 0.132538 0.044110
0.854810 0.131667 0.043238
0.992427 0.130855 0.042427
0.000000 0.283753 0.046696
0.114313 0.282942 0.045884
0.262070 0.282070 0.045013
0.409827 0.281199 0.044142
0.557585 0.280327 0.043270
0.705342 0.279456 0.042399
0.853099 0.278585 0.041528
0.990716 0.277773 0.040716
0.000000 0.430671 0.044985
0.112602 0.429859 0.044174
0.260360 0.428988 0.043302
0.408117 0.428117 0.042431
0.555874 0.427245 0.041560
0.703631 0.426374 0.040688
0.851388 0.425503 0.039817
0.989005 0.424691 0.039005
0.000000 0.577589 0.043275
0.110892 0.576777 0.042463
0.258649 0.575906 0.041592
0.406406 0.575035 0.040720
0.554163 0.574163 0.039849
0.701920 0.573292 0.038978
0.849678 0.572421 0.038106
0.987295 0.571609 0.037295
0.000000 0.724507 0.041564
0.109181 0.723695 0.040752
0.256938 0.722824 0.039881
0.404695 0.721953 0.039010
0.552453 0.721081 0.038138
0.700210 0.720210 0.037267
0.847967 0.719338 0.036396
0.985584 0.718527 0.035584
0.000000 0.871425 0.039853
0.107470 0.870613 0.039042
0.255227 0.869742 0.038170
0.402985 0.868870 0.037299
0.550742 0.867999 0.036428
0.698499 0.867128 0.035556
0.846256 0.866256 0.034685
0.983873 0.865445 0.033873
0.000000 1.000000 0.038260
0.105877 1.000000 0.037448
0.253634 1.000000 0.036577
0.401391 1.000000 0.035706
0.549149 1.000000 0.034834
0.696906 1.000000 0.033963
0.844663 1.000000 0.033092
0.982280 1.000000 0.032280
0.000000 0.000000 0.188119
0.117308 0.000000 0.187308
0.265065 0.000000 0.186436
0.412822 0.000000 0.185565
0.560579 0.000000 0.184693
0.708336 0.000000 0.183822
0.856094 0.000000 0.182951
0.993711 0.000000 0.182139
0.000000 0.136526 0.186526
0.115714 0.135714 0.185714
0.263471 0.134843 0.184843
0.411229 0.133972 0.183972
0.558986 0.133100 0.183100
0.706743 0.132229 0.182229
0.854500 0.131357 0.181357
0.992117 0.130546 0.180546
0.000000 0.283444 0.184815
0.114004 0.282632 0.184004
0.261761 0.281761 0.183132
0.409518 0.280889 0.182261
0.557275 0.280018 0.181389
0.705032 0.279147 0.180518
0.852790 0.278275 0.179647
0.990407 0.277464 0.178835
0.000000 0.430362 0.183104
0.112293 0.429550 0.182293
0.260050 0.428679 0.181422
0.407807 0.427807 0.180550
0.555565 0.426936 0.179679
0.703322 0.426065 0.178807
0.851079 0.425193 0.177936
0.988696 0.424382 0.177124
0.000000 0.577280 0.181394
0.110582 0.576468 0.180582
0.258339 0.575597 0.179711
0.406097 0.574725 0.178839
0.553854 0.573854 0.177968
0.701611 0.572982 0.177097
0.849368 0.572111 0.176225
0.986985 0.571300 0.175414
0.000000 0.724197 0.179683
0.108872 0.723386 0.178872
0.256629 0.722514 0.178000
0.404386 0.721643 0.177129
0.552143 0.720772 0.176257
0.699900 0.719900 0.175386
0.847658 0.719029 0.174515
0.985275 0.718217 0.173703
0.000000 0.871115 0.177972
0.107161 0.870304 0.177161
0.254918 0.869432 0.176289
0.402675 0.868561 0.175418
0.550432 0.867690 0.174547
0.698190 0.866818 0.173675
0.845947 0.865947 0.172804
0.983564 0.865135 0.171992
0.000000 1.000000 0.176379
0.105568 1.000000 0.175568
0.253325 1.000000 0.174696
0.401082 1.000000 0.173825
0.548839 1.000000 0.172953
0.696596 1.000000 0.172082
0.844354 1.000000 0.171211
0.981971 1.000000 0.170399
0.000000 0.000000 0.336415
0.116975 0.000000 0.335604
0.264733 0.000000 0.334733
0.412490 0.000000 0.333861
0.560247 0.000000 0.332990
0.708004 0.000000 0.332118
0.855761 0.000000 0.331247
0.993378 0.000000 0.330435
0.000000 0.136194 0.334822
0.115382 0.135382 0.334011
0.263139 0.134511 0.333139
0.410896 0.133639 0.332268
0.558654 0.132768 0.331397
0.706411 0.131897 0.330525
0.854168 0.131025 0.329654
0.991785 0.130214 0.328842
0.000000 0.283112 0.333112
0.113671 0.282300 0.332300
0.261429 0.281429 0.331429
0.409186 0.280557 0.330557
0.556943 0.279686 0.329686
0.704700 0.278814 0.328814
0.852457 0.277943 0.327943
0.990074 0.277132 0.327132
0.000000 0.430029 0.331401
0.111961 0.429218 0.330589
0.259718 0.428346 0.329718
0.407475 0.427475 0.328847
0.555232 0.426604 0.327975
0.702989 0.425732 0.327104
0.850747 0.424861 0.326232
0.988364 0.424049 0.325421
0.000000 0.576947 0.329690
0.110250 0.576136 0.328879
0.258007 0.575264 0.328007
0.405764 0.574393 0.327136
0.553522 0.573522 0.326264
0.701279 0.572650 0.325393
0.849036 0.571779 0.324522
0.986653 0.570967 0.323710
0.000000 0.723865 0.327979
0.108539 0.723054 0.327168
0.256297 0.722182 0.326297
0.404054 0.721311 0.325425
0.551811 0.720439 0.324554
0.699568 0.719568 0.323682
0.847325 0.718697 0.322811
0.984942 0.717885 0.321999
0.000000 0.870783 0.326269
0.106829 0.869971 0.325457
0.254586 0.869100 0.324586
0.402343 0.868229 0.323714
0.550100 0.867357 0.322843
0.697857 0.866486 0.321972
0.845615 0.865615 0.321100
0.983232 0.864803 0.320289
0.000000 1.000000 0.324675
0.105235 1.000000 0.323864
0.252993 1.000000 0.322993
0.400750 1.000000 0.322121
0.548507 1.000000 0.321250
0.696264 1.000000 0.320378
0.844021 1.000000 0.319507
0.981638 1.000000 0.318695
0.000000 0.000000 0.484712
0.116643 0.000000 0.483900
0.264400 0.000000 0.483029
0.412158 0.000000 0.482158
0.559915 0.000000 0.481286
0.707672 0.000000 0.480415
0.855429 0.000000 0.479543
0.993046 0.000000 0.478732
0.000000 0.135861 0.483119
0.115050 0.135050 0.482307
0.262807 0.134178 0.481436
0.410564 0.133307 0.480564
0.558321 0.132436 0.479693
0.706079 0.131564 0.478821
0.853836 0.130693 0.477950
0.991453 0.129881 0.477139
0.000000 0.282779 0.481408
0.113339 0.281968 0.480596
0.261096 0.281096 0.479725
0.408854 0.280225 0.478854
0.556611 0.279354 0.477982
0.704368 0.278482 0.477111
0.852125 0.277611 0.476239
0.989742 0.276799 0.475428
0.000000 0.429697 0.479697
0.111628 0.428886 0.478886
0.259386 0.428014 0.478014
0.407143 0.427143 0.477143
0.554900 0.426271 0.476271
0.702657 0.425400 0.475400
0.850414 0.424529 0.474529
0.988031 0.423717 0.473717
0.000000 0.576615 0.477986
0.109918 0.575803 0.477175
0.257675 0.574932 0.476304
0.405432 0.574061 0.475432
0.553189 0.573189 0.474561
0.700947 0.572318 0.473689
0.848704 0.571447 0.472818
0.986321 0.570635 0.472006
0.000000 0.723533 0.476276
0.108207 0.722721 0.475464
0.255964 0.721850 0.474593
0.403721 0.720979 0.473721
0.551479 0.720107 0.472850
0.699236 0.719236 0.471979
0.846993 0.718365 0.471107
0.984610 0.717553 0.470296
0.000000 0.870451 0.474565
0.106496 0.869639 0.473754
0.254254 0.868768 0.472882
0.402011 0.867897 0.472011
0.549768 0.867025 0.471139
0.697525 0.866154 0.470268
0.845282 0.865282 0.469397
0.982899 0.864471 0.468585
0.000000 1.000000 0.472972
0.104903 1.000000 0.472160
0.252660 1.000000 0.471289
0.400418 1.000000 0.470418
0.548175 1.000000 0.469546
0.695932 1.000000 0.468675
0.843689 1.000000 0.467803
0.981306 1.000000 0.466992
0.000000 0.000000 0.633008
0.116311 0.000000 0.632197
0.264068 0.000000 0.631325
0.411825 0.000000 0.630454
0.559582 0.000000 0.629582
0.707340 0.000000 0.628711
0.855097 0.000000 0.627840
0.992714 0.000000 0.627028
0.000000 0.135529 0.631415
0.114718 0.134718 0.630603
0.262475 0.133846 0.629732
0.410232 0.132975 0.628861
0.557989 0.132103 0.627989
0.705746 0.131232 0.627118
0.853504 0.130361 0.626246
0.991121 0.129549 0.625435
0.000000 0.282447 0.629704
0.113007 0.281635 0.628893
0.260764 0.280764 0.628021
0.408521 0.279893 0.627150
0.556279 0.279021 0.626279
0.704036 0.278150 0.625407
0.851793 0.277279 0.624536
0.989410 0.276467 0.623724
0.000000 0.429365 0.627994
0.111296 0.428553 0.627182
0.259053 0.427682 0.626311
0.406811 0.426811 0.625439
0.554568 0.425939 0.624568
0.702325 0.425068 0.623696
0.850082 0.424197 0.622825
0.987699 0.423385 0.622014
0.000000 0.576283 0.626283
0.109586 0.575471 0.625471
0.257343 0.574600 0.624600
0.405100 0.573729 0.623729
0.552857 0.572857 0.622857
0.700614 0.571986 0.621986
0.848372 0.571114 0.621114
0.985989 0.570303 0.620303
0.000000 0.723201 0.624572
0.107875 0.722389 0.623761
0.255632 0.721518 0.622889
0.403389 0.720646 0.622018
0.551146 0.719775 0.621146
0.698904 0.718904 0.620275
0.846661 0.718032 0.619404
0.984278 0.717221 0.618592
0.000000 0.870119 0.622861
0.106164 0.869307 0.622050
0.253921 0.868436 0.621179
0.401679 0.867564 0.620307
0.549436 0.866693 0.619436
0.697193 0.865822 0.618564
0.844950 0.864950 0.617693
0.982567 0.864139 0.616881
0.000000 1.000000 0.621268
0.104571 1.000000 0.620457
0.252328 1.000000 0.619585
0.400085 1.000000 0.618714
0.547842 1.000000 0.617842
0.695600 1.000000 0.616971
0.843357 1.000000 0.616100
0.980974 1.000000 0.615288
0.000000 0.000000 0.781305
0.115979 0.000000 0.780493
0.263736 0.000000 0.779622
0.411493 0.000000 0.778750
0.559250 0.000000 0.777879
0.707007 0.000000 0.777007
0.854765 0.000000 0.776136
0.992382 0.000000 0.775325
0.000000 0.135197 0.779711
0.114385 0.134385 0.778900
0.262143 0.133514 0.778028
0.409900 0.132643 0.777157
0.557657 0.131771 0.776286
0.705414 0.130900 0.775414
0.853171 0.130029 0.774543
0.990788 0.129217 0.773731
0.000000 0.282115 0.778001
0.112675 0.281303 0.777189
0.260432 0.280432 0.776318
0.408189 0.279561 0.775446
0.555946 0.278689 0.774575
0.703703 0.277818 0.773703
0.851461 0.276946 0.772832
0.989078 0.276135 0.772021
0.000000 0.429033 0.776290
0.110964 0.428221 0.775478
0.258721 0.427350 0.774607
0.406478 0.426478 0.773736
0.554236 0.425607 0.772864
0.701993 0.424736 0.771993
0.849750 0.423864 0.771121
0.987367 0.423053 0.770310
0.000000 0.575951 0.774579
0.109253 0.575139 0.773768
0.257011 0.574268 0.772896
0.404768 0.573396 0.772025
0.552525 0.572525 0.771153
0.700282 0.571654 0.770282
0.848039 0.570782 0.769411
0.985656 0.569971 0.768599
0.000000 0.722868 0.772868
0.107543 0.722057 0.772057
0.255300 0.721186 0.771186
0.403057 0.720314 0.770314
0.550814 0.719443 0.769443
0.698571 0.718571 0.768571
0.846329 0.717700 0.767700
0.983946 0.716888 0.766888
0.000000 0.869786 0.771158
0.105832 0.868975 0.770346
0.253589 0.868103 0.769475
0.401346 0.867232 0.768603
0.549104 0.866361 0.767732
0.696861 0.865489 0.766861
0.844618 0.864618 0.765989
0.982235 0.863806 0.765178
0.000000 1.000000 0.769565
0.104239 1.000000 0.768753
0.251996 1.000000 0.767882
0.399753 1.000000 0.767010
0.547510 1.000000 0.766139
0.695267 1.000000 0.765267
0.843025 1.000000 0.764396
0.980642 1.000000 0.763585
0.000000 0.000000 0.929601
0.115646 0.000000 0.928789
0.263404 0.000000 0.927918
0.411161 0.000000 0.927047
0.558918 0.000000 0.926175
0.706675 0.000000 0.925304
0.854432 0.000000 0.924432
0.992049 0.000000 0.923621
0.000000 0.134865 0.928008
0.114053 0.134053 0.927196
0.261810 0.133182 0.926325
0.409568 0.132310 0.925453
0.557325 0.131439 0.924582
0.705082 0.130568 0.923711
0.852839 0.129696 0.922839
0.990456 0.128885 0.922028
0.000000 0.281783 0.926297
0.112342 0.280971 0.925485
0.260100 0.280100 0.924614
0.407857 0.279228 0.923743
0.555614 0.278357 0.922871
0.703371 0.277486 0.922000
0.851128 0.276614 0.921128
0.988745 0.275803 0.920317
0.000000 0.428700 0.924586
0.110632 0.427889 0.923775
0.258389 0.427018 0.922903
0.406146 0.426146 0.922032
0.553903 0.425275 0.921161
0.701661 0.424403 0.920289
0.849418 0.423532 0.919418
0.987035 0.422720 0.918606
0.000000 0.575618 0.922876
0.108921 0.574807 0.922064
0.256678 0.573935 0.921193
0.404435 0.573064 0.920321
0.552193 0.572193 0.919450
0.699950 0.571321 0.918578
0.847707 0.570450 0.917707
0.985324 0.569638 0.916896
0.000000 0.722536 0.921165
0.107210 0.721725 0.920353
0.254968 0.720853 0.919482
0.402725 0.719982 0.918611
0.550482 0.719111 0.917739
0.698239 0.718239 0.916868
0.845996 0.717368 0.915996
0.983613 0.716556 0.915185
0.000000 0.869454 0.919454
0.105500 0.868643 0.918643
0.253257 0.867771 0.917771
0.401014 0.866900 0.916900
0.548771 0.866028 0.916028
0.696529 0.865157 0.915157
0.844286 0.864286 0.914286
0.981903 0.863474 0.913474
0.000000 1.000000 0.917861
0.103906 1.000000 0.917049
0.251664 1.000000 0.916178
0.399421 1.000000 0.915307
0.547178 1.000000 0.914435
0.694935 1.000000 0.913564
0.842692 1.000000 0.912692
0.980309 1.000000 0.911881
0.000000 0.000000 1.000000
0.115337 0.000000 1.000000
0.263094 0.000000 1.000000
0.410851 0.000000 1.000000
0.558609 0.000000 1.000000
0.706366 0.000000 1.000000
0.854123 0.000000 1.000000
0.991740 0.000000 1.000000
0.000000 0.134555 1.000000
0.113744 0.133744 1.000000
0.261501 0.132872 1.000000
0.409258 0.132001 1.000000
0.557015 0.131130 1.000000
0.704773 0.130258 1.000000
0.852530 0.129387 1.000000
0.990147 0.128575 1.000000
0.000000 0.281473 1.000000
0.112033 0.280662 1.000000
0.259790 0.279790 1.000000
0.407547 0.278919 1.000000
0.555305 0.278047 1.000000
0.703062 0.277176 1.000000
0.850819 0.276305 1.000000
0.988436 0.275493 1.000000
0.000000 0.428391 1.000000
0.110322 0.427579 1.000000
0.258080 0.426708 1.000000
0.405837 0.425837 1.000000
0.553594 0.424965 1.000000
0.701351 0.424094 1.000000
0.849108 0.423223 1.000000
0.986725 0.422411 1.000000
0.000000 0.575309 1.000000
0.108612 0.574497 1.000000
0.256369 0.573626 1.000000
0.404126 0.572755 1.000000
0.551883 0.571883 1.000000
0.699640 0.571012 1.000000
0.847398 0.570141 1.000000
0.985015 0.569329 1.000000
0.000000 0.722227 1.000000
0.106901 0.721415 1.000000
0.254658 0.720544 1.000000
0.402415 0.719673 1.000000
0.550173 0.718801 1.000000
0.697930 0.717930 1.000000
0.845687 0.717058 1.000000
0.983304 0.716247 1.000000
0.000000 0.869145 1.000000
0.105190 0.868333 1.000000
0.252947 0.867462 1.000000
0.400705 0.866590 1.000000
0.548462 0.865719 1.000000
0.696219 0.864848 1.000000
0.843976 0.863976 1.000000
0.981593 0.863165 1.000000
0.000000 1.000000 1.000000
0.103597 1.000000 1.000000
0.251354 1.000000 1.000000
0.399111 1.000000 1.000000
0.546869 1.000000 1.000000
0.694626 1.000000 1.000000
0.842383 1.000000 1.000000
0.980000 1.000000 1.000000
