assets/luts/cross_process.cube
TITLE "交叉处理"
LUT_3D_SIZE 8
DOMAIN_MIN 0.0 0.0 0.0
DOMAIN_MAX 1.0 1.0 1.0
0.000000 0.030000 0.000000
0.118409 0.025195 0.000000
0.292075 0.018147 0.000000
0.465742 0.011099 0.000000
0.639408 0.004051 0.000000
0.813075 0.000000 0.000000
0.986741 0.000000 0.000000
1.000000 0.000000 0.000000
0.000000 0.143780 0.000000
0.108975 0.138975 0.000000
0.282641 0.131927 0.000000
0.456308 0.124879 0.000000
0.629974 0.117831 0.000000
0.803641 0.110784 0.000000
0.977307 0.103736 0.000000
1.000000 0.098930 0.000000
0.000000 0.310658 0.000000
0.095139 0.305853 0.000000
0.268805 0.298805 0.000000
0.442471 0.291757 0.000000
0.616138 0.284709 0.000000
0.789804 0.277661 0.000000
0.963471 0.270614 0.000000
1.000000 0.265808 0.000000
0.000000 0.477536 0.000000
0.081302 0.472731 0.000000
0.254969 0.465683 0.000000
0.428635 0.458635 0.000000
0.602301 0.451587 0.000000
0.775968 0.444539 0.000000
0.949634 0.437491 0.000000
1.000000 0.432686 0.000000
0.000000 0.644414 0.000000
0.067466 0.639609 0.000000
0.241132 0.632561 0.000000
0.414799 0.625513 0.000000
0.588465 0.618465 0.000000
0.762131 0.611417 0.000000
0.935798 0.604369 0.000000
1.000000 0.599564 0.000000
0.000000 0.811292 0.000000
0.053629 0.806486 0.000000
0.227296 0.799439 0.000000
0.400962 0.792391 0.000000
0.574629 0.785343 0.000000
0.748295 0.778295 0.000000
0.921961 0.771247 0.000000
1.000000 0.766442 0.000000
0.000000 0.978170 0.000000
0.039793 0.973364 0.000000
0.213459 0.966316 0.000000
0.387126 0.959269 0.000000
0.560792 0.952221 0.000000
0.734459 0.945173 0.000000
0.908125 0.938125 0.000000
1.000000 0.933320 0.000000
0.000000 1.000000 0.000000
0.030359 1.000000 0.000000
0.204025 1.000000 0.000000
0.377692 1.000000 0.000000
0.551358 1.000000 0.000000
0.725025 1.000000 0.000000
0.898691 1.000000 0.000000
1.000000 1.000000 0.000000
0.000000 0.028168 0.101382
0.116577 0.023363 0.096577
0.290243 0.016315 0.089529
0.463910 0.009267 0.082481
0.637576 0.002219 0.075433
0.811242 0.000000 0.068385
0.984909 0.000000 0.061337
1.000000 0.000000 0.056532
0.000000 0.141948 0.091948
0.107143 0.137143 0.087143
0.280809 0.130095 0.080095
0.454476 0.123047 0.073047
0.628142 0.115999 0.065999
0.801809 0.108951 0.058951
0.975475 0.101904 0.051904
1.000000 0.097098 0.047098
0.000000 0.308826 0.078112
0.093306 0.304021 0.073306
0.266973 0.296973 0.066259
0.440639 0.289925 0.059211
0.614306 0.282877 0.052163
0.787972 0.275829 0.045115
0.961639 0.268781 0.038067
1.000000 0.263976 0.033262
0.000000 0.475704 0.064275
0.079470 0.470899 0.059470
0.253136 0.463851 0.052422
0.426803 0.456803 0.045374
0.600469 0.449755 0.038326
0.774136 0.442707 0.031279
0.947802 0.435659 0.024231
1.000000 0.430854 0.019425
0.000000 0.642582 0.050439
0.065634 0.637776 0.045634
0.239300 0.630729 0.038586
0.412966 0.623681 0.031538
0.586633 0.616633 0.024490
0.760299 0.609585 0.017442
0.933966 0.602537 0.010394
1.000000 0.597732 0.005589
0.000000 0.809460 0.036602
0.051797 0.804654 0.031797
0.225464 0.797606 0.024749
0.399130 0.790559 0.017701
0.572796 0.783511 0.010654
0.746463 0.776463 0.003606
0.920129 0.769415 0.000000
1.000000 0.764610 0.000000
0.000000 0.976337 0.022766
0.037961 0.971532 0.017961
0.211627 0.964484 0.010913
0.385294 0.957436 0.003865
0.558960 0.950389 0.000000
0.732626 0.943341 0.000000
0.906293 0.936293 0.000000
1.000000 0.931487 0.000000
0.000000 1.000000 0.013332
0.028527 1.000000 0.008527
0.202193 1.000000 0.001479
0.375860 1.000000 0.000000
0.549526 1.000000 0.000000
0.723192 1.000000 0.000000
0.896859 1.000000 0.000000
1.000000 1.000000 0.000000
0.000000 0.025481 0.279409
0.113890 0.020675 0.274604
0.287556 0.013628 0.267556
0.461222 0.006580 0.260508
0.634889 0.000000 0.253460
0.808555 0.000000 0.246412
0.982222 0.000000 0.239365
1.000000 0.000000 0.234559
0.000000 0.139261 0.269975
0.104456 0.134456 0.265170
0.278122 0.127408 0.258122
0.451789 0.120360 0.251074
0.625455 0.113312 0.244026
0.799121 0.106264 0.236979
0.972788 0.099216 0.229931
1.000000 0.094411 0.225125
0.000000 0.306139 0.256139
0.090619 0.301334 0.251334
0.264286 0.294286 0.244286
0.437952 0.287238 0.237238
0.611619 0.280190 0.230190
0.785285 0.273142 0.223142
0.958951 0.266094 0.216094
1.000000 0.261289 0.211289
0.000000 0.473017 0.242302
0.076783 0.468211 0.237497
0.250449 0.461164 0.230449
0.424116 0.454116 0.223401
0.597782 0.447068 0.216354
0.771449 0.440020 0.209306
0.945115 0.432972 0.202258
1.000000 0.428167 0.197453
0.000000 0.639895 0.228466
0.062946 0.635089 0.223661
0.236613 0.628041 0.216613
0.410279 0.620994 0.209565
0.583946 0.613946 0.202517
0.757612 0.606898 0.195469
0.931279 0.599850 0.188421
1.000000 0.595045 0.183616
0.000000 0.806772 0.214630
0.049110 0.801967 0.209824
0.222776 0.794919 0.202776
0.396443 0.787871 0.195729
0.570109 0.780824 0.188681
0.743776 0.773776 0.181633
0.917442 0.766728 0.174585
1.000000 0.761922 0.169780
0.000000 0.973650 0.200793
0.035274 0.968845 0.195988
0.208940 0.961797 0.188940
0.382606 0.954749 0.181892
0.556273 0.947701 0.174844
0.729939 0.940654 0.167796
0.903606 0.933606 0.160749
1.000000 0.928800 0.155943
0.000000 1.000000 0.191359
0.025840 1.000000 0.186554
0.199506 1.000000 0.179506
0.373172 1.000000 0.172458
0.546839 1.000000 0.165410
0.720505 1.000000 0.158362
0.894172 1.000000 0.151315
1.000000 1.000000 0.146509
0.000000 0.022794 0.457436
0.111202 0.017988 0.452631
0.284869 0.010940 0.445583
0.458535 0.003893 0.438535
0.632202 0.000000 0.431487
0.805868 0.000000 0.424440
0.979535 0.000000 0.417392
1.000000 0.000000 0.412586
0.000000 0.136574 0.448002
0.101769 0.131769 0.443197
0.275435 0.124721 0.436149
0.449101 0.117673 0.429101
0.622768 0.110625 0.422054
0.796434 0.103577 0.415006
0.970101 0.096529 0.407958
1.000000 0.091724 0.403152
0.000000 0.303452 0.434166
0.087932 0.298646 0.429361
0.261599 0.291599 0.422313
0.435265 0.284551 0.415265
0.608931 0.277503 0.408217
0.782598 0.270455 0.401169
0.956264 0.263407 0.394121
1.000000 0.258602 0.389316
0.000000 0.470330 0.420330
0.074096 0.465524 0.415524
0.247762 0.458476 0.408476
0.421429 0.451429 0.401429
0.595095 0.444381 0.394381
0.768761 0.437333 0.387333
0.942428 0.430285 0.380285
1.000000 0.425480 0.375480
0.000000 0.637207 0.406493
0.060259 0.632402 0.401688
0.233926 0.625354 0.394640
0.407592 0.618306 0.387592
0.581259 0.611259 0.380544
0.754925 0.604211 0.373496
0.928591 0.597163 0.366449
1.000000 0.592357 0.361643
0.000000 0.804085 0.392657
0.046423 0.799280 0.387851
0.220089 0.792232 0.380804
0.393756 0.785184 0.373756
0.567422 0.778136 0.366708
0.741089 0.771089 0.359660
0.914755 0.764041 0.352612
1.000000 0.759235 0.347807
0.000000 0.970963 0.378820
0.032586 0.966158 0.374015
0.206253 0.959110 0.366967
0.379919 0.952062 0.359919
0.553586 0.945014 0.352871
0.727252 0.937966 0.345824
0.900919 0.930919 0.338776
1.000000 0.926113 0.333970
0.000000 1.000000 0.369386
0.023153 1.000000 0.364581
0.196819 1.000000 0.357533
0.370485 1.000000 0.350485
0.544152 1.000000 0.343437
0.717818 1.000000 0.336390
0.891485 1.000000 0.329342
1.000000 1.000000 0.324536
0.000000 0.020106 0.635464
0.108515 0.015301 0.630658
0.282182 0.008253 0.623610
0.455848 0.001205 0.616562
0.629515 0.000000 0.609515
0.803181 0.000000 0.602467
0.976847 0.000000 0.595419
1.000000 0.000000 0.590614
0.000000 0.133887 0.626030
0.099081 0.129081 0.621224
0.272748 0.122034 0.614176
0.446414 0.114986 0.607129
0.620081 0.107938 0.600081
0.793747 0.100890 0.593033
0.967414 0.093842 0.585985
1.000000 0.089037 0.581180
0.000000 0.300765 0.612193
0.085245 0.295959 0.607388
0.258911 0.288911 0.600340
0.432578 0.281864 0.593292
0.606244 0.274816 0.586244
0.779911 0.267768 0.579196
0.953577 0.260720 0.572149
1.000000 0.255915 0.567343
0.000000 0.467642 0.598357
0.071409 0.462837 0.593551
0.245075 0.455789 0.586504
0.418741 0.448741 0.579456
0.592408 0.441694 0.572408
0.766074 0.434646 0.565360
0.939741 0.427598 0.558312
1.000000 0.422793 0.553507
0.000000 0.634520 0.584520
0.057572 0.629715 0.579715
0.231239 0.622667 0.572667
0.404905 0.615619 0.565619
0.578571 0.608571 0.558571
0.752238 0.601524 0.551524
0.925904 0.594476 0.544476
1.000000 0.589670 0.539670
0.000000 0.801398 0.570684
0.043736 0.796593 0.565879
0.217402 0.789545 0.558831
0.391069 0.782497 0.551783
0.564735 0.775449 0.544735
0.738401 0.768401 0.537687
0.912068 0.761354 0.530639
1.000000 0.756548 0.525834
0.000000 0.968276 0.556847
0.029899 0.963471 0.552042
0.203566 0.956423 0.544994
0.377232 0.949375 0.537946
0.550899 0.942327 0.530899
0.724565 0.935279 0.523851
0.898231 0.928231 0.516803
1.000000 0.923426 0.511997
0.000000 1.000000 0.547414
0.020465 1.000000 0.542608
0.194132 1.000000 0.535560
0.367798 1.000000 0.528512
0.541465 1.000000 0.521465
0.715131 1.000000 0.514417
0.888797 1.000000 0.507369
1.000000 1.000000 0.502564
0.000000 0.017419 0.813491
0.105828 0.012614 0.808685
0.279495 0.005566 0.801638
0.453161 0.000000 0.794590
0.626827 0.000000 0.787542
0.800494 0.000000 0.780494
0.974160 0.000000 0.773446
1.000000 0.000000 0.768641
0.000000 0.131200 0.804057
0.096394 0.126394 0.799251
0.270061 0.119346 0.792204
0.443727 0.112299 0.785156
0.617394 0.105251 0.778108
0.791060 0.098203 0.771060
0.964726 0.091155 0.764012
1.000000 0.086350 0.759207
0.000000 0.298077 0.790220
0.082558 0.293272 0.785415
0.256224 0.286224 0.778367
0.429891 0.279176 0.771319
0.603557 0.272129 0.764271
0.777224 0.265081 0.757224
0.950890 0.258033 0.750176
1.000000 0.253227 0.745370
0.000000 0.464955 0.776384
0.068721 0.460150 0.771579
0.242388 0.453102 0.764531
0.416054 0.446054 0.757483
0.589721 0.439006 0.750435
0.763387 0.431959 0.743387
0.937054 0.424911 0.736339
1.000000 0.420105 0.731534
0.000000 0.631833 0.762547
0.054885 0.627028 0.757742
0.228551 0.619980 0.750694
0.402218 0.612932 0.743646
0.575884 0.605884 0.736599
0.749551 0.598836 0.729551
0.923217 0.591789 0.722503
1.000000 0.586983 0.717697
0.000000 0.798711 0.748711
0.041049 0.793906 0.743906
0.214715 0.786858 0.736858
0.388381 0.779810 0.729810
0.562048 0.772762 0.722762
0.735714 0.765714 0.715714
0.909381 0.758666 0.708666
1.000000 0.753861 0.703861
0.000000 0.965589 0.734875
0.027212 0.960784 0.730069
0.200879 0.953736 0.723021
0.374545 0.946688 0.715974
0.548211 0.939640 0.708926
0.721878 0.932592 0.701878
0.895544 0.925544 0.694830
1.000000 0.920739 0.690025
0.000000 1.000000 0.725441
0.017778 1.000000 0.720635
0.191445 1.000000 0.713587
0.365111 1.000000 0.706540
0.538777 1.000000 0.699492
0.712444 1.000000 0.692444
0.886110 1.000000 0.685396
1.000000 1.000000 0.680591
0.000000 0.014732 0.991518
0.103141 0.009927 0.986712
0.276807 0.002879 0.979665
0.450474 0.000000 0.972617
0.624140 0.000000 0.965569
0.797807 0.000000 0.958521
0.971473 0.000000 0.951473
1.000000 0.000000 0.946668
0.000000 0.128512 0.982084
0.093707 0.123707 0.977279
0.267374 0.116659 0.970231
0.441040 0.109611 0.963183
0.614706 0.102564 0.956135
0.788373 0.095516 0.949087
0.962039 0.088468 0.942039
1.000000 0.083663 0.937234
0.000000 0.295390 0.968247
0.079871 0.290585 0.963442
0.253537 0.283537 0.956394
0.427204 0.276489 0.949346
0.600870 0.269441 0.942299
0.774536 0.262394 0.935251
0.948203 0.255346 0.928203
1.000000 0.250540 0.923397
0.000000 0.462268 0.954411
0.066034 0.457463 0.949606
0.239701 0.450415 0.942558
0.413367 0.443367 0.935510
0.587034 0.436319 0.928462
0.760700 0.429271 0.921414
0.934366 0.422224 0.914366
1.000000 0.417418 0.909561
0.000000 0.629146 0.940575
0.052198 0.624341 0.935769
0.225864 0.617293 0.928721
0.399531 0.610245 0.921674
0.573197 0.603197 0.914626
0.746864 0.596149 0.907578
0.920530 0.589101 0.900530
1.000000 0.584296 0.895725
0.000000 0.796024 0.926738
0.038361 0.791219 0.921933
0.212028 0.784171 0.914885
0.385694 0.777123 0.907837
0.559361 0.770075 0.900789
0.733027 0.763027 0.893741
0.906694 0.755979 0.886694
1.000000 0.751174 0.881888
0.000000 0.962902 0.912902
0.024525 0.958096 0.908096
0.198191 0.951049 0.901049
0.371858 0.944001 0.894001
0.545524 0.936953 0.886953
0.719191 0.929905 0.879905
0.892857 0.922857 0.872857
1.000000 0.918052 0.868052
0.000000 1.000000 0.903468
0.015091 1.000000 0.898662
0.188758 1.000000 0.891615
0.362424 1.000000 0.884567
0.536090 1.000000 0.877519
0.709757 1.000000 0.870471
0.883423 1.000000 0.863423
1.000000 1.000000 0.858618
0.000000 0.012900 1.000000
0.101309 0.008095 1.000000
0.274975 0.001047 1.000000
0.448642 0.000000 1.000000
0.622308 0.000000 1.000000
0.795975 0.000000 1.000000
0.969641 0.000000 1.000000
1.000000 0.000000 1.000000
0.000000 0.126680 1.000000
0.091875 0.121875 1.000000
0.265541 0.114827 1.000000
0.439208 0.107779 1.000000
0.612874 0.100731 1.000000
0.786541 0.093684 1.000000
0.960207 0.086636 1.000000
1.000000 0.081830 1.000000
0.000000 0.293558 1.000000
0.078039 0.288753 1.000000
0.251705 0.281705 1.000000
0.425371 0.274657 1.000000
0.599038 0.267609 1.000000
0.772704 0.260561 1.000000
0.946371 0.253514 1.000000
1.000000 0.248708 1.000000
0.000000 0.460436 1.000000
0.064202 0.455631 1.000000
0.237869 0.448583 1.000000
0.411535 0.441535 1.000000
0.585201 0.434487 1.000000
0.758868 0.427439 1.000000
0.932534 0.420391 1.000000
1.000000 0.415586 1.000000
0.000000 0.627314 1.000000
0.050366 0.622509 1.000000
0.224032 0.615461 1.000000
0.397699 0.608413 1.000000
0.571365 0.601365 1.000000
0.745031 0.594317 1.000000
0.918698 0.587269 1.000000
1.000000 0.582464 1.000000
0.000000 0.794192 1.000000
0.036529 0.789386 1.000000
0.210196 0.782339 1.000000
0.383862 0.775291 1.000000
0.557529 0.768243 1.000000
0.731195 0.761195 1.000000
0.904861 0.754147 1.000000
1.000000 0.749342 1.000000
0.000000 0.961070 1.000000
0.022693 0.956264 1.000000
0.196359 0.949216 1.000000
0.370026 0.942169 1.000000
0.543692 0.935121 1.000000
0.717359 0.928073 1.000000
0.891025 0.921025 0.994239
1.000000 0.916220 0.989434
0.000000 1.000000 1.000000
0.013259 1.000000 1.000000
0.186925 1.000000 1.000000
0.360592 1.000000 1.000000
0.534258 1.000000 0.998901
0.707925 1.000000 0.991853
0.881591 1.000000 0.984805
1.000000 1.000000 0.980000
