assets/luts/day.cube
TITLE "白天"
LUT_3D_SIZE 8
DOMAIN_MIN 0.0 0.0 0.0
DOMAIN_MAX 1.0 1.0 1.0
0.010000 0.010000 0.010000
0.157757 0.009129 0.009129
0.305514 0.008257 0.008257
0.453272 0.007386 0.007386
0.601029 0.006515 0.006515
0.748786 0.005643 0.005643
0.896543 0.004772 0.004772
1.000000 0.004080 0.004080
0.008289 0.156918 0.008289
0.156047 0.156047 0.007418
0.303804 0.155175 0.006547
0.451561 0.154304 0.005675
0.599318 0.153432 0.004804
0.747075 0.152561 0.003932
0.894833 0.151690 0.003061
1.000000 0.150998 0.002369
0.006579 0.303836 0.006579
0.154336 0.302964 0.005707
0.302093 0.302093 0.004836
0.449850 0.301222 0.003965
0.597607 0.300350 0.003093
0.745365 0.299479 0.002222
0.893122 0.298608 0.001350
1.000000 0.297916 0.000658
0.004868 0.450754 0.004868
0.152625 0.449882 0.003997
0.300382 0.449011 0.003125
0.448140 0.448140 0.002254
0.595897 0.447268 0.001382
0.743654 0.446397 0.000511
0.891411 0.445525 0.000000
1.000000 0.444833 0.000000
0.003157 0.597672 0.003157
0.150914 0.596800 0.002286
0.298672 0.595929 0.001415
0.446429 0.595057 0.000543
0.594186 0.594186 0.000000
0.741943 0.593315 0.000000
0.889700 0.592443 0.000000
1.000000 0.591751 0.000000
0.001447 0.744589 0.001447
0.149204 0.743718 0.000575
0.296961 0.742847 0.000000
0.444718 0.741975 0.000000
0.592475 0.741104 0.000000
0.740233 0.740233 0.000000
0.887990 0.739361 0.000000
1.000000 0.738669 0.000000
0.000000 0.891507 0.000000
0.147493 0.890636 0.000000
0.295250 0.889765 0.000000
0.443007 0.888893 0.000000
0.590765 0.888022 0.000000
0.738522 0.887150 0.000000
0.886279 0.886279 0.000000
1.000000 0.885587 0.000000
0.000000 1.000000 0.000000
0.146135 1.000000 0.000000
0.293892 1.000000 0.000000
0.441649 1.000000 0.000000
0.589406 1.000000 0.000000
0.737163 1.000000 0.000000
0.884921 1.000000 0.000000
1.000000 1.000000 0.000000
0.009668 0.009668 0.158296
0.157425 0.008796 0.157425
0.305182 0.007925 0.156554
0.452939 0.007054 0.155682
0.600697 0.006182 0.154811
0.748454 0.005311 0.153939
0.896211 0.004440 0.153068
1.000000 0.003748 0.152376
0.007957 0.156586 0.156586
0.155714 0.155714 0.155714
0.303471 0.154843 0.154843
0.451229 0.153972 0.153972
0.598986 0.153100 0.153100
0.746743 0.152229 0.152229
0.894500 0.151357 0.151357
1.000000 0.150665 0.150665
0.006246 0.303504 0.154875
0.154004 0.302632 0.154004
0.301761 0.301761 0.153132
0.449518 0.300889 0.152261
0.597275 0.300018 0.151389
0.745032 0.299147 0.150518
0.892790 0.298275 0.149647
1.000000 0.297583 0.148955
0.004536 0.450421 0.153164
0.152293 0.449550 0.152293
0.300050 0.448679 0.151422
0.447807 0.447807 0.150550
0.595565 0.446936 0.149679
0.743322 0.446065 0.148807
0.891079 0.445193 0.147936
1.000000 0.444501 0.147244
0.002825 0.597339 0.151454
0.150582 0.596468 0.150582
0.298339 0.595597 0.149711
0.446097 0.594725 0.148839
0.593854 0.593854 0.147968
0.741611 0.592982 0.147097
0.889368 0.592111 0.146225
1.000000 0.591419 0.145533
0.001114 0.744257 0.149743
0.148872 0.743386 0.148872
0.296629 0.742514 0.148000
0.444386 0.741643 0.147129
0.592143 0.740772 0.146257
0.739900 0.739900 0.145386
0.887658 0.739029 0.144515
1.000000 0.738337 0.143823
0.000000 0.891175 0.148032
0.147161 0.890304 0.147161
0.294918 0.889432 0.146289
0.442675 0.888561 0.145418
0.590432 0.887690 0.144547
0.738190 0.886818 0.143675
0.885947 0.885947 0.142804
1.000000 0.885255 0.142112
0.000000 1.000000 0.146674
0.145802 1.000000 0.145802
0.293560 1.000000 0.144931
0.441317 1.000000 0.144060
0.589074 1.000000 0.143188
0.736831 1.000000 0.142317
0.884588 1.000000 0.141446
1.000000 1.000000 0.140754
0.009336 0.009336 0.306593
0.157093 0.008464 0.305721
0.304850 0.007593 0.304850
0.452607 0.006721 0.303979
0.600364 0.005850 0.303107
0.748122 0.004979 0.302236
0.895879 0.004107 0.301364
1.000000 0.003415 0.300672
0.007625 0.156253 0.304882
0.155382 0.155382 0.304011
0.303139 0.154511 0.303139
0.450896 0.153639 0.302268
0.598654 0.152768 0.301397
0.746411 0.151897 0.300525
0.894168 0.151025 0.299654
1.000000 0.150333 0.298962
0.005914 0.303171 0.303171
0.153671 0.302300 0.302300
0.301429 0.301429 0.301429
0.449186 0.300557 0.300557
0.596943 0.299686 0.299686
0.744700 0.298814 0.298814
0.892457 0.297943 0.297943
1.000000 0.297251 0.297251
0.004203 0.450089 0.301461
0.151961 0.449218 0.300589
0.299718 0.448346 0.299718
0.447475 0.447475 0.298847
0.595232 0.446604 0.297975
0.742989 0.445732 0.297104
0.890747 0.444861 0.296232
1.000000 0.444169 0.295540
0.002493 0.597007 0.299750
0.150250 0.596136 0.298879
0.298007 0.595264 0.298007
0.445764 0.594393 0.297136
0.593522 0.593522 0.296264
0.741279 0.592650 0.295393
0.889036 0.591779 0.294522
1.000000 0.591087 0.293830
0.000782 0.743925 0.298039
0.148539 0.743054 0.297168
0.296297 0.742182 0.296297
0.444054 0.741311 0.295425
0.591811 0.740439 0.294554
0.739568 0.739568 0.293682
0.887325 0.738697 0.292811
1.000000 0.738005 0.292119
0.000000 0.890843 0.296329
0.146829 0.889971 0.295457
0.294586 0.889100 0.294586
0.442343 0.888229 0.293714
0.590100 0.887357 0.292843
0.737857 0.886486 0.291972
0.885615 0.885615 0.291100
1.000000 0.884923 0.290408
0.000000 1.000000 0.294970
0.145470 1.000000 0.294099
0.293227 1.000000 0.293227
0.440985 1.000000 0.292356
0.588742 1.000000 0.291485
0.736499 1.000000 0.290613
0.884256 1.000000 0.289742
1.000000 1.000000 0.289050
0.009003 0.009003 0.454889
0.156761 0.008132 0.454018
0.304518 0.007261 0.453146
0.452275 0.006389 0.452275
0.600032 0.005518 0.451404
0.747789 0.004646 0.450532
0.895547 0.003775 0.449661
1.000000 0.003083 0.448969
0.007293 0.155921 0.453178
0.155050 0.155050 0.452307
0.302807 0.154178 0.451436
0.450564 0.153307 0.450564
0.598321 0.152436 0.449693
0.746079 0.151564 0.448821
0.893836 0.150693 0.447950
1.000000 0.150001 0.447258
0.005582 0.302839 0.451468
0.153339 0.301968 0.450596
0.301096 0.301096 0.449725
0.448854 0.300225 0.448854
0.596611 0.299354 0.447982
0.744368 0.298482 0.447111
0.892125 0.297611 0.446239
1.000000 0.296919 0.445547
0.003871 0.449757 0.449757
0.151628 0.448886 0.448886
0.299386 0.448014 0.448014
0.447143 0.447143 0.447143
0.594900 0.446271 0.446271
0.742657 0.445400 0.445400
0.890414 0.444529 0.444529
1.000000 0.443837 0.443837
0.002161 0.596675 0.448046
0.149918 0.595803 0.447175
0.297675 0.594932 0.446304
0.445432 0.594061 0.445432
0.593189 0.593189 0.444561
0.740947 0.592318 0.443689
0.888704 0.591447 0.442818
1.000000 0.590755 0.442126
0.000450 0.743593 0.446336
0.148207 0.742721 0.445464
0.295964 0.741850 0.444593
0.443721 0.740979 0.443721
0.591479 0.740107 0.442850
0.739236 0.739236 0.441979
0.886993 0.738365 0.441107
1.000000 0.737673 0.440415
0.000000 0.890511 0.444625
0.146496 0.889639 0.443754
0.294254 0.888768 0.442882
0.442011 0.887897 0.442011
0.589768 0.887025 0.441139
0.737525 0.886154 0.440268
0.885282 0.885282 0.439397
1.000000 0.884590 0.438705
0.000000 1.000000 0.443266
0.145138 1.000000 0.442395
0.292895 1.000000 0.441524
0.440652 1.000000 0.440652
0.588410 1.000000 0.439781
0.736167 1.000000 0.438910
0.883924 1.000000 0.438038
1.000000 1.000000 0.437346
0.008671 0.008671 0.603185
0.156428 0.007800 0.602314
0.304185 0.006928 0.601443
0.451943 0.006057 0.600571
0.599700 0.005186 0.599700
0.747457 0.004314 0.598829
0.895214 0.003443 0.597957
1.000000 0.002751 0.597265
0.006960 0.155589 0.601475
0.154718 0.154718 0.600603
0.302475 0.153846 0.599732
0.450232 0.152975 0.598861
0.597989 0.152103 0.597989
0.745746 0.151232 0.597118
0.893504 0.150361 0.596246
1.000000 0.149669 0.595554
0.005250 0.302507 0.599764
0.153007 0.301635 0.598893
0.300764 0.300764 0.598021
0.448521 0.299893 0.597150
0.596279 0.299021 0.596279
0.744036 0.298150 0.595407
0.891793 0.297279 0.594536
1.000000 0.296587 0.593844
0.003539 0.449425 0.598053
0.151296 0.448553 0.597182
0.299053 0.447682 0.596311
0.446811 0.446811 0.595439
0.594568 0.445939 0.594568
0.742325 0.445068 0.593696
0.890082 0.444197 0.592825
1.000000 0.443505 0.592133
0.001828 0.596343 0.596343
0.149586 0.595471 0.595471
0.297343 0.594600 0.594600
0.445100 0.593729 0.593729
0.592857 0.592857 0.592857
0.740614 0.591986 0.591986
0.888372 0.591114 0.591114
1.000000 0.590422 0.590422
0.000118 0.743261 0.594632
0.147875 0.742389 0.593761
0.295632 0.741518 0.592889
0.443389 0.740646 0.592018
0.591146 0.739775 0.591146
0.738904 0.738904 0.590275
0.886661 0.738032 0.589404
1.000000 0.737340 0.588712
0.000000 0.890178 0.592921
0.146164 0.889307 0.592050
0.293921 0.888436 0.591179
0.441679 0.887564 0.590307
0.589436 0.886693 0.589436
0.737193 0.885822 0.588564
0.884950 0.884950 0.587693
1.000000 0.884258 0.587001
0.000000 1.000000 0.591563
0.144806 1.000000 0.590691
0.292563 1.000000 0.589820
0.440320 1.000000 0.588949
0.588077 1.000000 0.588077
0.735834 1.000000 0.587206
0.883592 1.000000 0.586335
1.000000 1.000000 0.585643
0.008339 0.008339 0.751482
0.156096 0.007467 0.750610
0.303853 0.006596 0.749739
0.451610 0.005725 0.748868
0.599368 0.004853 0.747996
0.747125 0.003982 0.747125
0.894882 0.003111 0.746253
1.000000 0.002419 0.745562
0.006628 0.155257 0.749771
0.154385 0.154385 0.748900
0.302143 0.153514 0.748028
0.449900 0.152643 0.747157
0.597657 0.151771 0.746286
0.745414 0.150900 0.745414
0.893171 0.150029 0.744543
1.000000 0.149337 0.743851
0.004917 0.302175 0.748060
0.152675 0.301303 0.747189
0.300432 0.300432 0.746318
0.448189 0.299561 0.745446
0.595946 0.298689 0.744575
0.743703 0.297818 0.743703
0.891461 0.296946 0.742832
1.000000 0.296254 0.742140
0.003207 0.449093 0.746350
0.150964 0.448221 0.745478
0.298721 0.447350 0.744607
0.446478 0.446478 0.743736
0.594236 0.445607 0.742864
0.741993 0.444736 0.741993
0.889750 0.443864 0.741121
1.000000 0.443172 0.740429
0.001496 0.596010 0.744639
0.149253 0.595139 0.743768
0.297011 0.594268 0.742896
0.444768 0.593396 0.742025
0.592525 0.592525 0.741153
0.740282 0.591654 0.740282
0.888039 0.590782 0.739411
1.000000 0.590090 0.738719
0.000000 0.742928 0.742928
0.147543 0.742057 0.742057
0.295300 0.741186 0.741186
0.443057 0.740314 0.740314
0.590814 0.739443 0.739443
0.738571 0.738571 0.738571
0.886329 0.737700 0.737700
1.000000 0.737008 0.737008
0.000000 0.889846 0.741218
0.145832 0.888975 0.740346
0.293589 0.888103 0.739475
0.441346 0.887232 0.738603
0.589104 0.886361 0.737732
0.736861 0.885489 0.736861
0.884618 0.884618 0.735989
1.000000 0.883926 0.735297
0.000000 1.000000 0.739859
0.144473 1.000000 0.738988
0.292231 1.000000 0.738116
0.439988 1.000000 0.737245
0.587745 1.000000 0.736374
0.735502 1.000000 0.735502
0.883259 1.000000 0.734631
1.000000 1.000000 0.733939
0.008007 0.008007 0.899778
0.155764 0.007135 0.898907
0.303521 0.006264 0.898035
0.451278 0.005393 0.897164
0.599035 0.004521 0.896293
0.746793 0.003650 0.895421
0.894550 0.002778 0.894550
1.000000 0.002086 0.893858
0.006296 0.154925 0.898067
0.154053 0.154053 0.897196
0.301810 0.153182 0.896325
0.449568 0.152310 0.895453
0.597325 0.151439 0.894582
0.745082 0.150568 0.893711
0.892839 0.149696 0.892839
1.000000 0.149004 0.892147
0.004585 0.301842 0.896357
0.152342 0.300971 0.895485
0.300100 0.300100 0.894614
0.447857 0.299228 0.893743
0.595614 0.298357 0.892871
0.743371 0.297486 0.892000
0.891128 0.296614 0.891128
1.000000 0.295922 0.890436
0.002875 0.448760 0.894646
0.150632 0.447889 0.893775
0.298389 0.447018 0.892903
0.446146 0.446146 0.892032
0.593903 0.445275 0.891161
0.741661 0.444403 0.890289
0.889418 0.443532 0.889418
1.000000 0.442840 0.888726
0.001164 0.595678 0.892935
0.148921 0.594807 0.892064
0.296678 0.593935 0.891193
0.444435 0.593064 0.890321
0.592193 0.592193 0.889450
0.739950 0.591321 0.888578
0.887707 0.590450 0.887707
1.000000 0.589758 0.887015
0.000000 0.742596 0.891225
0.147210 0.741725 0.890353
0.294968 0.740853 0.889482
0.442725 0.739982 0.888611
0.590482 0.739111 0.887739
0.738239 0.738239 0.886868
0.885996 0.737368 0.885996
1.000000 0.736676 0.885304
0.000000 0.889514 0.889514
0.145500 0.888643 0.888643
0.293257 0.887771 0.887771
0.441014 0.886900 0.886900
0.588771 0.886028 0.886028
0.736529 0.885157 0.885157
0.884286 0.884286 0.884286
1.000000 0.883594 0.883594
0.000000 1.000000 0.888155
0.144141 1.000000 0.887284
0.291898 1.000000 0.886413
0.439656 1.000000 0.885541
0.587413 1.000000 0.884670
0.735170 1.000000 0.883799
0.882927 1.000000 0.882927
1.000000 1.000000 0.882235
0.007743 0.007743 1.000000
0.155500 0.006871 1.000000
0.303257 0.006000 1.000000
0.451014 0.005129 1.000000
0.598772 0.004257 1.000000
0.746529 0.003386 1.000000
0.894286 0.002515 1.000000
1.000000 0.001823 1.000000
0.006032 0.154661 1.000000
0.153789 0.153789 1.000000
0.301547 0.152918 1.000000
0.449304 0.152047 1.000000
0.597061 0.151175 1.000000
0.744818 0.150304 1.000000
0.892575 0.149432 1.000000
1.000000 0.148740 1.000000
0.004321 0.301579 1.000000
0.152079 0.300707 1.000000
0.299836 0.299836 1.000000
0.447593 0.298964 1.000000
0.595350 0.298093 1.000000
0.743107 0.297222 1.000000
0.890865 0.296350 1.000000
1.000000 0.295658 1.000000
0.002611 0.448496 1.000000
0.150368 0.447625 1.000000
0.298125 0.446754 1.000000
0.445882 0.445882 1.000000
0.593640 0.445011 1.000000
0.741397 0.444140 1.000000
0.889154 0.443268 1.000000
1.000000 0.442576 1.000000
0.000900 0.595414 1.000000
0.148657 0.594543 1.000000
0.296414 0.593672 1.000000
0.444172 0.592800 1.000000
0.591929 0.591929 1.000000
0.739686 0.591057 1.000000
0.887443 0.590186 1.000000
1.000000 0.589494 1.000000
0.000000 0.742332 1.000000
0.146947 0.741461 1.000000
0.294704 0.740589 1.000000
0.442461 0.739718 1.000000
0.590218 0.738847 1.000000
0.737975 0.737975 1.000000
0.885733 0.737104 1.000000
1.000000 0.736412 1.000000
0.000000 0.889250 1.000000
0.145236 0.888379 1.000000
0.292993 0.887507 1.000000
0.440750 0.886636 1.000000
0.588507 0.885765 1.000000
0.736265 0.884893 1.000000
0.884022 0.884022 1.000000
1.000000 0.883330 1.000000
0.000000 1.000000 1.000000
0.143877 1.000000 1.000000
0.291635 1.000000 1.000000
0.439392 1.000000 1.000000
0.587149 1.000000 1.000000
0.734906 1.000000 1.000000
0.882663 1.000000 1.000000
1.000000 1.000000 1.000000
