assets/luts/dramatic.cube
TITLE "戏剧"
LUT_3D_SIZE 8
DOMAIN_MIN 0.0 0.0 0.0
DOMAIN_MAX 1.0 1.0 1.0
0.000000 0.000000 0.000000
0.035925 0.000000 0.000000
0.227014 0.000000 0.000000
0.418103 0.000000 0.000000
0.609193 0.000000 0.000000
0.800282 0.000000 0.000000
0.991371 0.000000 0.000000
1.000000 0.000000 0.000000
0.000000 0.034958 0.000000
0.033954 0.033954 0.000000
0.225043 0.028615 0.000000
0.416133 0.023276 0.000000
0.607222 0.017936 0.000000
0.798311 0.012597 0.000000
0.989401 0.007258 0.000000
1.000000 0.005058 0.000000
0.000000 0.220904 0.000000
0.023472 0.219901 0.000000
0.214561 0.214561 0.000000
0.405651 0.209222 0.000000
0.596740 0.203883 0.000000
0.787829 0.198543 0.000000
0.978918 0.193204 0.000000
1.000000 0.191004 0.000000
0.000000 0.406851 0.000000
0.012990 0.405847 0.000000
0.204079 0.400508 0.000000
0.395168 0.395168 0.000000
0.586258 0.389829 0.000000
0.777347 0.384490 0.000000
0.968436 0.379151 0.000000
1.000000 0.376951 0.000000
0.000000 0.592797 0.000000
0.002508 0.591793 0.000000
0.193597 0.586454 0.000000
0.384686 0.581115 0.000000
0.575776 0.575776 0.000000
0.766865 0.570436 0.000000
0.957954 0.565097 0.000000
1.000000 0.562897 0.000000
0.000000 0.778744 0.000000
0.000000 0.777740 0.000000
0.183115 0.772401 0.000000
0.374204 0.767061 0.000000
0.565293 0.761722 0.000000
0.756383 0.756383 0.000000
0.947472 0.751043 0.000000
1.000000 0.748844 0.000000
0.000000 0.964690 0.000000
0.000000 0.963686 0.000000
0.172633 0.958347 0.000000
0.363722 0.953008 0.000000
0.554811 0.947668 0.000000
0.745901 0.942329 0.000000
0.936990 0.936990 0.000000
1.000000 0.934790 0.000000
0.000000 1.000000 0.000000
0.000000 1.000000 0.000000
0.168314 1.000000 0.000000
0.359403 1.000000 0.000000
0.550493 1.000000 0.000000
0.741582 1.000000 0.000000
0.932671 1.000000 0.000000
1.000000 1.000000 0.000000
0.000000 0.000000 0.036546
0.035542 0.000000 0.035542
0.226631 0.000000 0.030203
0.417721 0.000000 0.024863
0.608810 0.000000 0.019524
0.799899 0.000000 0.014185
0.990989 0.000000 0.008846
1.000000 0.000000 0.006646
0.000000 0.034575 0.034575
0.033571 0.033571 0.033571
0.224661 0.028232 0.028232
0.415750 0.022893 0.022893
0.606839 0.017554 0.017554
0.797929 0.012214 0.012214
0.989018 0.006875 0.006875
1.000000 0.004675 0.004675
0.000000 0.220522 0.024093
0.023089 0.219518 0.023089
0.214179 0.214179 0.017750
0.405268 0.208839 0.012411
0.596357 0.203500 0.007071
0.787446 0.198161 0.001732
0.978536 0.192821 0.000000
1.000000 0.190622 0.000000
0.000000 0.406468 0.013611
0.012607 0.405464 0.012607
0.203696 0.400125 0.007268
0.394786 0.394786 0.001929
0.585875 0.389446 0.000000
0.776964 0.384107 0.000000
0.968054 0.378768 0.000000
1.000000 0.376568 0.000000
0.000000 0.592414 0.003129
0.002125 0.591411 0.002125
0.193214 0.586071 0.000000
0.384304 0.580732 0.000000
0.575393 0.575393 0.000000
0.766482 0.570054 0.000000
0.957571 0.564714 0.000000
1.000000 0.562514 0.000000
0.000000 0.778361 0.000000
0.000000 0.777357 0.000000
0.182732 0.772018 0.000000
0.373821 0.766679 0.000000
0.564911 0.761339 0.000000
0.756000 0.756000 0.000000
0.947089 0.750661 0.000000
1.000000 0.748461 0.000000
0.000000 0.964307 0.000000
0.000000 0.963304 0.000000
0.172250 0.957964 0.000000
0.363339 0.952625 0.000000
0.554429 0.947286 0.000000
0.745518 0.941946 0.000000
0.936607 0.936607 0.000000
1.000000 0.934407 0.000000
0.000000 1.000000 0.000000
0.000000 1.000000 0.000000
0.167931 1.000000 0.000000
0.359021 1.000000 0.000000
0.550110 1.000000 0.000000
0.741199 1.000000 0.000000
0.932288 1.000000 0.000000
1.000000 1.000000 0.000000
0.000000 0.000000 0.230939
0.033506 0.000000 0.229935
0.224596 0.000000 0.224596
0.415685 0.000000 0.219256
0.606774 0.000000 0.213917
0.797863 0.000000 0.208578
0.988953 0.000000 0.203238
1.000000 0.000000 0.201039
0.000000 0.032539 0.228968
0.031536 0.031536 0.227964
0.222625 0.026196 0.222625
0.413714 0.020857 0.217286
0.604804 0.015518 0.211946
0.795893 0.010179 0.206607
0.986982 0.004839 0.201268
1.000000 0.002639 0.199068
0.000000 0.218486 0.218486
0.021054 0.217482 0.217482
0.212143 0.212143 0.212143
0.403232 0.206804 0.206804
0.594321 0.201464 0.201464
0.785411 0.196125 0.196125
0.976500 0.190786 0.190786
1.000000 0.188586 0.188586
0.000000 0.404432 0.208004
0.010571 0.403429 0.207000
0.201661 0.398089 0.201661
0.392750 0.392750 0.196321
0.583839 0.387411 0.190982
0.774929 0.382071 0.185643
0.966018 0.376732 0.180304
1.000000 0.374532 0.178104
0.000000 0.590379 0.197522
0.000089 0.589375 0.196518
0.191179 0.584036 0.191179
0.382268 0.578696 0.185839
0.573357 0.573357 0.180500
0.764446 0.568018 0.175161
0.955536 0.562679 0.169821
1.000000 0.560479 0.167622
0.000000 0.776325 0.187039
0.000000 0.775321 0.186036
0.180696 0.769982 0.180696
0.371786 0.764643 0.175357
0.562875 0.759304 0.170018
0.753964 0.753964 0.164679
0.945054 0.748625 0.159339
1.000000 0.746425 0.157139
0.000000 0.962272 0.176557
0.000000 0.961268 0.175554
0.170214 0.955929 0.170214
0.361304 0.950589 0.164875
0.552393 0.945250 0.159536
0.743482 0.939911 0.154196
0.934571 0.934571 0.148857
1.000000 0.932372 0.146657
0.000000 1.000000 0.172239
0.000000 1.000000 0.171235
0.165896 1.000000 0.165896
0.356985 1.000000 0.160556
0.548074 1.000000 0.155217
0.739163 1.000000 0.149878
0.930253 1.000000 0.144538
1.000000 1.000000 0.142339
0.000000 0.000000 0.425332
0.031471 0.000000 0.424328
0.222560 0.000000 0.418988
0.413649 0.000000 0.413649
0.604738 0.000000 0.408310
0.795828 0.000000 0.402971
0.986917 0.000000 0.397631
1.000000 0.000000 0.395432
0.000000 0.030504 0.423361
0.029500 0.029500 0.422357
0.220589 0.024161 0.417018
0.411679 0.018821 0.411679
0.602768 0.013482 0.406339
0.793857 0.008143 0.401000
0.984946 0.002804 0.395661
1.000000 0.000604 0.393461
0.000000 0.216450 0.412879
0.019018 0.215446 0.411875
0.210107 0.210107 0.406536
0.401196 0.204768 0.401196
0.592286 0.199429 0.395857
0.783375 0.194089 0.390518
0.974464 0.188750 0.385179
1.000000 0.186550 0.382979
0.000000 0.402397 0.402397
0.008536 0.401393 0.401393
0.199625 0.396054 0.396054
0.390714 0.390714 0.390714
0.581804 0.385375 0.385375
0.772893 0.380036 0.380036
0.963982 0.374696 0.374696
1.000000 0.372497 0.372497
0.000000 0.588343 0.391914
0.000000 0.587339 0.390911
0.189143 0.582000 0.385571
0.380232 0.576661 0.380232
0.571321 0.571321 0.374893
0.762411 0.565982 0.369554
0.953500 0.560643 0.364214
1.000000 0.558443 0.362014
0.000000 0.774289 0.381432
0.000000 0.773286 0.380429
0.178661 0.767946 0.375089
0.369750 0.762607 0.369750
0.560839 0.757268 0.364411
0.751929 0.751929 0.359071
0.943018 0.746589 0.353732
1.000000 0.744389 0.351532
0.000000 0.960236 0.370950
0.000000 0.959232 0.369946
0.168179 0.953893 0.364607
0.359268 0.948554 0.359268
0.550357 0.943214 0.353929
0.741446 0.937875 0.348589
0.932536 0.932536 0.343250
1.000000 0.930336 0.341050
0.000000 1.000000 0.366632
0.000000 1.000000 0.365628
0.163860 1.000000 0.360288
0.354949 1.000000 0.354949
0.546038 1.000000 0.349610
0.737128 1.000000 0.344271
0.928217 1.000000 0.338931
1.000000 1.000000 0.336732
0.000000 0.000000 0.619724
0.029435 0.000000 0.618721
0.220524 0.000000 0.613381
0.411613 0.000000 0.608042
0.602703 0.000000 0.602703
0.793792 0.000000 0.597363
0.984881 0.000000 0.592024
1.000000 0.000000 0.589824
0.000000 0.028468 0.617754
0.027464 0.027464 0.616750
0.218554 0.022125 0.611411
0.409643 0.016786 0.606071
0.600732 0.011446 0.600732
0.791821 0.006107 0.595393
0.982911 0.000768 0.590054
1.000000 0.000000 0.587854
0.000000 0.214414 0.607272
0.016982 0.213411 0.606268
0.208071 0.208071 0.600929
0.399161 0.202732 0.595589
0.590250 0.197393 0.590250
0.781339 0.192054 0.584911
0.972429 0.186714 0.579571
1.000000 0.184514 0.577372
0.000000 0.400361 0.596789
0.006500 0.399357 0.595786
0.197589 0.394018 0.590446
0.388679 0.388679 0.585107
0.579768 0.383339 0.579768
0.770857 0.378000 0.574429
0.961946 0.372661 0.569089
1.000000 0.370461 0.566889
0.000000 0.586307 0.586307
0.000000 0.585304 0.585304
0.187107 0.579964 0.579964
0.378196 0.574625 0.574625
0.569286 0.569286 0.569286
0.760375 0.563946 0.563946
0.951464 0.558607 0.558607
1.000000 0.556407 0.556407
0.000000 0.772254 0.575825
0.000000 0.771250 0.574821
0.176625 0.765911 0.569482
0.367714 0.760571 0.564143
0.558804 0.755232 0.558804
0.749893 0.749893 0.553464
0.940982 0.744554 0.548125
1.000000 0.742354 0.545925
0.000000 0.958200 0.565343
0.000000 0.957196 0.564339
0.166143 0.951857 0.559000
0.357232 0.946518 0.553661
0.548321 0.941179 0.548321
0.739411 0.935839 0.542982
0.930500 0.930500 0.537643
1.000000 0.928300 0.535443
0.000000 1.000000 0.561024
0.000000 1.000000 0.560021
0.161824 1.000000 0.554681
0.352913 1.000000 0.549342
0.544003 1.000000 0.544003
0.735092 1.000000 0.538663
0.926181 1.000000 0.533324
1.000000 1.000000 0.531124
0.000000 0.000000 0.814117
0.027399 0.000000 0.813113
0.218488 0.000000 0.807774
0.409578 0.000000 0.802435
0.600667 0.000000 0.797096
0.791756 0.000000 0.791756
0.982846 0.000000 0.786417
1.000000 0.000000 0.784217
0.000000 0.026432 0.812147
0.025429 0.025429 0.811143
0.216518 0.020089 0.805804
0.407607 0.014750 0.800464
0.598696 0.009411 0.795125
0.789786 0.004071 0.789786
0.980875 0.000000 0.784446
1.000000 0.000000 0.782247
0.000000 0.212379 0.801665
0.014946 0.211375 0.800661
0.206036 0.206036 0.795321
0.397125 0.200696 0.789982
0.588214 0.195357 0.784643
0.779304 0.190018 0.779304
0.970393 0.184679 0.773964
1.000000 0.182479 0.771764
0.000000 0.398325 0.791182
0.004464 0.397321 0.790179
0.195554 0.391982 0.784839
0.386643 0.386643 0.779500
0.577732 0.381304 0.774161
0.768821 0.375964 0.768821
0.959911 0.370625 0.763482
1.000000 0.368425 0.761282
0.000000 0.584272 0.780700
0.000000 0.583268 0.779696
0.185071 0.577929 0.774357
0.376161 0.572589 0.769018
0.567250 0.567250 0.763679
0.758339 0.561911 0.758339
0.949429 0.556571 0.753000
1.000000 0.554372 0.750800
0.000000 0.770218 0.770218
0.000000 0.769214 0.769214
0.174589 0.763875 0.763875
0.365679 0.758536 0.758536
0.556768 0.753196 0.753196
0.747857 0.747857 0.747857
0.938946 0.742518 0.742518
1.000000 0.740318 0.740318
0.000000 0.956164 0.759736
0.000000 0.955161 0.758732
0.164107 0.949821 0.753393
0.355196 0.944482 0.748054
0.546286 0.939143 0.742714
0.737375 0.933804 0.737375
0.928464 0.928464 0.732036
1.000000 0.926264 0.729836
0.000000 1.000000 0.755417
0.000000 1.000000 0.754413
0.159788 1.000000 0.749074
0.350878 1.000000 0.743735
0.541967 1.000000 0.738396
0.733056 1.000000 0.733056
0.924146 1.000000 0.727717
1.000000 1.000000 0.725517
0.000000 0.000000 1.000000
0.025363 0.000000 1.000000
0.216453 0.000000 1.000000
0.407542 0.000000 0.996828
0.598631 0.000000 0.991488
0.789721 0.000000 0.986149
0.980810 0.000000 0.980810
1.000000 0.000000 0.978610
0.000000 0.024397 1.000000
0.023393 0.023393 1.000000
0.214482 0.018054 1.000000
0.405571 0.012714 0.994857
0.596661 0.007375 0.989518
0.787750 0.002036 0.984179
0.978839 0.000000 0.978839
1.000000 0.000000 0.976639
0.000000 0.210343 0.996057
0.012911 0.209339 0.995054
0.204000 0.204000 0.989714
0.395089 0.198661 0.984375
0.586179 0.193321 0.979036
0.777268 0.187982 0.973696
0.968357 0.182643 0.968357
1.000000 0.180443 0.966157
0.000000 0.396289 0.985575
0.002429 0.395286 0.984571
0.193518 0.389946 0.979232
0.384607 0.384607 0.973893
0.575696 0.379268 0.968554
0.766786 0.373929 0.963214
0.957875 0.368589 0.957875
1.000000 0.366389 0.955675
0.000000 0.582236 0.975093
0.000000 0.581232 0.974089
0.183036 0.575893 0.968750
0.374125 0.570554 0.963411
0.565214 0.565214 0.958071
0.756304 0.559875 0.952732
0.947393 0.554536 0.947393
1.000000 0.552336 0.945193
0.000000 0.768182 0.964611
0.000000 0.767179 0.963607
0.172554 0.761839 0.958268
0.363643 0.756500 0.952929
0.554732 0.751161 0.947589
0.745821 0.745821 0.942250
0.936911 0.740482 0.936911
1.000000 0.738282 0.934711
0.000000 0.954129 0.954129
0.000000 0.953125 0.953125
0.162071 0.947786 0.947786
0.353161 0.942446 0.942446
0.544250 0.937107 0.937107
0.735339 0.931768 0.931768
0.926429 0.926429 0.926429
1.000000 0.924229 0.924229
0.000000 1.000000 0.949810
0.000000 1.000000 0.948806
0.157753 1.000000 0.943467
0.348842 1.000000 0.938128
0.539931 1.000000 0.932789
0.731021 1.000000 0.927449
0.922110 1.000000 0.922110
1.000000 1.000000 0.919910
0.000000 0.000000 1.000000
0.024525 0.000000 1.000000
0.215614 0.000000 1.000000
0.406703 0.000000 1.000000
0.597793 0.000000 1.000000
0.788882 0.000000 1.000000
0.979971 0.000000 1.000000
1.000000 0.000000 1.000000
0.000000 0.023558 1.000000
0.022554 0.022554 1.000000
0.213643 0.017215 1.000000
0.404733 0.011876 1.000000
0.595822 0.006536 1.000000
0.786911 0.001197 1.000000
0.978001 0.000000 1.000000
1.000000 0.000000 1.000000
0.000000 0.209504 1.000000
0.012072 0.208501 1.000000
0.203161 0.203161 1.000000
0.394251 0.197822 1.000000
0.585340 0.192483 1.000000
0.776429 0.187143 1.000000
0.967518 0.181804 1.000000
1.000000 0.179604 1.000000
0.000000 0.395451 1.000000
0.001590 0.394447 1.000000
0.192679 0.389108 1.000000
0.383768 0.383768 1.000000
0.574858 0.378429 1.000000
0.765947 0.373090 1.000000
0.957036 0.367751 1.000000
1.000000 0.365551 1.000000
0.000000 0.581397 1.000000
0.000000 0.580393 1.000000
0.182197 0.575054 1.000000
0.373286 0.569715 1.000000
0.564376 0.564376 1.000000
0.755465 0.559036 1.000000
0.946554 0.553697 1.000000
1.000000 0.551497 1.000000
0.000000 0.767344 1.000000
0.000000 0.766340 1.000000
0.171715 0.761001 1.000000
0.362804 0.755661 1.000000
0.553893 0.750322 1.000000
0.744983 0.744983 1.000000
0.936072 0.739643 1.000000
1.000000 0.737444 1.000000
0.000000 0.953290 1.000000
0.000000 0.952286 1.000000
0.161233 0.946947 1.000000
0.352322 0.941608 1.000000
0.543411 0.936268 1.000000
0.734501 0.930929 1.000000
0.925590 0.925590 1.000000
1.000000 0.923390 1.000000
0.000000 1.000000 1.000000
0.000000 1.000000 1.000000
0.156914 1.000000 1.000000
0.348003 1.000000 1.000000
0.539093 1.000000 1.000000
0.730182 1.000000 1.000000
0.921271 1.000000 1.000000
1.000000 1.000000 1.000000
