assets/luts/film_noir.cube
TITLE "黑色电影"
LUT_3D_SIZE 8
DOMAIN_MIN 0.0 0.0 0.0
DOMAIN_MAX 1.0 1.0 1.0
0.000000 0.000000 0.000000
0.010038 0.010038 0.010038
0.063431 0.063431 0.063431
0.116824 0.116824 0.116824
0.170216 0.170216 0.170216
0.223609 0.223609 0.223609
0.277002 0.277002 0.277002
0.299000 0.299000 0.299000
0.019706 0.019706 0.019706
0.029744 0.029744 0.029744
0.083137 0.083137 0.083137
0.136530 0.136530 0.136530
0.189923 0.189923 0.189923
0.243316 0.243316 0.243316
0.296709 0.296709 0.296709
0.318706 0.318706 0.318706
0.124528 0.124528 0.124528
0.134566 0.134566 0.134566
0.187959 0.187959 0.187959
0.241351 0.241351 0.241351
0.294744 0.294744 0.294744
0.348137 0.348137 0.348137
0.401530 0.401530 0.401530
0.423528 0.423528 0.423528
0.229349 0.229349 0.229349
0.239387 0.239387 0.239387
0.292780 0.292780 0.292780
0.346173 0.346173 0.346173
0.399566 0.399566 0.399566
0.452959 0.452959 0.452959
0.506351 0.506351 0.506351
0.528349 0.528349 0.528349
0.334171 0.334171 0.334171
0.344209 0.344209 0.344209
0.397601 0.397601 0.397601
0.450994 0.450994 0.450994
0.504387 0.504387 0.504387
0.557780 0.557780 0.557780
0.611173 0.611173 0.611173
0.633171 0.633171 0.633171
0.438992 0.438992 0.438992
0.449030 0.449030 0.449030
0.502423 0.502423 0.502423
0.555816 0.555816 0.555816
0.609209 0.609209 0.609209
0.662601 0.662601 0.662601
0.715994 0.715994 0.715994
0.737992 0.737992 0.737992
0.543814 0.543814 0.543814
0.553851 0.553851 0.553851
0.607244 0.607244 0.607244
0.660637 0.660637 0.660637
0.714030 0.714030 0.714030
0.767423 0.767423 0.767423
0.820816 0.820816 0.820816
0.842814 0.842814 0.842814
0.587000 0.587000 0.587000
0.597038 0.597038 0.597038
0.650431 0.650431 0.650431
0.703824 0.703824 0.703824
0.757216 0.757216 0.757216
0.810609 0.810609 0.810609
0.864002 0.864002 0.864002
0.886000 0.886000 0.886000
0.003827 0.003827 0.003827
0.013865 0.013865 0.013865
0.067258 0.067258 0.067258
0.120651 0.120651 0.120651
0.174044 0.174044 0.174044
0.227436 0.227436 0.227436
0.280829 0.280829 0.280829
0.302827 0.302827 0.302827
0.023534 0.023534 0.023534
0.033571 0.033571 0.033571
0.086964 0.086964 0.086964
0.140357 0.140357 0.140357
0.193750 0.193750 0.193750
0.247143 0.247143 0.247143
0.300536 0.300536 0.300536
0.322534 0.322534 0.322534
0.128355 0.128355 0.128355
0.138393 0.138393 0.138393
0.191786 0.191786 0.191786
0.245179 0.245179 0.245179
0.298571 0.298571 0.298571
0.351964 0.351964 0.351964
0.405357 0.405357 0.405357
0.427355 0.427355 0.427355
0.233176 0.233176 0.233176
0.243214 0.243214 0.243214
0.296607 0.296607 0.296607
0.350000 0.350000 0.350000
0.403393 0.403393 0.403393
0.456786 0.456786 0.456786
0.510179 0.510179 0.510179
0.532176 0.532176 0.532176
0.337998 0.337998 0.337998
0.348036 0.348036 0.348036
0.401429 0.401429 0.401429
0.454821 0.454821 0.454821
0.508214 0.508214 0.508214
0.561607 0.561607 0.561607
0.615000 0.615000 0.615000
0.636998 0.636998 0.636998
0.442819 0.442819 0.442819
0.452857 0.452857 0.452857
0.506250 0.506250 0.506250
0.559643 0.559643 0.559643
0.613036 0.613036 0.613036
0.666429 0.666429 0.666429
0.719821 0.719821 0.719821
0.741819 0.741819 0.741819
0.547641 0.547641 0.547641
0.557679 0.557679 0.557679
0.611071 0.611071 0.611071
0.664464 0.664464 0.664464
0.717857 0.717857 0.717857
0.771250 0.771250 0.771250
0.824643 0.824643 0.824643
0.846641 0.846641 0.846641
0.590827 0.590827 0.590827
0.600865 0.600865 0.600865
0.654258 0.654258 0.654258
0.707651 0.707651 0.707651
0.761044 0.761044 0.761044
0.814436 0.814436 0.814436
0.867829 0.867829 0.867829
0.889827 0.889827 0.889827
0.024184 0.024184 0.024184
0.034222 0.034222 0.034222
0.087615 0.087615 0.087615
0.141008 0.141008 0.141008
0.194401 0.194401 0.194401
0.247794 0.247794 0.247794
0.301186 0.301186 0.301186
0.323184 0.323184 0.323184
0.043891 0.043891 0.043891
0.053929 0.053929 0.053929
0.107321 0.107321 0.107321
0.160714 0.160714 0.160714
0.214107 0.214107 0.214107
0.267500 0.267500 0.267500
0.320893 0.320893 0.320893
0.342891 0.342891 0.342891
0.148712 0.148712 0.148712
0.158750 0.158750 0.158750
0.212143 0.212143 0.212143
0.265536 0.265536 0.265536
0.318929 0.318929 0.318929
0.372321 0.372321 0.372321
0.425714 0.425714 0.425714
0.447712 0.447712 0.447712
0.253534 0.253534 0.253534
0.263571 0.263571 0.263571
0.316964 0.316964 0.316964
0.370357 0.370357 0.370357
0.423750 0.423750 0.423750
0.477143 0.477143 0.477143
0.530536 0.530536 0.530536
0.552534 0.552534 0.552534
0.358355 0.358355 0.358355
0.368393 0.368393 0.368393
0.421786 0.421786 0.421786
0.475179 0.475179 0.475179
0.528571 0.528571 0.528571
0.581964 0.581964 0.581964
0.635357 0.635357 0.635357
0.657355 0.657355 0.657355
0.463176 0.463176 0.463176
0.473214 0.473214 0.473214
0.526607 0.526607 0.526607
0.580000 0.580000 0.580000
0.633393 0.633393 0.633393
0.686786 0.686786 0.686786
0.740179 0.740179 0.740179
0.762176 0.762176 0.762176
0.567998 0.567998 0.567998
0.578036 0.578036 0.578036
0.631429 0.631429 0.631429
0.684821 0.684821 0.684821
0.738214 0.738214 0.738214
0.791607 0.791607 0.791607
0.845000 0.845000 0.845000
0.866998 0.866998 0.866998
0.611184 0.611184 0.611184
0.621222 0.621222 0.621222
0.674615 0.674615 0.674615
0.728008 0.728008 0.728008
0.781401 0.781401 0.781401
0.834794 0.834794 0.834794
0.888186 0.888186 0.888186
0.910184 0.910184 0.910184
0.044541 0.044541 0.044541
0.054579 0.054579 0.054579
0.107972 0.107972 0.107972
0.161365 0.161365 0.161365
0.214758 0.214758 0.214758
0.268151 0.268151 0.268151
0.321544 0.321544 0.321544
0.343541 0.343541 0.343541
0.064248 0.064248 0.064248
0.074286 0.074286 0.074286
0.127679 0.127679 0.127679
0.181071 0.181071 0.181071
0.234464 0.234464 0.234464
0.287857 0.287857 0.287857
0.341250 0.341250 0.341250
0.363248 0.363248 0.363248
0.169069 0.169069 0.169069
0.179107 0.179107 0.179107
0.232500 0.232500 0.232500
0.285893 0.285893 0.285893
0.339286 0.339286 0.339286
0.392679 0.392679 0.392679
0.446071 0.446071 0.446071
0.468069 0.468069 0.468069
0.273891 0.273891 0.273891
0.283929 0.283929 0.283929
0.337321 0.337321 0.337321
0.390714 0.390714 0.390714
0.444107 0.444107 0.444107
0.497500 0.497500 0.497500
0.550893 0.550893 0.550893
0.572891 0.572891 0.572891
0.378712 0.378712 0.378712
0.388750 0.388750 0.388750
0.442143 0.442143 0.442143
0.495536 0.495536 0.495536
0.548929 0.548929 0.548929
0.602321 0.602321 0.602321
0.655714 0.655714 0.655714
0.677712 0.677712 0.677712
0.483534 0.483534 0.483534
0.493571 0.493571 0.493571
0.546964 0.546964 0.546964
0.600357 0.600357 0.600357
0.653750 0.653750 0.653750
0.707143 0.707143 0.707143
0.760536 0.760536 0.760536
0.782534 0.782534 0.782534
0.588355 0.588355 0.588355
0.598393 0.598393 0.598393
0.651786 0.651786 0.651786
0.705179 0.705179 0.705179
0.758571 0.758571 0.758571
0.811964 0.811964 0.811964
0.865357 0.865357 0.865357
0.887355 0.887355 0.887355
0.631541 0.631541 0.631541
0.641579 0.641579 0.641579
0.694972 0.694972 0.694972
0.748365 0.748365 0.748365
0.801758 0.801758 0.801758
0.855151 0.855151 0.855151
0.908544 0.908544 0.908544
0.930541 0.930541 0.930541
0.064899 0.064899 0.064899
0.074936 0.074936 0.074936
0.128329 0.128329 0.128329
0.181722 0.181722 0.181722
0.235115 0.235115 0.235115
0.288508 0.288508 0.288508
0.341901 0.341901 0.341901
0.363899 0.363899 0.363899
0.084605 0.084605 0.084605
0.094643 0.094643 0.094643
0.148036 0.148036 0.148036
0.201429 0.201429 0.201429
0.254821 0.254821 0.254821
0.308214 0.308214 0.308214
0.361607 0.361607 0.361607
0.383605 0.383605 0.383605
0.189426 0.189426 0.189426
0.199464 0.199464 0.199464
0.252857 0.252857 0.252857
0.306250 0.306250 0.306250
0.359643 0.359643 0.359643
0.413036 0.413036 0.413036
0.466429 0.466429 0.466429
0.488426 0.488426 0.488426
0.294248 0.294248 0.294248
0.304286 0.304286 0.304286
0.357679 0.357679 0.357679
0.411071 0.411071 0.411071
0.464464 0.464464 0.464464
0.517857 0.517857 0.517857
0.571250 0.571250 0.571250
0.593248 0.593248 0.593248
0.399069 0.399069 0.399069
0.409107 0.409107 0.409107
0.462500 0.462500 0.462500
0.515893 0.515893 0.515893
0.569286 0.569286 0.569286
0.622679 0.622679 0.622679
0.676071 0.676071 0.676071
0.698069 0.698069 0.698069
0.503891 0.503891 0.503891
0.513929 0.513929 0.513929
0.567321 0.567321 0.567321
0.620714 0.620714 0.620714
0.674107 0.674107 0.674107
0.727500 0.727500 0.727500
0.780893 0.780893 0.780893
0.802891 0.802891 0.802891
0.608712 0.608712 0.608712
0.618750 0.618750 0.618750
0.672143 0.672143 0.672143
0.725536 0.725536 0.725536
0.778929 0.778929 0.778929
0.832321 0.832321 0.832321
0.885714 0.885714 0.885714
0.907712 0.907712 0.907712
0.651899 0.651899 0.651899
0.661936 0.661936 0.661936
0.715329 0.715329 0.715329
0.768722 0.768722 0.768722
0.822115 0.822115 0.822115
0.875508 0.875508 0.875508
0.928901 0.928901 0.928901
0.950899 0.950899 0.950899
0.085256 0.085256 0.085256
0.095294 0.095294 0.095294
0.148686 0.148686 0.148686
0.202079 0.202079 0.202079
0.255472 0.255472 0.255472
0.308865 0.308865 0.308865
0.362258 0.362258 0.362258
0.384256 0.384256 0.384256
0.104962 0.104962 0.104962
0.115000 0.115000 0.115000
0.168393 0.168393 0.168393
0.221786 0.221786 0.221786
0.275179 0.275179 0.275179
0.328571 0.328571 0.328571
0.381964 0.381964 0.381964
0.403962 0.403962 0.403962
0.209784 0.209784 0.209784
0.219821 0.219821 0.219821
0.273214 0.273214 0.273214
0.326607 0.326607 0.326607
0.380000 0.380000 0.380000
0.433393 0.433393 0.433393
0.486786 0.486786 0.486786
0.508784 0.508784 0.508784
0.314605 0.314605 0.314605
0.324643 0.324643 0.324643
0.378036 0.378036 0.378036
0.431429 0.431429 0.431429
0.484821 0.484821 0.484821
0.538214 0.538214 0.538214
0.591607 0.591607 0.591607
0.613605 0.613605 0.613605
0.419426 0.419426 0.419426
0.429464 0.429464 0.429464
0.482857 0.482857 0.482857
0.536250 0.536250 0.536250
0.589643 0.589643 0.589643
0.643036 0.643036 0.643036
0.696429 0.696429 0.696429
0.718426 0.718426 0.718426
0.524248 0.524248 0.524248
0.534286 0.534286 0.534286
0.587679 0.587679 0.587679
0.641071 0.641071 0.641071
0.694464 0.694464 0.694464
0.747857 0.747857 0.747857
0.801250 0.801250 0.801250
0.823248 0.823248 0.823248
0.629069 0.629069 0.629069
0.639107 0.639107 0.639107
0.692500 0.692500 0.692500
0.745893 0.745893 0.745893
0.799286 0.799286 0.799286
0.852679 0.852679 0.852679
0.906071 0.906071 0.906071
0.928069 0.928069 0.928069
0.672256 0.672256 0.672256
0.682294 0.682294 0.682294
0.735686 0.735686 0.735686
0.789079 0.789079 0.789079
0.842472 0.842472 0.842472
0.895865 0.895865 0.895865
0.949258 0.949258 0.949258
0.971256 0.971256 0.971256
0.105613 0.105613 0.105613
0.115651 0.115651 0.115651
0.169044 0.169044 0.169044
0.222436 0.222436 0.222436
0.275829 0.275829 0.275829
0.329222 0.329222 0.329222
0.382615 0.382615 0.382615
0.404613 0.404613 0.404613
0.125319 0.125319 0.125319
0.135357 0.135357 0.135357
0.188750 0.188750 0.188750
0.242143 0.242143 0.242143
0.295536 0.295536 0.295536
0.348929 0.348929 0.348929
0.402321 0.402321 0.402321
0.424319 0.424319 0.424319
0.230141 0.230141 0.230141
0.240179 0.240179 0.240179
0.293571 0.293571 0.293571
0.346964 0.346964 0.346964
0.400357 0.400357 0.400357
0.453750 0.453750 0.453750
0.507143 0.507143 0.507143
0.529141 0.529141 0.529141
0.334962 0.334962 0.334962
0.345000 0.345000 0.345000
0.398393 0.398393 0.398393
0.451786 0.451786 0.451786
0.505179 0.505179 0.505179
0.558571 0.558571 0.558571
0.611964 0.611964 0.611964
0.633962 0.633962 0.633962
0.439784 0.439784 0.439784
0.449821 0.449821 0.449821
0.503214 0.503214 0.503214
0.556607 0.556607 0.556607
0.610000 0.610000 0.610000
0.663393 0.663393 0.663393
0.716786 0.716786 0.716786
0.738784 0.738784 0.738784
0.544605 0.544605 0.544605
0.554643 0.554643 0.554643
0.608036 0.608036 0.608036
0.661429 0.661429 0.661429
0.714821 0.714821 0.714821
0.768214 0.768214 0.768214
0.821607 0.821607 0.821607
0.843605 0.843605 0.843605
0.649426 0.649426 0.649426
0.659464 0.659464 0.659464
0.712857 0.712857 0.712857
0.766250 0.766250 0.766250
0.819643 0.819643 0.819643
0.873036 0.873036 0.873036
0.926429 0.926429 0.926429
0.948426 0.948426 0.948426
0.692613 0.692613 0.692613
0.702651 0.702651 0.702651
0.756044 0.756044 0.756044
0.809436 0.809436 0.809436
0.862829 0.862829 0.862829
0.916222 0.916222 0.916222
0.969615 0.969615 0.969615
0.991613 0.991613 0.991613
0.114000 0.114000 0.114000
0.124038 0.124038 0.124038
0.177431 0.177431 0.177431
0.230824 0.230824 0.230824
0.284216 0.284216 0.284216
0.337609 0.337609 0.337609
0.391002 0.391002 0.391002
0.413000 0.413000 0.413000
0.133706 0.133706 0.133706
0.143744 0.143744 0.143744
0.197137 0.197137 0.197137
0.250530 0.250530 0.250530
0.303923 0.303923 0.303923
0.357316 0.357316 0.357316
0.410709 0.410709 0.410709
0.432706 0.432706 0.432706
0.238528 0.238528 0.238528
0.248566 0.248566 0.248566
0.301959 0.301959 0.301959
0.355351 0.355351 0.355351
0.408744 0.408744 0.408744
0.462137 0.462137 0.462137
0.515530 0.515530 0.515530
0.537528 0.537528 0.537528
0.343349 0.343349 0.343349
0.353387 0.353387 0.353387
0.406780 0.406780 0.406780
0.460173 0.460173 0.460173
0.513566 0.513566 0.513566
0.566959 0.566959 0.566959
0.620351 0.620351 0.620351
0.642349 0.642349 0.642349
0.448171 0.448171 0.448171
0.458209 0.458209 0.458209
0.511601 0.511601 0.511601
0.564994 0.564994 0.564994
0.618387 0.618387 0.618387
0.671780 0.671780 0.671780
0.725173 0.725173 0.725173
0.747171 0.747171 0.747171
0.552992 0.552992 0.552992
0.563030 0.563030 0.563030
0.616423 0.616423 0.616423
0.669816 0.669816 0.669816
0.723209 0.723209 0.723209
0.776601 0.776601 0.776601
0.829994 0.829994 0.829994
0.851992 0.851992 0.851992
0.657814 0.657814 0.657814
0.667851 0.667851 0.667851
0.721244 0.721244 0.721244
0.774637 0.774637 0.774637
0.828030 0.828030 0.828030
0.881423 0.881423 0.881423
0.934816 0.934816 0.934816
0.956814 0.956814 0.956814
0.701000 0.701000 0.701000
0.711038 0.711038 0.711038
0.764431 0.764431 0.764431
0.817824 0.817824 0.817824
0.871216 0.871216 0.871216
0.924609 0.924609 0.924609
0.978002 0.978002 0.978002
1.000000 1.000000 1.000000
