assets/luts/food.cube
TITLE "美食"
LUT_3D_SIZE 8
DOMAIN_MIN 0.0 0.0 0.0
DOMAIN_MAX 1.0 1.0 1.0
0.030000 0.000000 0.000000
0.168144 0.000000 0.000000
0.333916 0.000000 0.000000
0.499689 0.000000 0.000000
0.665461 0.000000 0.000000
0.831234 0.000000 0.000000
0.997006 0.000000 0.000000
1.000000 0.000000 0.000000
0.018994 0.132744 0.000000
0.157138 0.127138 0.000000
0.322910 0.120410 0.000000
0.488683 0.113683 0.000000
0.654455 0.106955 0.000000
0.820227 0.100228 0.000000
0.986000 0.093500 0.000000
1.000000 0.087894 0.000000
0.005786 0.292036 0.000000
0.143930 0.286430 0.000000
0.309702 0.279702 0.000000
0.475475 0.272975 0.000000
0.641247 0.266247 0.000000
0.807020 0.259520 0.000000
0.972792 0.252792 0.000000
1.000000 0.247186 0.000000
0.000000 0.451329 0.000000
0.130723 0.445722 0.000000
0.296495 0.438995 0.000000
0.462267 0.432267 0.000000
0.628040 0.425540 0.000000
0.793812 0.418812 0.000000
0.959585 0.412085 0.000000
1.000000 0.406479 0.000000
0.000000 0.610621 0.000000
0.117515 0.605015 0.000000
0.283288 0.598287 0.000000
0.449060 0.591560 0.000000
0.614833 0.584832 0.000000
0.780605 0.578105 0.000000
0.946377 0.571377 0.000000
1.000000 0.565771 0.000000
0.000000 0.769914 0.000000
0.104308 0.764307 0.000000
0.270080 0.757580 0.000000
0.435853 0.750852 0.000000
0.601625 0.744125 0.000000
0.767397 0.737397 0.000000
0.933170 0.730670 0.000000
1.000000 0.725064 0.000000
0.000000 0.929206 0.000000
0.091100 0.923600 0.000000
0.256872 0.916872 0.000000
0.422645 0.910145 0.000000
0.588418 0.903417 0.000000
0.754190 0.896690 0.000000
0.919963 0.889962 0.000000
1.000000 0.884356 0.000000
0.000000 1.000000 0.000000
0.080094 1.000000 0.000000
0.245866 1.000000 0.000000
0.411639 1.000000 0.000000
0.577411 1.000000 0.000000
0.743184 1.000000 0.000000
0.908956 1.000000 0.000000
1.000000 1.000000 0.000000
0.027862 0.000000 0.141613
0.166006 0.000000 0.136006
0.331779 0.000000 0.129279
0.497551 0.000000 0.122551
0.663324 0.000000 0.115824
0.829096 0.000000 0.109096
0.994869 0.000000 0.102369
1.000000 0.000000 0.096763
0.016856 0.130606 0.130606
0.155000 0.125000 0.125000
0.320772 0.118273 0.118273
0.486545 0.111545 0.111545
0.652317 0.104818 0.104818
0.818090 0.098090 0.098090
0.983862 0.091363 0.091363
1.000000 0.085756 0.085756
0.003649 0.289899 0.117399
0.141793 0.284292 0.111793
0.307565 0.277565 0.105065
0.473337 0.270837 0.098338
0.639110 0.264110 0.091610
0.804882 0.257382 0.084883
0.970655 0.250655 0.078155
1.000000 0.245049 0.072549
0.000000 0.449191 0.104191
0.128585 0.443585 0.098585
0.294357 0.436858 0.091858
0.460130 0.430130 0.085130
0.625903 0.423403 0.078403
0.791675 0.416675 0.071675
0.957448 0.409948 0.064948
1.000000 0.404341 0.059341
0.000000 0.608484 0.090984
0.115378 0.602877 0.085378
0.281150 0.596150 0.078650
0.446923 0.589422 0.071923
0.612695 0.582695 0.065195
0.778467 0.575967 0.058468
0.944240 0.569240 0.051740
1.000000 0.563634 0.046134
0.000000 0.767776 0.077776
0.102170 0.762170 0.072170
0.267942 0.755442 0.065443
0.433715 0.748715 0.058715
0.599487 0.741987 0.051988
0.765260 0.735260 0.045260
0.931033 0.728532 0.038533
1.000000 0.722926 0.032926
0.000000 0.927069 0.064569
0.088963 0.921462 0.058963
0.254735 0.914735 0.052235
0.420508 0.908007 0.045508
0.586280 0.901280 0.038780
0.752052 0.894552 0.032053
0.917825 0.887825 0.025325
1.000000 0.882219 0.019719
0.000000 1.000000 0.053563
0.077956 1.000000 0.047956
0.243729 1.000000 0.041229
0.409501 1.000000 0.034501
0.575274 1.000000 0.027774
0.741046 1.000000 0.021046
0.906819 1.000000 0.014319
1.000000 1.000000 0.008713
0.025298 0.000000 0.311547
0.163441 0.000000 0.305941
0.329214 0.000000 0.299214
0.494986 0.000000 0.292486
0.660759 0.000000 0.285759
0.826531 0.000000 0.279031
0.992304 0.000000 0.272304
1.000000 0.000000 0.266697
0.014291 0.128041 0.300541
0.152435 0.122435 0.294935
0.318207 0.115708 0.288207
0.483980 0.108980 0.281480
0.649752 0.102253 0.274752
0.815525 0.095525 0.268025
0.981297 0.088798 0.261297
1.000000 0.083191 0.255691
0.001084 0.287334 0.287334
0.139228 0.281727 0.281727
0.305000 0.275000 0.275000
0.470773 0.268272 0.268272
0.636545 0.261545 0.261545
0.802317 0.254818 0.254818
0.968090 0.248090 0.248090
1.000000 0.242484 0.242484
0.000000 0.446626 0.274126
0.126020 0.441020 0.268520
0.291793 0.434292 0.261792
0.457565 0.427565 0.255065
0.623337 0.420837 0.248337
0.789110 0.414110 0.241610
0.954883 0.407382 0.234882
1.000000 0.401776 0.229276
0.000000 0.605919 0.260919
0.112813 0.600312 0.255312
0.278585 0.593585 0.248585
0.444357 0.586857 0.241858
0.610130 0.580130 0.235130
0.775902 0.573402 0.228403
0.941675 0.566675 0.221675
1.000000 0.561069 0.216069
0.000000 0.765211 0.247711
0.099605 0.759605 0.242105
0.265378 0.752877 0.235378
0.431150 0.746150 0.228650
0.596923 0.739422 0.221923
0.762695 0.732695 0.215195
0.928468 0.725967 0.208468
1.000000 0.720361 0.202861
0.000000 0.924504 0.234504
0.086397 0.918897 0.228897
0.252170 0.912170 0.222170
0.417942 0.905442 0.215442
0.583715 0.898715 0.208715
0.749487 0.891987 0.201987
0.915260 0.885260 0.195260
1.000000 0.879654 0.189654
0.000000 1.000000 0.223498
0.075391 1.000000 0.217891
0.241164 1.000000 0.211164
0.406936 1.000000 0.204436
0.572709 1.000000 0.197709
0.738481 1.000000 0.190981
0.904254 1.000000 0.184254
1.000000 1.000000 0.178647
0.022733 0.000000 0.481482
0.160876 0.000000 0.475876
0.326649 0.000000 0.469149
0.492421 0.000000 0.462421
0.658194 0.000000 0.455694
0.823966 0.000000 0.448966
0.989739 0.000000 0.442239
1.000000 0.000000 0.436632
0.011726 0.125476 0.470476
0.149870 0.119870 0.464870
0.315642 0.113143 0.458143
0.481415 0.106415 0.451415
0.647188 0.099688 0.444688
0.812960 0.092960 0.437960
0.978733 0.086233 0.431233
1.000000 0.080626 0.425626
0.000000 0.284769 0.457269
0.136663 0.279162 0.451662
0.302435 0.272435 0.444935
0.468207 0.265707 0.438207
0.633980 0.258980 0.431480
0.799752 0.252252 0.424753
0.965525 0.245525 0.418025
1.000000 0.239919 0.412419
0.000000 0.444061 0.444061
0.123455 0.438455 0.438455
0.289227 0.431727 0.431727
0.455000 0.425000 0.425000
0.620772 0.418272 0.418272
0.786545 0.411545 0.411545
0.952317 0.404817 0.404817
1.000000 0.399211 0.399211
0.000000 0.603354 0.430854
0.110248 0.597747 0.425248
0.276020 0.591020 0.418520
0.441793 0.584292 0.411793
0.607565 0.577565 0.405065
0.773337 0.570837 0.398338
0.939110 0.564110 0.391610
1.000000 0.558504 0.386004
0.000000 0.762646 0.417646
0.097040 0.757040 0.412040
0.262813 0.750312 0.405313
0.428585 0.743585 0.398585
0.594357 0.736857 0.391858
0.760130 0.730130 0.385130
0.925903 0.723402 0.378403
1.000000 0.717796 0.372796
0.000000 0.921939 0.404439
0.083833 0.916332 0.398833
0.249605 0.909605 0.392105
0.415377 0.902877 0.385377
0.581150 0.896150 0.378650
0.746922 0.889423 0.371923
0.912695 0.882695 0.365195
1.000000 0.877089 0.359589
0.000000 1.000000 0.393433
0.072826 1.000000 0.387826
0.238599 1.000000 0.381099
0.404371 1.000000 0.374371
0.570144 1.000000 0.367644
0.735916 1.000000 0.360916
0.901689 1.000000 0.354189
1.000000 1.000000 0.348583
0.020168 0.000000 0.651417
0.158311 0.000000 0.645811
0.324084 0.000000 0.639084
0.489856 0.000000 0.632356
0.655629 0.000000 0.625629
0.821401 0.000000 0.618901
0.987174 0.000000 0.612174
1.000000 0.000000 0.606567
0.009161 0.122911 0.640411
0.147305 0.117305 0.634805
0.313078 0.110578 0.628077
0.478850 0.103850 0.621350
0.644622 0.097123 0.614622
0.810395 0.090395 0.607895
0.976167 0.083668 0.601167
1.000000 0.078061 0.595561
0.000000 0.282204 0.627204
0.134098 0.276597 0.621597
0.299870 0.269870 0.614870
0.465642 0.263142 0.608142
0.631415 0.256415 0.601415
0.797187 0.249688 0.594687
0.962960 0.242960 0.587960
1.000000 0.237354 0.582354
0.000000 0.441496 0.613996
0.120890 0.435890 0.608390
0.286662 0.429163 0.601662
0.452435 0.422435 0.594935
0.618208 0.415708 0.588207
0.783980 0.408980 0.581480
0.949752 0.402253 0.574752
1.000000 0.396646 0.569146
0.000000 0.600789 0.600789
0.107683 0.595182 0.595182
0.273455 0.588455 0.588455
0.439227 0.581727 0.581727
0.605000 0.575000 0.575000
0.770772 0.568272 0.568272
0.936545 0.561545 0.561545
1.000000 0.555939 0.555939
0.000000 0.760081 0.587581
0.094475 0.754475 0.581975
0.260247 0.747747 0.575248
0.426020 0.741020 0.568520
0.591793 0.734292 0.561793
0.757565 0.727565 0.555065
0.923338 0.720837 0.548338
1.000000 0.715231 0.542731
0.000000 0.919374 0.574374
0.081268 0.913767 0.568767
0.247040 0.907040 0.562040
0.412813 0.900312 0.555312
0.578585 0.893585 0.548585
0.744357 0.886857 0.541857
0.910130 0.880130 0.535130
1.000000 0.874524 0.529524
0.000000 1.000000 0.563368
0.070261 1.000000 0.557761
0.236034 1.000000 0.551034
0.401806 1.000000 0.544306
0.567579 1.000000 0.537579
0.733351 1.000000 0.530851
0.899124 1.000000 0.524124
1.000000 1.000000 0.518517
0.017603 0.000000 0.821352
0.155746 0.000000 0.815746
0.321519 0.000000 0.809019
0.487291 0.000000 0.802291
0.653064 0.000000 0.795564
0.818836 0.000000 0.788836
0.984609 0.000000 0.782109
1.000000 0.000000 0.776502
0.006596 0.120346 0.810346
0.144740 0.114740 0.804740
0.310512 0.108013 0.798012
0.476285 0.101285 0.791285
0.642057 0.094558 0.784557
0.807830 0.087830 0.777830
0.973603 0.081103 0.771102
1.000000 0.075496 0.765496
0.000000 0.279639 0.797139
0.131533 0.274032 0.791532
0.297305 0.267305 0.784805
0.463078 0.260577 0.778077
0.628850 0.253850 0.771350
0.794622 0.247122 0.764622
0.960395 0.240395 0.757895
1.000000 0.234789 0.752289
0.000000 0.438931 0.783931
0.118325 0.433325 0.778325
0.284098 0.426597 0.771597
0.449870 0.419870 0.764870
0.615642 0.413143 0.758142
0.781415 0.406415 0.751415
0.947188 0.399687 0.744687
1.000000 0.394081 0.739081
0.000000 0.598224 0.770724
0.105118 0.592617 0.765117
0.270890 0.585890 0.758390
0.436663 0.579162 0.751662
0.602435 0.572435 0.744935
0.768207 0.565708 0.738207
0.933980 0.558980 0.731480
1.000000 0.553374 0.725874
0.000000 0.757516 0.757516
0.091910 0.751910 0.751910
0.257683 0.745182 0.745182
0.423455 0.738455 0.738455
0.589228 0.731727 0.731727
0.755000 0.725000 0.725000
0.920772 0.718272 0.718272
1.000000 0.712666 0.712666
0.000000 0.916809 0.744309
0.078703 0.911202 0.738702
0.244475 0.904475 0.731975
0.410247 0.897747 0.725247
0.576020 0.891020 0.718520
0.741792 0.884293 0.711792
0.907565 0.877565 0.705065
1.000000 0.871959 0.699459
0.000000 1.000000 0.733302
0.067696 1.000000 0.727696
0.233469 1.000000 0.720969
0.399241 1.000000 0.714241
0.565014 1.000000 0.707514
0.730786 1.000000 0.700786
0.896559 1.000000 0.694059
1.000000 1.000000 0.688452
0.015038 0.000000 0.991287
0.153181 0.000000 0.985681
0.318954 0.000000 0.978954
0.484726 0.000000 0.972226
0.650499 0.000000 0.965499
0.816271 0.000000 0.958771
0.982044 0.000000 0.952044
1.000000 0.000000 0.946438
0.004031 0.117781 0.980281
0.142175 0.112175 0.974675
0.307947 0.105448 0.967947
0.473720 0.098720 0.961220
0.639493 0.091993 0.954492
0.805265 0.085265 0.947765
0.971037 0.078538 0.941037
1.000000 0.072931 0.935431
0.000000 0.277074 0.967074
0.128968 0.271467 0.961467
0.294740 0.264740 0.954740
0.460512 0.258012 0.948012
0.626285 0.251285 0.941285
0.792057 0.244558 0.934557
0.957830 0.237830 0.927830
1.000000 0.232224 0.922224
0.000000 0.436366 0.953866
0.115760 0.430760 0.948260
0.281532 0.424032 0.941532
0.447305 0.417305 0.934805
0.613077 0.410577 0.928077
0.778850 0.403850 0.921350
0.944622 0.397122 0.914622
1.000000 0.391516 0.909016
0.000000 0.595659 0.940659
0.102553 0.590052 0.935052
0.268325 0.583325 0.928325
0.434098 0.576597 0.921598
0.599870 0.569870 0.914870
0.765642 0.563142 0.908143
0.931415 0.556415 0.901415
1.000000 0.550809 0.895809
0.000000 0.754951 0.927451
0.089345 0.749345 0.921845
0.255117 0.742617 0.915118
0.420890 0.735890 0.908390
0.586662 0.729162 0.901663
0.752435 0.722435 0.894935
0.918208 0.715707 0.888208
1.000000 0.710101 0.882601
0.000000 0.914244 0.914244
0.076138 0.908637 0.908637
0.241910 0.901910 0.901910
0.407683 0.895182 0.895182
0.573455 0.888455 0.888455
0.739227 0.881727 0.881727
0.905000 0.875000 0.875000
1.000000 0.869394 0.869394
0.000000 1.000000 0.903238
0.065131 1.000000 0.897631
0.230904 1.000000 0.890904
0.396676 1.000000 0.884176
0.562449 1.000000 0.877449
0.728221 1.000000 0.870721
0.893994 1.000000 0.863994
1.000000 1.000000 0.858388
0.012900 0.000000 1.000000
0.151044 0.000000 1.000000
0.316816 0.000000 1.000000
0.482589 0.000000 1.000000
0.648361 0.000000 1.000000
0.814134 0.000000 1.000000
0.979906 0.000000 1.000000
1.000000 0.000000 1.000000
0.001894 0.115644 1.000000
0.140038 0.110038 1.000000
0.305810 0.103310 1.000000
0.471583 0.096583 1.000000
0.637355 0.089855 1.000000
0.803127 0.083128 1.000000
0.968900 0.076400 1.000000
1.000000 0.070794 1.000000
0.000000 0.274936 1.000000
0.126830 0.269330 1.000000
0.292602 0.262602 1.000000
0.458375 0.255875 1.000000
0.624147 0.249147 1.000000
0.789920 0.242420 1.000000
0.955693 0.235692 1.000000
1.000000 0.230086 1.000000
0.000000 0.434229 1.000000
0.113623 0.428622 1.000000
0.279395 0.421895 1.000000
0.445168 0.415168 1.000000
0.610940 0.408440 1.000000
0.776712 0.401713 1.000000
0.942485 0.394985 1.000000
1.000000 0.389379 1.000000
0.000000 0.593521 1.000000
0.100415 0.587915 1.000000
0.266188 0.581187 1.000000
0.431960 0.574460 1.000000
0.597732 0.567732 1.000000
0.763505 0.561005 1.000000
0.929277 0.554277 1.000000
1.000000 0.548671 1.000000
0.000000 0.752814 1.000000
0.087208 0.747207 1.000000
0.252980 0.740480 1.000000
0.418753 0.733752 1.000000
0.584525 0.727025 1.000000
0.750297 0.720297 1.000000
0.916070 0.713570 1.000000
1.000000 0.707964 1.000000
0.000000 0.912106 1.000000
0.074000 0.906500 1.000000
0.239773 0.899772 1.000000
0.405545 0.893045 1.000000
0.571317 0.886317 1.000000
0.737090 0.879590 1.000000
0.902863 0.872862 1.000000
1.000000 0.867256 1.000000
0.000000 1.000000 1.000000
0.062994 1.000000 1.000000
0.228766 1.000000 1.000000
0.394539 1.000000 1.000000
0.560311 1.000000 1.000000
0.726084 1.000000 1.000000
0.891856 1.000000 1.000000
1.000000 1.000000 1.000000
