assets/luts/hard_light.cube
TITLE "硬光"
LUT_3D_SIZE 8
DOMAIN_MIN 0.0 0.0 0.0
DOMAIN_MAX 1.0 1.0 1.0
0.000000 0.000000 0.000000
0.091429 0.000000 0.000000
0.262857 0.000000 0.000000
0.434286 0.000000 0.000000
0.605714 0.000000 0.000000
0.777143 0.000000 0.000000
0.948571 0.000000 0.000000
1.000000 0.000000 0.000000
0.000000 0.091429 0.000000
0.091429 0.091429 0.000000
0.262857 0.091429 0.000000
0.434286 0.091429 0.000000
0.605714 0.091429 0.000000
0.777143 0.091429 0.000000
0.948571 0.091429 0.000000
1.000000 0.091429 0.000000
0.000000 0.262857 0.000000
0.091429 0.262857 0.000000
0.262857 0.262857 0.000000
0.434286 0.262857 0.000000
0.605714 0.262857 0.000000
0.777143 0.262857 0.000000
0.948571 0.262857 0.000000
1.000000 0.262857 0.000000
0.000000 0.434286 0.000000
0.091429 0.434286 0.000000
0.262857 0.434286 0.000000
0.434286 0.434286 0.000000
0.605714 0.434286 0.000000
0.777143 0.434286 0.000000
0.948571 0.434286 0.000000
1.000000 0.434286 0.000000
0.000000 0.605714 0.000000
0.091429 0.605714 0.000000
0.262857 0.605714 0.000000
0.434286 0.605714 0.000000
0.605714 0.605714 0.000000
0.777143 0.605714 0.000000
0.948571 0.605714 0.000000
1.000000 0.605714 0.000000
0.000000 0.777143 0.000000
0.091429 0.777143 0.000000
0.262857 0.777143 0.000000
0.434286 0.777143 0.000000
0.605714 0.777143 0.000000
0.777143 0.777143 0.000000
0.948571 0.777143 0.000000
1.000000 0.777143 0.000000
0.000000 0.948571 0.000000
0.091429 0.948571 0.000000
0.262857 0.948571 0.000000
0.434286 0.948571 0.000000
0.605714 0.948571 0.000000
0.777143 0.948571 0.000000
0.948571 0.948571 0.000000
1.000000 0.948571 0.000000
0.000000 1.000000 0.000000
0.091429 1.000000 0.000000
0.262857 1.000000 0.000000
0.434286 1.000000 0.000000
0.605714 1.000000 0.000000
0.777143 1.000000 0.000000
0.948571 1.000000 0.000000
1.000000 1.000000 0.000000
0.000000 0.000000 0.091429
0.091429 0.000000 0.091429
0.262857 0.000000 0.091429
0.434286 0.000000 0.091429
0.605714 0.000000 0.091429
0.777143 0.000000 0.091429
0.948571 0.000000 0.091429
1.000000 0.000000 0.091429
0.000000 0.091429 0.091429
0.091429 0.091429 0.091429
0.262857 0.091429 0.091429
0.434286 0.091429 0.091429
0.605714 0.091429 0.091429
0.777143 0.091429 0.091429
0.948571 0.091429 0.091429
1.000000 0.091429 0.091429
0.000000 0.262857 0.091429
0.091429 0.262857 0.091429
0.262857 0.262857 0.091429
0.434286 0.262857 0.091429
0.605714 0.262857 0.091429
0.777143 0.262857 0.091429
0.948571 0.262857 0.091429
1.000000 0.262857 0.091429
0.000000 0.434286 0.091429
0.091429 0.434286 0.091429
0.262857 0.434286 0.091429
0.434286 0.434286 0.091429
0.605714 0.434286 0.091429
0.777143 0.434286 0.091429
0.948571 0.434286 0.091429
1.000000 0.434286 0.091429
0.000000 0.605714 0.091429
0.091429 0.605714 0.091429
0.262857 0.605714 0.091429
0.434286 0.605714 0.091429
0.605714 0.605714 0.091429
0.777143 0.605714 0.091429
0.948571 0.605714 0.091429
1.000000 0.605714 0.091429
0.000000 0.777143 0.091429
0.091429 0.777143 0.091429
0.262857 0.777143 0.091429
0.434286 0.777143 0.091429
0.605714 0.777143 0.091429
0.777143 0.777143 0.091429
0.948571 0.777143 0.091429
1.000000 0.777143 0.091429
0.000000 0.948571 0.091429
0.091429 0.948571 0.091429
0.262857 0.948571 0.091429
0.434286 0.948571 0.091429
0.605714 0.948571 0.091429
0.777143 0.948571 0.091429
0.948571 0.948571 0.091429
1.000000 0.948571 0.091429
0.000000 1.000000 0.091429
0.091429 1.000000 0.091429
0.262857 1.000000 0.091429
0.434286 1.000000 0.091429
0.605714 1.000000 0.091429
0.777143 1.000000 0.091429
0.948571 1.000000 0.091429
1.000000 1.000000 0.091429
0.000000 0.000000 0.262857
0.091429 0.000000 0.262857
0.262857 0.000000 0.262857
0.434286 0.000000 0.262857
0.605714 0.000000 0.262857
0.777143 0.000000 0.262857
0.948571 0.000000 0.262857
1.000000 0.000000 0.262857
0.000000 0.091429 0.262857
0.091429 0.091429 0.262857
0.262857 0.091429 0.262857
0.434286 0.091429 0.262857
0.605714 0.091429 0.262857
0.777143 0.091429 0.262857
0.948571 0.091429 0.262857
1.000000 0.091429 0.262857
0.000000 0.262857 0.262857
0.091429 0.262857 0.262857
0.262857 0.262857 0.262857
0.434286 0.262857 0.262857
0.605714 0.262857 0.262857
0.777143 0.262857 0.262857
0.948571 0.262857 0.262857
1.000000 0.262857 0.262857
0.000000 0.434286 0.262857
0.091429 0.434286 0.262857
0.262857 0.434286 0.262857
0.434286 0.434286 0.262857
0.605714 0.434286 0.262857
0.777143 0.434286 0.262857
0.948571 0.434286 0.262857
1.000000 0.434286 0.262857
0.000000 0.605714 0.262857
0.091429 0.605714 0.262857
0.262857 0.605714 0.262857
0.434286 0.605714 0.262857
0.605714 0.605714 0.262857
0.777143 0.605714 0.262857
0.948571 0.605714 0.262857
1.000000 0.605714 0.262857
0.000000 0.777143 0.262857
0.091429 0.777143 0.262857
0.262857 0.777143 0.262857
0.434286 0.777143 0.262857
0.605714 0.777143 0.262857
0.777143 0.777143 0.262857
0.948571 0.777143 0.262857
1.000000 0.777143 0.262857
0.000000 0.948571 0.262857
0.091429 0.948571 0.262857
0.262857 0.948571 0.262857
0.434286 0.948571 0.262857
0.605714 0.948571 0.262857
0.777143 0.948571 0.262857
0.948571 0.948571 0.262857
1.000000 0.948571 0.262857
0.000000 1.000000 0.262857
0.091429 1.000000 0.262857
0.262857 1.000000 0.262857
0.434286 1.000000 0.262857
0.605714 1.000000 0.262857
0.777143 1.000000 0.262857
0.948571 1.000000 0.262857
1.000000 1.000000 0.262857
0.000000 0.000000 0.434286
0.091429 0.000000 0.434286
0.262857 0.000000 0.434286
0.434286 0.000000 0.434286
0.605714 0.000000 0.434286
0.777143 0.000000 0.434286
0.948571 0.000000 0.434286
1.000000 0.000000 0.434286
0.000000 0.091429 0.434286
0.091429 0.091429 0.434286
0.262857 0.091429 0.434286
0.434286 0.091429 0.434286
0.605714 0.091429 0.434286
0.777143 0.091429 0.434286
0.948571 0.091429 0.434286
1.000000 0.091429 0.434286
0.000000 0.262857 0.434286
0.091429 0.262857 0.434286
0.262857 0.262857 0.434286
0.434286 0.262857 0.434286
0.605714 0.262857 0.434286
0.777143 0.262857 0.434286
0.948571 0.262857 0.434286
1.000000 0.262857 0.434286
0.000000 0.434286 0.434286
0.091429 0.434286 0.434286
0.262857 0.434286 0.434286
0.434286 0.434286 0.434286
0.605714 0.434286 0.434286
0.777143 0.434286 0.434286
0.948571 0.434286 0.434286
1.000000 0.434286 0.434286
0.000000 0.605714 0.434286
0.091429 0.605714 0.434286
0.262857 0.605714 0.434286
0.434286 0.605714 0.434286
0.605714 0.605714 0.434286
0.777143 0.605714 0.434286
0.948571 0.605714 0.434286
1.000000 0.605714 0.434286
0.000000 0.777143 0.434286
0.091429 0.777143 0.434286
0.262857 0.777143 0.434286
0.434286 0.777143 0.434286
0.605714 0.777143 0.434286
0.777143 0.777143 0.434286
0.948571 0.777143 0.434286
1.000000 0.777143 0.434286
0.000000 0.948571 0.434286
0.091429 0.948571 0.434286
0.262857 0.948571 0.434286
0.434286 0.948571 0.434286
0.605714 0.948571 0.434286
0.777143 0.948571 0.434286
0.948571 0.948571 0.434286
1.000000 0.948571 0.434286
0.000000 1.000000 0.434286
0.091429 1.000000 0.434286
0.262857 1.000000 0.434286
0.434286 1.000000 0.434286
0.605714 1.000000 0.434286
0.777143 1.000000 0.434286
0.948571 1.000000 0.434286
1.000000 1.000000 0.434286
0.000000 0.000000 0.605714
0.091429 0.000000 0.605714
0.262857 0.000000 0.605714
0.434286 0.000000 0.605714
0.605714 0.000000 0.605714
0.777143 0.000000 0.605714
0.948571 0.000000 0.605714
1.000000 0.000000 0.605714
0.000000 0.091429 0.605714
0.091429 0.091429 0.605714
0.262857 0.091429 0.605714
0.434286 0.091429 0.605714
0.605714 0.091429 0.605714
0.777143 0.091429 0.605714
0.948571 0.091429 0.605714
1.000000 0.091429 0.605714
0.000000 0.262857 0.605714
0.091429 0.262857 0.605714
0.262857 0.262857 0.605714
0.434286 0.262857 0.605714
0.605714 0.262857 0.605714
0.777143 0.262857 0.605714
0.948571 0.262857 0.605714
1.000000 0.262857 0.605714
0.000000 0.434286 0.605714
0.091429 0.434286 0.605714
0.262857 0.434286 0.605714
0.434286 0.434286 0.605714
0.605714 0.434286 0.605714
0.777143 0.434286 0.605714
0.948571 0.434286 0.605714
1.000000 0.434286 0.605714
0.000000 0.605714 0.605714
0.091429 0.605714 0.605714
0.262857 0.605714 0.605714
0.434286 0.605714 0.605714
0.605714 0.605714 0.605714
0.777143 0.605714 0.605714
0.948571 0.605714 0.605714
1.000000 0.605714 0.605714
0.000000 0.777143 0.605714
0.091429 0.777143 0.605714
0.262857 0.777143 0.605714
0.434286 0.777143 0.605714
0.605714 0.777143 0.605714
0.777143 0.777143 0.605714
0.948571 0.777143 0.605714
1.000000 0.777143 0.605714
0.000000 0.948571 0.605714
0.091429 0.948571 0.605714
0.262857 0.948571 0.605714
0.434286 0.948571 0.605714
0.605714 0.948571 0.605714
0.777143 0.948571 0.605714
0.948571 0.948571 0.605714
1.000000 0.948571 0.605714
0.000000 1.000000 0.605714
0.091429 1.000000 0.605714
0.262857 1.000000 0.605714
0.434286 1.000000 0.605714
0.605714 1.000000 0.605714
0.777143 1.000000 0.605714
0.948571 1.000000 0.605714
1.000000 1.000000 0.605714
0.000000 0.000000 0.777143
0.091429 0.000000 0.777143
0.262857 0.000000 0.777143
0.434286 0.000000 0.777143
0.605714 0.000000 0.777143
0.777143 0.000000 0.777143
0.948571 0.000000 0.777143
1.000000 0.000000 0.777143
0.000000 0.091429 0.777143
0.091429 0.091429 0.777143
0.262857 0.091429 0.777143
0.434286 0.091429 0.777143
0.605714 0.091429 0.777143
0.777143 0.091429 0.777143
0.948571 0.091429 0.777143
1.000000 0.091429 0.777143
0.000000 0.262857 0.777143
0.091429 0.262857 0.777143
0.262857 0.262857 0.777143
0.434286 0.262857 0.777143
0.605714 0.262857 0.777143
0.777143 0.262857 0.777143
0.948571 0.262857 0.777143
1.000000 0.262857 0.777143
0.000000 0.434286 0.777143
0.091429 0.434286 0.777143
0.262857 0.434286 0.777143
0.434286 0.434286 0.777143
0.605714 0.434286 0.777143
0.777143 0.434286 0.777143
0.948571 0.434286 0.777143
1.000000 0.434286 0.777143
0.000000 0.605714 0.777143
0.091429 0.605714 0.777143
0.262857 0.605714 0.777143
0.434286 0.605714 0.777143
0.605714 0.605714 0.777143
0.777143 0.605714 0.777143
0.948571 0.605714 0.777143
1.000000 0.605714 0.777143
0.000000 0.777143 0.777143
0.091429 0.777143 0.777143
0.262857 0.777143 0.777143
0.434286 0.777143 0.777143
0.605714 0.777143 0.777143
0.777143 0.777143 0.777143
0.948571 0.777143 0.777143
1.000000 0.777143 0.777143
0.000000 0.948571 0.777143
0.091429 0.948571 0.777143
0.262857 0.948571 0.777143
0.434286 0.948571 0.777143
0.605714 0.948571 0.777143
0.777143 0.948571 0.777143
0.948571 0.948571 0.777143
1.000000 0.948571 0.777143
0.000000 1.000000 0.777143
0.091429 1.000000 0.777143
0.262857 1.000000 0.777143
0.434286 1.000000 0.777143
0.605714 1.000000 0.777143
0.777143 1.000000 0.777143
0.948571 1.000000 0.777143
1.000000 1.000000 0.777143
0.000000 0.000000 0.948571
0.091429 0.000000 0.948571
0.262857 0.000000 0.948571
0.434286 0.000000 0.948571
0.605714 0.000000 0.948571
0.777143 0.000000 0.948571
0.948571 0.000000 0.948571
1.000000 0.000000 0.948571
0.000000 0.091429 0.948571
0.091429 0.091429 0.948571
0.262857 0.091429 0.948571
0.434286 0.091429 0.948571
0.605714 0.091429 0.948571
0.777143 0.091429 0.948571
0.948571 0.091429 0.948571
1.000000 0.091429 0.948571
0.000000 0.262857 0.948571
0.091429 0.262857 0.948571
0.262857 0.262857 0.948571
0.434286 0.262857 0.948571
0.605714 0.262857 0.948571
0.777143 0.262857 0.948571
0.948571 0.262857 0.948571
1.000000 0.262857 0.948571
0.000000 0.434286 0.948571
0.091429 0.434286 0.948571
0.262857 0.434286 0.948571
0.434286 0.434286 0.948571
0.605714 0.434286 0.948571
0.777143 0.434286 0.948571
0.948571 0.434286 0.948571
1.000000 0.434286 0.948571
0.000000 0.605714 0.948571
0.091429 0.605714 0.948571
0.262857 0.605714 0.948571
0.434286 0.605714 0.948571
0.605714 0.605714 0.948571
0.777143 0.605714 0.948571
0.948571 0.605714 0.948571
1.000000 0.605714 0.948571
0.000000 0.777143 0.948571
0.091429 0.777143 0.948571
0.262857 0.777143 0.948571
0.434286 0.777143 0.948571
0.605714 0.777143 0.948571
0.777143 0.777143 0.948571
0.948571 0.777143 0.948571
1.000000 0.777143 0.948571
0.000000 0.948571 0.948571
0.091429 0.948571 0.948571
0.262857 0.948571 0.948571
0.434286 0.948571 0.948571
0.605714 0.948571 0.948571
0.777143 0.948571 0.948571
0.948571 0.948571 0.948571
1.000000 0.948571 0.948571
0.000000 1.000000 0.948571
0.091429 1.000000 0.948571
0.262857 1.000000 0.948571
0.434286 1.000000 0.948571
0.605714 1.000000 0.948571
0.777143 1.000000 0.948571
0.948571 1.000000 0.948571
1.000000 1.000000 0.948571
0.000000 0.000000 1.000000
0.091429 0.000000 1.000000
0.262857 0.000000 1.000000
0.434286 0.000000 1.000000
0.605714 0.000000 1.000000
0.777143 0.000000 1.000000
0.948571 0.000000 1.000000
1.000000 0.000000 1.000000
0.000000 0.091429 1.000000
0.091429 0.091429 1.000000
0.262857 0.091429 1.000000
0.434286 0.091429 1.000000
0.605714 0.091429 1.000000
0.777143 0.091429 1.000000
0.948571 0.091429 1.000000
1.000000 0.091429 1.000000
0.000000 0.262857 1.000000
0.091429 0.262857 1.000000
0.262857 0.262857 1.000000
0.434286 0.262857 1.000000
0.605714 0.262857 1.000000
0.777143 0.262857 1.000000
0.948571 0.262857 1.000000
1.000000 0.262857 1.000000
0.000000 0.434286 1.000000
0.091429 0.434286 1.000000
0.262857 0.434286 1.000000
0.434286 0.434286 1.000000
0.605714 0.434286 1.000000
0.777143 0.434286 1.000000
0.948571 0.434286 1.000000
1.000000 0.434286 1.000000
0.000000 0.605714 1.000000
0.091429 0.605714 1.000000
0.262857 0.605714 1.000000
0.434286 0.605714 1.000000
0.605714 0.605714 1.000000
0.777143 0.605714 1.000000
0.948571 0.605714 1.000000
1.000000 0.605714 1.000000
0.000000 0.777143 1.000000
0.091429 0.777143 1.000000
0.262857 0.777143 1.000000
0.434286 0.777143 1.000000
0.605714 0.777143 1.000000
0.777143 0.777143 1.000000
0.948571 0.777143 1.000000
1.000000 0.777143 1.000000
0.000000 0.948571 1.000000
0.091429 0.948571 1.000000
0.262857 0.948571 1.000000
0.434286 0.948571 1.000000
0.605714 0.948571 1.000000
0.777143 0.948571 1.000000
0.948571 0.948571 1.000000
1.000000 0.948571 1.000000
0.000000 1.000000 1.000000
0.091429 1.000000 1.000000
0.262857 1.000000 1.000000
0.434286 1.000000 1.000000
0.605714 1.000000 1.000000
0.777143 1.000000 1.000000
0.948571 1.000000 1.000000
1.000000 1.000000 1.000000
