assets/luts/high_contrast.cube
TITLE "高对比"
LUT_3D_SIZE 8
DOMAIN_MIN 0.0 0.0 0.0
DOMAIN_MAX 1.0 1.0 1.0
0.000000 0.000000 0.000000
0.035714 0.000000 0.000000
0.221429 0.000000 0.000000
0.407143 0.000000 0.000000
0.592857 0.000000 0.000000
0.778571 0.000000 0.000000
0.964286 0.000000 0.000000
1.000000 0.000000 0.000000
0.000000 0.035714 0.000000
0.035714 0.035714 0.000000
0.221429 0.035714 0.000000
0.407143 0.035714 0.000000
0.592857 0.035714 0.000000
0.778571 0.035714 0.000000
0.964286 0.035714 0.000000
1.000000 0.035714 0.000000
0.000000 0.221429 0.000000
0.035714 0.221429 0.000000
0.221429 0.221429 0.000000
0.407143 0.221429 0.000000
0.592857 0.221429 0.000000
0.778571 0.221429 0.000000
0.964286 0.221429 0.000000
1.000000 0.221429 0.000000
0.000000 0.407143 0.000000
0.035714 0.407143 0.000000
0.221429 0.407143 0.000000
0.407143 0.407143 0.000000
0.592857 0.407143 0.000000
0.778571 0.407143 0.000000
0.964286 0.407143 0.000000
1.000000 0.407143 0.000000
0.000000 0.592857 0.000000
0.035714 0.592857 0.000000
0.221429 0.592857 0.000000
0.407143 0.592857 0.000000
0.592857 0.592857 0.000000
0.778571 0.592857 0.000000
0.964286 0.592857 0.000000
1.000000 0.592857 0.000000
0.000000 0.778571 0.000000
0.035714 0.778571 0.000000
0.221429 0.778571 0.000000
0.407143 0.778571 0.000000
0.592857 0.778571 0.000000
0.778571 0.778571 0.000000
0.964286 0.778571 0.000000
1.000000 0.778571 0.000000
0.000000 0.964286 0.000000
0.035714 0.964286 0.000000
0.221429 0.964286 0.000000
0.407143 0.964286 0.000000
0.592857 0.964286 0.000000
0.778571 0.964286 0.000000
0.964286 0.964286 0.000000
1.000000 0.964286 0.000000
0.000000 1.000000 0.000000
0.035714 1.000000 0.000000
0.221429 1.000000 0.000000
0.407143 1.000000 0.000000
0.592857 1.000000 0.000000
0.778571 1.000000 0.000000
0.964286 1.000000 0.000000
1.000000 1.000000 0.000000
0.000000 0.000000 0.035714
0.035714 0.000000 0.035714
0.221429 0.000000 0.035714
0.407143 0.000000 0.035714
0.592857 0.000000 0.035714
0.778571 0.000000 0.035714
0.964286 0.000000 0.035714
1.000000 0.000000 0.035714
0.000000 0.035714 0.035714
0.035714 0.035714 0.035714
0.221429 0.035714 0.035714
0.407143 0.035714 0.035714
0.592857 0.035714 0.035714
0.778571 0.035714 0.035714
0.964286 0.035714 0.035714
1.000000 0.035714 0.035714
0.000000 0.221429 0.035714
0.035714 0.221429 0.035714
0.221429 0.221429 0.035714
0.407143 0.221429 0.035714
0.592857 0.221429 0.035714
0.778571 0.221429 0.035714
0.964286 0.221429 0.035714
1.000000 0.221429 0.035714
0.000000 0.407143 0.035714
0.035714 0.407143 0.035714
0.221429 0.407143 0.035714
0.407143 0.407143 0.035714
0.592857 0.407143 0.035714
0.778571 0.407143 0.035714
0.964286 0.407143 0.035714
1.000000 0.407143 0.035714
0.000000 0.592857 0.035714
0.035714 0.592857 0.035714
0.221429 0.592857 0.035714
0.407143 0.592857 0.035714
0.592857 0.592857 0.035714
0.778571 0.592857 0.035714
0.964286 0.592857 0.035714
1.000000 0.592857 0.035714
0.000000 0.778571 0.035714
0.035714 0.778571 0.035714
0.221429 0.778571 0.035714
0.407143 0.778571 0.035714
0.592857 0.778571 0.035714
0.778571 0.778571 0.035714
0.964286 0.778571 0.035714
1.000000 0.778571 0.035714
0.000000 0.964286 0.035714
0.035714 0.964286 0.035714
0.221429 0.964286 0.035714
0.407143 0.964286 0.035714
0.592857 0.964286 0.035714
0.778571 0.964286 0.035714
0.964286 0.964286 0.035714
1.000000 0.964286 0.035714
0.000000 1.000000 0.035714
0.035714 1.000000 0.035714
0.221429 1.000000 0.035714
0.407143 1.000000 0.035714
0.592857 1.000000 0.035714
0.778571 1.000000 0.035714
0.964286 1.000000 0.035714
1.000000 1.000000 0.035714
0.000000 0.000000 0.221429
0.035714 0.000000 0.221429
0.221429 0.000000 0.221429
0.407143 0.000000 0.221429
0.592857 0.000000 0.221429
0.778571 0.000000 0.221429
0.964286 0.000000 0.221429
1.000000 0.000000 0.221429
0.000000 0.035714 0.221429
0.035714 0.035714 0.221429
0.221429 0.035714 0.221429
0.407143 0.035714 0.221429
0.592857 0.035714 0.221429
0.778571 0.035714 0.221429
0.964286 0.035714 0.221429
1.000000 0.035714 0.221429
0.000000 0.221429 0.221429
0.035714 0.221429 0.221429
0.221429 0.221429 0.221429
0.407143 0.221429 0.221429
0.592857 0.221429 0.221429
0.778571 0.221429 0.221429
0.964286 0.221429 0.221429
1.000000 0.221429 0.221429
0.000000 0.407143 0.221429
0.035714 0.407143 0.221429
0.221429 0.407143 0.221429
0.407143 0.407143 0.221429
0.592857 0.407143 0.221429
0.778571 0.407143 0.221429
0.964286 0.407143 0.221429
1.000000 0.407143 0.221429
0.000000 0.592857 0.221429
0.035714 0.592857 0.221429
0.221429 0.592857 0.221429
0.407143 0.592857 0.221429
0.592857 0.592857 0.221429
0.778571 0.592857 0.221429
0.964286 0.592857 0.221429
1.000000 0.592857 0.221429
0.000000 0.778571 0.221429
0.035714 0.778571 0.221429
0.221429 0.778571 0.221429
0.407143 0.778571 0.221429
0.592857 0.778571 0.221429
0.778571 0.778571 0.221429
0.964286 0.778571 0.221429
1.000000 0.778571 0.221429
0.000000 0.964286 0.221429
0.035714 0.964286 0.221429
0.221429 0.964286 0.221429
0.407143 0.964286 0.221429
0.592857 0.964286 0.221429
0.778571 0.964286 0.221429
0.964286 0.964286 0.221429
1.000000 0.964286 0.221429
0.000000 1.000000 0.221429
0.035714 1.000000 0.221429
0.221429 1.000000 0.221429
0.407143 1.000000 0.221429
0.592857 1.000000 0.221429
0.778571 1.000000 0.221429
0.964286 1.000000 0.221429
1.000000 1.000000 0.221429
0.000000 0.000000 0.407143
0.035714 0.000000 0.407143
0.221429 0.000000 0.407143
0.407143 0.000000 0.407143
0.592857 0.000000 0.407143
0.778571 0.000000 0.407143
0.964286 0.000000 0.407143
1.000000 0.000000 0.407143
0.000000 0.035714 0.407143
0.035714 0.035714 0.407143
0.221429 0.035714 0.407143
0.407143 0.035714 0.407143
0.592857 0.035714 0.407143
0.778571 0.035714 0.407143
0.964286 0.035714 0.407143
1.000000 0.035714 0.407143
0.000000 0.221429 0.407143
0.035714 0.221429 0.407143
0.221429 0.221429 0.407143
0.407143 0.221429 0.407143
0.592857 0.221429 0.407143
0.778571 0.221429 0.407143
0.964286 0.221429 0.407143
1.000000 0.221429 0.407143
0.000000 0.407143 0.407143
0.035714 0.407143 0.407143
0.221429 0.407143 0.407143
0.407143 0.407143 0.407143
0.592857 0.407143 0.407143
0.778571 0.407143 0.407143
0.964286 0.407143 0.407143
1.000000 0.407143 0.407143
0.000000 0.592857 0.407143
0.035714 0.592857 0.407143
0.221429 0.592857 0.407143
0.407143 0.592857 0.407143
0.592857 0.592857 0.407143
0.778571 0.592857 0.407143
0.964286 0.592857 0.407143
1.000000 0.592857 0.407143
0.000000 0.778571 0.407143
0.035714 0.778571 0.407143
0.221429 0.778571 0.407143
0.407143 0.778571 0.407143
0.592857 0.778571 0.407143
0.778571 0.778571 0.407143
0.964286 0.778571 0.407143
1.000000 0.778571 0.407143
0.000000 0.964286 0.407143
0.035714 0.964286 0.407143
0.221429 0.964286 0.407143
0.407143 0.964286 0.407143
0.592857 0.964286 0.407143
0.778571 0.964286 0.407143
0.964286 0.964286 0.407143
1.000000 0.964286 0.407143
0.000000 1.000000 0.407143
0.035714 1.000000 0.407143
0.221429 1.000000 0.407143
0.407143 1.000000 0.407143
0.592857 1.000000 0.407143
0.778571 1.000000 0.407143
0.964286 1.000000 0.407143
1.000000 1.000000 0.407143
0.000000 0.000000 0.592857
0.035714 0.000000 0.592857
0.221429 0.000000 0.592857
0.407143 0.000000 0.592857
0.592857 0.000000 0.592857
0.778571 0.000000 0.592857
0.964286 0.000000 0.592857
1.000000 0.000000 0.592857
0.000000 0.035714 0.592857
0.035714 0.035714 0.592857
0.221429 0.035714 0.592857
0.407143 0.035714 0.592857
0.592857 0.035714 0.592857
0.778571 0.035714 0.592857
0.964286 0.035714 0.592857
1.000000 0.035714 0.592857
0.000000 0.221429 0.592857
0.035714 0.221429 0.592857
0.221429 0.221429 0.592857
0.407143 0.221429 0.592857
0.592857 0.221429 0.592857
0.778571 0.221429 0.592857
0.964286 0.221429 0.592857
1.000000 0.221429 0.592857
0.000000 0.407143 0.592857
0.035714 0.407143 0.592857
0.221429 0.407143 0.592857
0.407143 0.407143 0.592857
0.592857 0.407143 0.592857
0.778571 0.407143 0.592857
0.964286 0.407143 0.592857
1.000000 0.407143 0.592857
0.000000 0.592857 0.592857
0.035714 0.592857 0.592857
0.221429 0.592857 0.592857
0.407143 0.592857 0.592857
0.592857 0.592857 0.592857
0.778571 0.592857 0.592857
0.964286 0.592857 0.592857
1.000000 0.592857 0.592857
0.000000 0.778571 0.592857
0.035714 0.778571 0.592857
0.221429 0.778571 0.592857
0.407143 0.778571 0.592857
0.592857 0.778571 0.592857
0.778571 0.778571 0.592857
0.964286 0.778571 0.592857
1.000000 0.778571 0.592857
0.000000 0.964286 0.592857
0.035714 0.964286 0.592857
0.221429 0.964286 0.592857
0.407143 0.964286 0.592857
0.592857 0.964286 0.592857
0.778571 0.964286 0.592857
0.964286 0.964286 0.592857
1.000000 0.964286 0.592857
0.000000 1.000000 0.592857
0.035714 1.000000 0.592857
0.221429 1.000000 0.592857
0.407143 1.000000 0.592857
0.592857 1.000000 0.592857
0.778571 1.000000 0.592857
0.964286 1.000000 0.592857
1.000000 1.000000 0.592857
0.000000 0.000000 0.778571
0.035714 0.000000 0.778571
0.221429 0.000000 0.778571
0.407143 0.000000 0.778571
0.592857 0.000000 0.778571
0.778571 0.000000 0.778571
0.964286 0.000000 0.778571
1.000000 0.000000 0.778571
0.000000 0.035714 0.778571
0.035714 0.035714 0.778571
0.221429 0.035714 0.778571
0.407143 0.035714 0.778571
0.592857 0.035714 0.778571
0.778571 0.035714 0.778571
0.964286 0.035714 0.778571
1.000000 0.035714 0.778571
0.000000 0.221429 0.778571
0.035714 0.221429 0.778571
0.221429 0.221429 0.778571
0.407143 0.221429 0.778571
0.592857 0.221429 0.778571
0.778571 0.221429 0.778571
0.964286 0.221429 0.778571
1.000000 0.221429 0.778571
0.000000 0.407143 0.778571
0.035714 0.407143 0.778571
0.221429 0.407143 0.778571
0.407143 0.407143 0.778571
0.592857 0.407143 0.778571
0.778571 0.407143 0.778571
0.964286 0.407143 0.778571
1.000000 0.407143 0.778571
0.000000 0.592857 0.778571
0.035714 0.592857 0.778571
0.221429 0.592857 0.778571
0.407143 0.592857 0.778571
0.592857 0.592857 0.778571
0.778571 0.592857 0.778571
0.964286 0.592857 0.778571
1.000000 0.592857 0.778571
0.000000 0.778571 0.778571
0.035714 0.778571 0.778571
0.221429 0.778571 0.778571
0.407143 0.778571 0.778571
0.592857 0.778571 0.778571
0.778571 0.778571 0.778571
0.964286 0.778571 0.778571
1.000000 0.778571 0.778571
0.000000 0.964286 0.778571
0.035714 0.964286 0.778571
0.221429 0.964286 0.778571
0.407143 0.964286 0.778571
0.592857 0.964286 0.778571
0.778571 0.964286 0.778571
0.964286 0.964286 0.778571
1.000000 0.964286 0.778571
0.000000 1.000000 0.778571
0.035714 1.000000 0.778571
0.221429 1.000000 0.778571
0.407143 1.000000 0.778571
0.592857 1.000000 0.778571
0.778571 1.000000 0.778571
0.964286 1.000000 0.778571
1.000000 1.000000 0.778571
0.000000 0.000000 0.964286
0.035714 0.000000 0.964286
0.221429 0.000000 0.964286
0.407143 0.000000 0.964286
0.592857 0.000000 0.964286
0.778571 0.000000 0.964286
0.964286 0.000000 0.964286
1.000000 0.000000 0.964286
0.000000 0.035714 0.964286
0.035714 0.035714 0.964286
0.221429 0.035714 0.964286
0.407143 0.035714 0.964286
0.592857 0.035714 0.964286
0.778571 0.035714 0.964286
0.964286 0.035714 0.964286
1.000000 0.035714 0.964286
0.000000 0.221429 0.964286
0.035714 0.221429 0.964286
0.221429 0.221429 0.964286
0.407143 0.221429 0.964286
0.592857 0.221429 0.964286
0.778571 0.221429 0.964286
0.964286 0.221429 0.964286
1.000000 0.221429 0.964286
0.000000 0.407143 0.964286
0.035714 0.407143 0.964286
0.221429 0.407143 0.964286
0.407143 0.407143 0.964286
0.592857 0.407143 0.964286
0.778571 0.407143 0.964286
0.964286 0.407143 0.964286
1.000000 0.407143 0.964286
0.000000 0.592857 0.964286
0.035714 0.592857 0.964286
0.221429 0.592857 0.964286
0.407143 0.592857 0.964286
0.592857 0.592857 0.964286
0.778571 0.592857 0.964286
0.964286 0.592857 0.964286
1.000000 0.592857 0.964286
0.000000 0.778571 0.964286
0.035714 0.778571 0.964286
0.221429 0.778571 0.964286
0.407143 0.778571 0.964286
0.592857 0.778571 0.964286
0.778571 0.778571 0.964286
0.964286 0.778571 0.964286
1.000000 0.778571 0.964286
0.000000 0.964286 0.964286
0.035714 0.964286 0.964286
0.221429 0.964286 0.964286
0.407143 0.964286 0.964286
0.592857 0.964286 0.964286
0.778571 0.964286 0.964286
0.964286 0.964286 0.964286
1.000000 0.964286 0.964286
0.000000 1.000000 0.964286
0.035714 1.000000 0.964286
0.221429 1.000000 0.964286
0.407143 1.000000 0.964286
0.592857 1.000000 0.964286
0.778571 1.000000 0.964286
0.964286 1.000000 0.964286
1.000000 1.000000 0.964286
0.000000 0.000000 1.000000
0.035714 0.000000 1.000000
0.221429 0.000000 1.000000
0.407143 0.000000 1.000000
0.592857 0.000000 1.000000
0.778571 0.000000 1.000000
0.964286 0.000000 1.000000
1.000000 0.000000 1.000000
0.000000 0.035714 1.000000
0.035714 0.035714 1.000000
0.221429 0.035714 1.000000
0.407143 0.035714 1.000000
0.592857 0.035714 1.000000
0.778571 0.035714 1.000000
0.964286 0.035714 1.000000
1.000000 0.035714 1.000000
0.000000 0.221429 1.000000
0.035714 0.221429 1.000000
0.221429 0.221429 1.000000
0.407143 0.221429 1.000000
0.592857 0.221429 1.000000
0.778571 0.221429 1.000000
0.964286 0.221429 1.000000
1.000000 0.221429 1.000000
0.000000 0.407143 1.000000
0.035714 0.407143 1.000000
0.221429 0.407143 1.000000
0.407143 0.407143 1.000000
0.592857 0.407143 1.000000
0.778571 0.407143 1.000000
0.964286 0.407143 1.000000
1.000000 0.407143 1.000000
0.000000 0.592857 1.000000
0.035714 0.592857 1.000000
0.221429 0.592857 1.000000
0.407143 0.592857 1.000000
0.592857 0.592857 1.000000
0.778571 0.592857 1.000000
0.964286 0.592857 1.000000
1.000000 0.592857 1.000000
0.000000 0.778571 1.000000
0.035714 0.778571 1.000000
0.221429 0.778571 1.000000
0.407143 0.778571 1.000000
0.592857 0.778571 1.000000
0.778571 0.778571 1.000000
0.964286 0.778571 1.000000
1.000000 0.778571 1.000000
0.000000 0.964286 1.000000
0.035714 0.964286 1.000000
0.221429 0.964286 1.000000
0.407143 0.964286 1.000000
0.592857 0.964286 1.000000
0.778571 0.964286 1.000000
0.964286 0.964286 1.000000
1.000000 0.964286 1.000000
0.000000 1.000000 1.000000
0.035714 1.000000 1.000000
0.221429 1.000000 1.000000
0.407143 1.000000 1.000000
0.592857 1.000000 1.000000
0.778571 1.000000 1.000000
0.964286 1.000000 1.000000
1.000000 1.000000 1.000000
