assets/luts/landscape.cube
TITLE "风景"
LUT_3D_SIZE 8
DOMAIN_MIN 0.0 0.0 0.0
DOMAIN_MAX 1.0 1.0 1.0
0.000000 0.000000 0.000000
0.114654 0.000000 0.000000
0.282812 0.000000 0.000000
0.450971 0.000000 0.000000
0.619129 0.000000 0.000000
0.787288 0.000000 0.000000
0.955446 0.000000 0.000000
1.000000 0.000000 0.000000
0.000000 0.111568 0.000000
0.108364 0.108364 0.000000
0.276523 0.103666 0.000000
0.444681 0.098967 0.000000
0.612840 0.094269 0.000000
0.780999 0.089570 0.000000
0.949157 0.084871 0.000000
1.000000 0.081668 0.000000
0.000000 0.275201 0.000000
0.099140 0.271997 0.000000
0.267299 0.267299 0.000000
0.435457 0.262600 0.000000
0.603616 0.257901 0.000000
0.771774 0.253203 0.000000
0.939933 0.248504 0.000000
1.000000 0.245301 0.000000
0.000000 0.438834 0.000000
0.089916 0.435630 0.000000
0.258074 0.430931 0.000000
0.426233 0.426233 0.000000
0.594391 0.421534 0.000000
0.762550 0.416836 0.000000
0.930709 0.412137 0.000000
1.000000 0.408934 0.000000
0.000000 0.602466 0.000000
0.080691 0.599263 0.000000
0.248850 0.594564 0.000000
0.417009 0.589866 0.000000
0.585167 0.585167 0.000000
0.753326 0.580469 0.000000
0.921484 0.575770 0.000000
1.000000 0.572566 0.000000
0.000000 0.766099 0.000000
0.071467 0.762896 0.000000
0.239626 0.758197 0.000000
0.407784 0.753499 0.000000
0.575943 0.748800 0.000000
0.744101 0.744101 0.000000
0.912260 0.739403 0.000000
1.000000 0.736199 0.000000
0.000000 0.929732 0.000000
0.062243 0.926529 0.000000
0.230401 0.921830 0.000000
0.398560 0.917131 0.000000
0.566719 0.912433 0.000000
0.734877 0.907734 0.000000
0.903036 0.903036 0.000000
1.000000 0.899832 0.000000
0.000000 1.000000 0.000000
0.055954 1.000000 0.000000
0.224112 1.000000 0.000000
0.392271 1.000000 0.000000
0.560429 1.000000 0.000000
0.728588 1.000000 0.000000
0.896746 1.000000 0.000000
1.000000 1.000000 0.000000
0.000000 0.000000 0.116636
0.113432 0.000000 0.113432
0.281591 0.000000 0.108734
0.449749 0.000000 0.104035
0.617908 0.000000 0.099336
0.786066 0.000000 0.094638
0.954225 0.000000 0.089939
1.000000 0.000000 0.086736
0.000000 0.110346 0.110346
0.107143 0.107143 0.107143
0.275301 0.102444 0.102444
0.443460 0.097746 0.097746
0.611619 0.093047 0.093047
0.779777 0.088349 0.088349
0.947936 0.083650 0.083650
1.000000 0.080446 0.080446
0.000000 0.273979 0.101122
0.097919 0.270776 0.097919
0.266077 0.266077 0.093220
0.434236 0.261379 0.088521
0.602394 0.256680 0.083823
0.770553 0.251981 0.079124
0.938711 0.247283 0.074426
1.000000 0.244079 0.071222
0.000000 0.437612 0.091898
0.088694 0.434409 0.088694
0.256853 0.429710 0.083996
0.425011 0.425011 0.079297
0.593170 0.420313 0.074599
0.761329 0.415614 0.069900
0.929487 0.410916 0.065201
1.000000 0.407712 0.061998
0.000000 0.601245 0.082674
0.079470 0.598041 0.079470
0.247629 0.593343 0.074771
0.415787 0.588644 0.070073
0.583946 0.583946 0.065374
0.752104 0.579247 0.060676
0.920263 0.574549 0.055977
1.000000 0.571345 0.052774
0.000000 0.764878 0.073449
0.070246 0.761674 0.070246
0.238404 0.756976 0.065547
0.406563 0.752277 0.060849
0.574721 0.747579 0.056150
0.742880 0.742880 0.051451
0.911039 0.738181 0.046753
1.000000 0.734978 0.043549
0.000000 0.928511 0.064225
0.061021 0.925307 0.061021
0.229180 0.920609 0.056323
0.397339 0.915910 0.051624
0.565497 0.911211 0.046926
0.733656 0.906513 0.042227
0.901814 0.901814 0.037529
1.000000 0.898611 0.034325
0.000000 1.000000 0.057936
0.054732 1.000000 0.054732
0.222891 1.000000 0.050034
0.391049 1.000000 0.045335
0.559208 1.000000 0.040636
0.727366 1.000000 0.035938
0.895525 1.000000 0.031239
1.000000 1.000000 0.028036
0.000000 0.000000 0.287701
0.111641 0.000000 0.284498
0.279799 0.000000 0.279799
0.447958 0.000000 0.275101
0.616116 0.000000 0.270402
0.784275 0.000000 0.265704
0.952434 0.000000 0.261005
1.000000 0.000000 0.257801
0.000000 0.108555 0.281412
0.105351 0.105351 0.278209
0.273510 0.100653 0.273510
0.441669 0.095954 0.268811
0.609827 0.091256 0.264113
0.777986 0.086557 0.259414
0.946144 0.081859 0.254716
1.000000 0.078655 0.251512
0.000000 0.272188 0.272188
0.096127 0.268984 0.268984
0.264286 0.264286 0.264286
0.432444 0.259587 0.259587
0.600603 0.254889 0.254889
0.768761 0.250190 0.250190
0.936920 0.245491 0.245491
1.000000 0.242288 0.242288
0.000000 0.435821 0.262964
0.086903 0.432617 0.259760
0.255061 0.427919 0.255061
0.423220 0.423220 0.250363
0.591379 0.418521 0.245664
0.759537 0.413823 0.240966
0.927696 0.409124 0.236267
1.000000 0.405921 0.233064
0.000000 0.599454 0.253739
0.077679 0.596250 0.250536
0.245837 0.591551 0.245837
0.413996 0.586853 0.241139
0.582154 0.582154 0.236440
0.750313 0.577456 0.231741
0.918471 0.572757 0.227043
1.000000 0.569554 0.223839
0.000000 0.763086 0.244515
0.068454 0.759883 0.241311
0.236613 0.755184 0.236613
0.404771 0.750486 0.231914
0.572930 0.745787 0.227216
0.741089 0.741089 0.222517
0.909247 0.736390 0.217819
1.000000 0.733186 0.214615
0.000000 0.926719 0.235291
0.059230 0.923516 0.232087
0.227389 0.918817 0.227389
0.395547 0.914119 0.222690
0.563706 0.909420 0.217991
0.731864 0.904721 0.213293
0.900023 0.900023 0.208594
1.000000 0.896819 0.205391
0.000000 1.000000 0.229001
0.052941 1.000000 0.225798
0.221099 1.000000 0.221099
0.389258 1.000000 0.216401
0.557416 1.000000 0.211702
0.725575 1.000000 0.207004
0.893734 1.000000 0.202305
1.000000 1.000000 0.199101
0.000000 0.000000 0.458767
0.109849 0.000000 0.455564
0.278008 0.000000 0.450865
0.446166 0.000000 0.446166
0.614325 0.000000 0.441468
0.782484 0.000000 0.436769
0.950642 0.000000 0.432071
1.000000 0.000000 0.428867
0.000000 0.106764 0.452478
0.103560 0.103560 0.449274
0.271719 0.098861 0.444576
0.439877 0.094163 0.439877
0.608036 0.089464 0.435179
0.776194 0.084766 0.430480
0.944353 0.080067 0.425781
1.000000 0.076864 0.422578
0.000000 0.270396 0.443254
0.094336 0.267193 0.440050
0.262494 0.262494 0.435351
0.430653 0.257796 0.430653
0.598811 0.253097 0.425954
0.766970 0.248399 0.421256
0.935129 0.243700 0.416557
1.000000 0.240496 0.413354
0.000000 0.434029 0.434029
0.085111 0.430826 0.430826
0.253270 0.426127 0.426127
0.421429 0.421429 0.421429
0.589587 0.416730 0.416730
0.757746 0.412031 0.412031
0.925904 0.407333 0.407333
1.000000 0.404129 0.404129
0.000000 0.597662 0.424805
0.075887 0.594459 0.421601
0.244046 0.589760 0.416903
0.412204 0.585061 0.412204
0.580363 0.580363 0.407506
0.748521 0.575664 0.402807
0.916680 0.570966 0.398109
1.000000 0.567762 0.394905
0.000000 0.761295 0.415581
0.066663 0.758091 0.412377
0.234821 0.753393 0.407679
0.402980 0.748694 0.402980
0.571139 0.743996 0.398281
0.739297 0.739297 0.393583
0.907456 0.734599 0.388884
1.000000 0.731395 0.385681
0.000000 0.924928 0.406356
0.057439 0.921724 0.403153
0.225597 0.917026 0.398454
0.393756 0.912327 0.393756
0.561914 0.907629 0.389057
0.730073 0.902930 0.384359
0.898231 0.898231 0.379660
1.000000 0.895028 0.376456
0.000000 1.000000 0.400067
0.051149 1.000000 0.396864
0.219308 1.000000 0.392165
0.387466 1.000000 0.387466
0.555625 1.000000 0.382768
0.723784 1.000000 0.378069
0.891942 1.000000 0.373371
1.000000 1.000000 0.370167
0.000000 0.000000 0.629833
0.108058 0.000000 0.626629
0.276216 0.000000 0.621931
0.444375 0.000000 0.617232
0.612534 0.000000 0.612534
0.780692 0.000000 0.607835
0.948851 0.000000 0.603136
1.000000 0.000000 0.599933
0.000000 0.104972 0.623544
0.101769 0.101769 0.620340
0.269927 0.097070 0.615641
0.438086 0.092371 0.610943
0.606244 0.087673 0.606244
0.774403 0.082974 0.601546
0.942561 0.078276 0.596847
1.000000 0.075072 0.593644
0.000000 0.268605 0.614319
0.092544 0.265401 0.611116
0.260703 0.260703 0.606417
0.428861 0.256004 0.601719
0.597020 0.251306 0.597020
0.765179 0.246607 0.592321
0.933337 0.241909 0.587623
1.000000 0.238705 0.584419
0.000000 0.432238 0.605095
0.083320 0.429034 0.601891
0.251479 0.424336 0.597193
0.419637 0.419637 0.592494
0.587796 0.414939 0.587796
0.755954 0.410240 0.583097
0.924113 0.405541 0.578399
1.000000 0.402338 0.575195
0.000000 0.595871 0.595871
0.074096 0.592667 0.592667
0.242254 0.587969 0.587969
0.410413 0.583270 0.583270
0.578571 0.578571 0.578571
0.746730 0.573873 0.573873
0.914889 0.569174 0.569174
1.000000 0.565971 0.565971
0.000000 0.759504 0.586646
0.064871 0.756300 0.583443
0.233030 0.751601 0.578744
0.401189 0.746903 0.574046
0.569347 0.742204 0.569347
0.737506 0.737506 0.564649
0.905664 0.732807 0.559950
1.000000 0.729604 0.556746
0.000000 0.923136 0.577422
0.055647 0.919933 0.574219
0.223806 0.915234 0.569520
0.391964 0.910536 0.564821
0.560123 0.905837 0.560123
0.728281 0.901139 0.555424
0.896440 0.896440 0.550726
1.000000 0.893236 0.547522
0.000000 1.000000 0.571133
0.049358 1.000000 0.567929
0.217516 1.000000 0.563231
0.385675 1.000000 0.558532
0.553834 1.000000 0.553834
0.721992 1.000000 0.549135
0.890151 1.000000 0.544436
1.000000 1.000000 0.541233
0.000000 0.000000 0.800899
0.106266 0.000000 0.797695
0.274425 0.000000 0.792996
0.442584 0.000000 0.788298
0.610742 0.000000 0.783599
0.778901 0.000000 0.778901
0.947059 0.000000 0.774202
1.000000 0.000000 0.770999
0.000000 0.103181 0.794609
0.099977 0.099977 0.791406
0.268136 0.095279 0.786707
0.436294 0.090580 0.782009
0.604453 0.085881 0.777310
0.772611 0.081183 0.772611
0.940770 0.076484 0.767913
1.000000 0.073281 0.764709
0.000000 0.266814 0.785385
0.090753 0.263610 0.782181
0.258911 0.258911 0.777483
0.427070 0.254213 0.772784
0.595229 0.249514 0.768086
0.763387 0.244816 0.763387
0.931546 0.240117 0.758689
1.000000 0.236914 0.755485
0.000000 0.430446 0.776161
0.081529 0.427243 0.772957
0.249687 0.422544 0.768259
0.417846 0.417846 0.763560
0.586004 0.413147 0.758861
0.754163 0.408449 0.754163
0.922321 0.403750 0.749464
1.000000 0.400546 0.746261
0.000000 0.594079 0.766936
0.072304 0.590876 0.763733
0.240463 0.586177 0.759034
0.408621 0.581479 0.754336
0.576780 0.576780 0.749637
0.744939 0.572081 0.744939
0.913097 0.567383 0.740240
1.000000 0.564179 0.737036
0.000000 0.757712 0.757712
0.063080 0.754509 0.754509
0.231239 0.749810 0.749810
0.399397 0.745111 0.745111
0.567556 0.740413 0.740413
0.735714 0.735714 0.735714
0.903873 0.731016 0.731016
1.000000 0.727812 0.727812
0.000000 0.921345 0.748488
0.053856 0.918141 0.745284
0.222014 0.913443 0.740586
0.390173 0.908744 0.735887
0.558331 0.904046 0.731189
0.726490 0.899347 0.726490
0.894649 0.894649 0.721791
1.000000 0.891445 0.718588
0.000000 1.000000 0.742199
0.047566 1.000000 0.738995
0.215725 1.000000 0.734296
0.383884 1.000000 0.729598
0.552042 1.000000 0.724899
0.720201 1.000000 0.720201
0.888359 1.000000 0.715502
1.000000 1.000000 0.712299
0.000000 0.000000 0.971964
0.104475 0.000000 0.968761
0.272634 0.000000 0.964062
0.440792 0.000000 0.959364
0.608951 0.000000 0.954665
0.777109 0.000000 0.949966
0.945268 0.000000 0.945268
1.000000 0.000000 0.942064
0.000000 0.101389 0.965675
0.098186 0.098186 0.962471
0.266344 0.093487 0.957773
0.434503 0.088789 0.953074
0.602661 0.084090 0.948376
0.770820 0.079391 0.943677
0.938979 0.074693 0.938979
1.000000 0.071489 0.935775
0.000000 0.265022 0.956451
0.088961 0.261819 0.953247
0.257120 0.257120 0.948549
0.425279 0.252421 0.943850
0.593437 0.247723 0.939151
0.761596 0.243024 0.934453
0.929754 0.238326 0.929754
1.000000 0.235122 0.926551
0.000000 0.428655 0.947226
0.079737 0.425451 0.944023
0.247896 0.420753 0.939324
0.416054 0.416054 0.934626
0.584213 0.411356 0.929927
0.752371 0.406657 0.925229
0.920530 0.401959 0.920530
1.000000 0.398755 0.917326
0.000000 0.592288 0.938002
0.070513 0.589084 0.934799
0.238671 0.584386 0.930100
0.406830 0.579687 0.925401
0.574989 0.574989 0.920703
0.743147 0.570290 0.916004
0.911306 0.565591 0.911306
1.000000 0.562388 0.908102
0.000000 0.755921 0.928778
0.061289 0.752717 0.925574
0.229447 0.748019 0.920876
0.397606 0.743320 0.916177
0.565764 0.738621 0.911479
0.733923 0.733923 0.906780
0.902081 0.729224 0.902081
1.000000 0.726021 0.898878
0.000000 0.919554 0.919554
0.052064 0.916350 0.916350
0.220223 0.911651 0.911651
0.388381 0.906953 0.906953
0.556540 0.902254 0.902254
0.724699 0.897556 0.897556
0.892857 0.892857 0.892857
1.000000 0.889654 0.889654
0.000000 1.000000 0.913264
0.045775 1.000000 0.910061
0.213934 1.000000 0.905362
0.382092 1.000000 0.900664
0.550251 1.000000 0.895965
0.718409 1.000000 0.891266
0.886568 1.000000 0.886568
1.000000 1.000000 0.883364
0.000000 0.000000 1.000000
0.103254 0.000000 1.000000
0.271412 0.000000 1.000000
0.439571 0.000000 1.000000
0.607729 0.000000 1.000000
0.775888 0.000000 1.000000
0.944046 0.000000 1.000000
1.000000 0.000000 1.000000
0.000000 0.100168 1.000000
0.096964 0.096964 1.000000
0.265123 0.092266 1.000000
0.433281 0.087567 1.000000
0.601440 0.082869 1.000000
0.769599 0.078170 1.000000
0.937757 0.073471 1.000000
1.000000 0.070268 1.000000
0.000000 0.263801 1.000000
0.087740 0.260597 1.000000
0.255899 0.255899 1.000000
0.424057 0.251200 1.000000
0.592216 0.246501 1.000000
0.760374 0.241803 1.000000
0.928533 0.237104 1.000000
1.000000 0.233901 1.000000
0.000000 0.427434 1.000000
0.078516 0.424230 1.000000
0.246674 0.419531 1.000000
0.414833 0.414833 1.000000
0.582991 0.410134 1.000000
0.751150 0.405436 1.000000
0.919309 0.400737 1.000000
1.000000 0.397534 1.000000
0.000000 0.591066 1.000000
0.069291 0.587863 1.000000
0.237450 0.583164 1.000000
0.405609 0.578466 1.000000
0.573767 0.573767 1.000000
0.741926 0.569069 1.000000
0.910084 0.564370 1.000000
1.000000 0.561166 1.000000
0.000000 0.754699 1.000000
0.060067 0.751496 1.000000
0.228226 0.746797 1.000000
0.396384 0.742099 1.000000
0.564543 0.737400 1.000000
0.732701 0.732701 1.000000
0.900860 0.728003 1.000000
1.000000 0.724799 1.000000
0.000000 0.918332 1.000000
0.050843 0.915129 1.000000
0.219001 0.910430 1.000000
0.387160 0.905731 1.000000
0.555319 0.901033 1.000000
0.723477 0.896334 1.000000
0.891636 0.891636 1.000000
1.000000 0.888432 1.000000
0.000000 1.000000 1.000000
0.044554 1.000000 1.000000
0.212712 1.000000 1.000000
0.380871 1.000000 1.000000
0.549029 1.000000 1.000000
0.717188 1.000000 1.000000
0.885346 1.000000 1.000000
1.000000 1.000000 1.000000
