assets/luts/low_contrast.cube
TITLE "低对比"
LUT_3D_SIZE 8
DOMAIN_MIN 0.0 0.0 0.0
DOMAIN_MAX 1.0 1.0 1.0
0.100000 0.100000 0.100000
0.214286 0.100000 0.100000
0.328571 0.100000 0.100000
0.442857 0.100000 0.100000
0.557143 0.100000 0.100000
0.671429 0.100000 0.100000
0.785714 0.100000 0.100000
0.900000 0.100000 0.100000
0.100000 0.214286 0.100000
0.214286 0.214286 0.100000
0.328571 0.214286 0.100000
0.442857 0.214286 0.100000
0.557143 0.214286 0.100000
0.671429 0.214286 0.100000
0.785714 0.214286 0.100000
0.900000 0.214286 0.100000
0.100000 0.328571 0.100000
0.214286 0.328571 0.100000
0.328571 0.328571 0.100000
0.442857 0.328571 0.100000
0.557143 0.328571 0.100000
0.671429 0.328571 0.100000
0.785714 0.328571 0.100000
0.900000 0.328571 0.100000
0.100000 0.442857 0.100000
0.214286 0.442857 0.100000
0.328571 0.442857 0.100000
0.442857 0.442857 0.100000
0.557143 0.442857 0.100000
0.671429 0.442857 0.100000
0.785714 0.442857 0.100000
0.900000 0.442857 0.100000
0.100000 0.557143 0.100000
0.214286 0.557143 0.100000
0.328571 0.557143 0.100000
0.442857 0.557143 0.100000
0.557143 0.557143 0.100000
0.671429 0.557143 0.100000
0.785714 0.557143 0.100000
0.900000 0.557143 0.100000
0.100000 0.671429 0.100000
0.214286 0.671429 0.100000
0.328571 0.671429 0.100000
0.442857 0.671429 0.100000
0.557143 0.671429 0.100000
0.671429 0.671429 0.100000
0.785714 0.671429 0.100000
0.900000 0.671429 0.100000
0.100000 0.785714 0.100000
0.214286 0.785714 0.100000
0.328571 0.785714 0.100000
0.442857 0.785714 0.100000
0.557143 0.785714 0.100000
0.671429 0.785714 0.100000
0.785714 0.785714 0.100000
0.900000 0.785714 0.100000
0.100000 0.900000 0.100000
0.214286 0.900000 0.100000
0.328571 0.900000 0.100000
0.442857 0.900000 0.100000
0.557143 0.900000 0.100000
0.671429 0.900000 0.100000
0.785714 0.900000 0.100000
0.900000 0.900000 0.100000
0.100000 0.100000 0.214286
0.214286 0.100000 0.214286
0.328571 0.100000 0.214286
0.442857 0.100000 0.214286
0.557143 0.100000 0.214286
0.671429 0.100000 0.214286
0.785714 0.100000 0.214286
0.900000 0.100000 0.214286
0.100000 0.214286 0.214286
0.214286 0.214286 0.214286
0.328571 0.214286 0.214286
0.442857 0.214286 0.214286
0.557143 0.214286 0.214286
0.671429 0.214286 0.214286
0.785714 0.214286 0.214286
0.900000 0.214286 0.214286
0.100000 0.328571 0.214286
0.214286 0.328571 0.214286
0.328571 0.328571 0.214286
0.442857 0.328571 0.214286
0.557143 0.328571 0.214286
0.671429 0.328571 0.214286
0.785714 0.328571 0.214286
0.900000 0.328571 0.214286
0.100000 0.442857 0.214286
0.214286 0.442857 0.214286
0.328571 0.442857 0.214286
0.442857 0.442857 0.214286
0.557143 0.442857 0.214286
0.671429 0.442857 0.214286
0.785714 0.442857 0.214286
0.900000 0.442857 0.214286
0.100000 0.557143 0.214286
0.214286 0.557143 0.214286
0.328571 0.557143 0.214286
0.442857 0.557143 0.214286
0.557143 0.557143 0.214286
0.671429 0.557143 0.214286
0.785714 0.557143 0.214286
0.900000 0.557143 0.214286
0.100000 0.671429 0.214286
0.214286 0.671429 0.214286
0.328571 0.671429 0.214286
0.442857 0.671429 0.214286
0.557143 0.671429 0.214286
0.671429 0.671429 0.214286
0.785714 0.671429 0.214286
0.900000 0.671429 0.214286
0.100000 0.785714 0.214286
0.214286 0.785714 0.214286
0.328571 0.785714 0.214286
0.442857 0.785714 0.214286
0.557143 0.785714 0.214286
0.671429 0.785714 0.214286
0.785714 0.785714 0.214286
0.900000 0.785714 0.214286
0.100000 0.900000 0.214286
0.214286 0.900000 0.214286
0.328571 0.900000 0.214286
0.442857 0.900000 0.214286
0.557143 0.900000 0.214286
0.671429 0.900000 0.214286
0.785714 0.900000 0.214286
0.900000 0.900000 0.214286
0.100000 0.100000 0.328571
0.214286 0.100000 0.328571
0.328571 0.100000 0.328571
0.442857 0.100000 0.328571
0.557143 0.100000 0.328571
0.671429 0.100000 0.328571
0.785714 0.100000 0.328571
0.900000 0.100000 0.328571
0.100000 0.214286 0.328571
0.214286 0.214286 0.328571
0.328571 0.214286 0.328571
0.442857 0.214286 0.328571
0.557143 0.214286 0.328571
0.671429 0.214286 0.328571
0.785714 0.214286 0.328571
0.900000 0.214286 0.328571
0.100000 0.328571 0.328571
0.214286 0.328571 0.328571
0.328571 0.328571 0.328571
0.442857 0.328571 0.328571
0.557143 0.328571 0.328571
0.671429 0.328571 0.328571
0.785714 0.328571 0.328571
0.900000 0.328571 0.328571
0.100000 0.442857 0.328571
0.214286 0.442857 0.328571
0.328571 0.442857 0.328571
0.442857 0.442857 0.328571
0.557143 0.442857 0.328571
0.671429 0.442857 0.328571
0.785714 0.442857 0.328571
0.900000 0.442857 0.328571
0.100000 0.557143 0.328571
0.214286 0.557143 0.328571
0.328571 0.557143 0.328571
0.442857 0.557143 0.328571
0.557143 0.557143 0.328571
0.671429 0.557143 0.328571
0.785714 0.557143 0.328571
0.900000 0.557143 0.328571
0.100000 0.671429 0.328571
0.214286 0.671429 0.328571
0.328571 0.671429 0.328571
0.442857 0.671429 0.328571
0.557143 0.671429 0.328571
0.671429 0.671429 0.328571
0.785714 0.671429 0.328571
0.900000 0.671429 0.328571
0.100000 0.785714 0.328571
0.214286 0.785714 0.328571
0.328571 0.785714 0.328571
0.442857 0.785714 0.328571
0.557143 0.785714 0.328571
0.671429 0.785714 0.328571
0.785714 0.785714 0.328571
0.900000 0.785714 0.328571
0.100000 0.900000 0.328571
0.214286 0.900000 0.328571
0.328571 0.900000 0.328571
0.442857 0.900000 0.328571
0.557143 0.900000 0.328571
0.671429 0.900000 0.328571
0.785714 0.900000 0.328571
0.900000 0.900000 0.328571
0.100000 0.100000 0.442857
0.214286 0.100000 0.442857
0.328571 0.100000 0.442857
0.442857 0.100000 0.442857
0.557143 0.100000 0.442857
0.671429 0.100000 0.442857
0.785714 0.100000 0.442857
0.900000 0.100000 0.442857
0.100000 0.214286 0.442857
0.214286 0.214286 0.442857
0.328571 0.214286 0.442857
0.442857 0.214286 0.442857
0.557143 0.214286 0.442857
0.671429 0.214286 0.442857
0.785714 0.214286 0.442857
0.900000 0.214286 0.442857
0.100000 0.328571 0.442857
0.214286 0.328571 0.442857
0.328571 0.328571 0.442857
0.442857 0.328571 0.442857
0.557143 0.328571 0.442857
0.671429 0.328571 0.442857
0.785714 0.328571 0.442857
0.900000 0.328571 0.442857
0.100000 0.442857 0.442857
0.214286 0.442857 0.442857
0.328571 0.442857 0.442857
0.442857 0.442857 0.442857
0.557143 0.442857 0.442857
0.671429 0.442857 0.442857
0.785714 0.442857 0.442857
0.900000 0.442857 0.442857
0.100000 0.557143 0.442857
0.214286 0.557143 0.442857
0.328571 0.557143 0.442857
0.442857 0.557143 0.442857
0.557143 0.557143 0.442857
0.671429 0.557143 0.442857
0.785714 0.557143 0.442857
0.900000 0.557143 0.442857
0.100000 0.671429 0.442857
0.214286 0.671429 0.442857
0.328571 0.671429 0.442857
0.442857 0.671429 0.442857
0.557143 0.671429 0.442857
0.671429 0.671429 0.442857
0.785714 0.671429 0.442857
0.900000 0.671429 0.442857
0.100000 0.785714 0.442857
0.214286 0.785714 0.442857
0.328571 0.785714 0.442857
0.442857 0.785714 0.442857
0.557143 0.785714 0.442857
0.671429 0.785714 0.442857
0.785714 0.785714 0.442857
0.900000 0.785714 0.442857
0.100000 0.900000 0.442857
0.214286 0.900000 0.442857
0.328571 0.900000 0.442857
0.442857 0.900000 0.442857
0.557143 0.900000 0.442857
0.671429 0.900000 0.442857
0.785714 0.900000 0.442857
0.900000 0.900000 0.442857
0.100000 0.100000 0.557143
0.214286 0.100000 0.557143
0.328571 0.100000 0.557143
0.442857 0.100000 0.557143
0.557143 0.100000 0.557143
0.671429 0.100000 0.557143
0.785714 0.100000 0.557143
0.900000 0.100000 0.557143
0.100000 0.214286 0.557143
0.214286 0.214286 0.557143
0.328571 0.214286 0.557143
0.442857 0.214286 0.557143
0.557143 0.214286 0.557143
0.671429 0.214286 0.557143
0.785714 0.214286 0.557143
0.900000 0.214286 0.557143
0.100000 0.328571 0.557143
0.214286 0.328571 0.557143
0.328571 0.328571 0.557143
0.442857 0.328571 0.557143
0.557143 0.328571 0.557143
0.671429 0.328571 0.557143
0.785714 0.328571 0.557143
0.900000 0.328571 0.557143
0.100000 0.442857 0.557143
0.214286 0.442857 0.557143
0.328571 0.442857 0.557143
0.442857 0.442857 0.557143
0.557143 0.442857 0.557143
0.671429 0.442857 0.557143
0.785714 0.442857 0.557143
0.900000 0.442857 0.557143
0.100000 0.557143 0.557143
0.214286 0.557143 0.557143
0.328571 0.557143 0.557143
0.442857 0.557143 0.557143
0.557143 0.557143 0.557143
0.671429 0.557143 0.557143
0.785714 0.557143 0.557143
0.900000 0.557143 0.557143
0.100000 0.671429 0.557143
0.214286 0.671429 0.557143
0.328571 0.671429 0.557143
0.442857 0.671429 0.557143
0.557143 0.671429 0.557143
0.671429 0.671429 0.557143
0.785714 0.671429 0.557143
0.900000 0.671429 0.557143
0.100000 0.785714 0.557143
0.214286 0.785714 0.557143
0.328571 0.785714 0.557143
0.442857 0.785714 0.557143
0.557143 0.785714 0.557143
0.671429 0.785714 0.557143
0.785714 0.785714 0.557143
0.900000 0.785714 0.557143
0.100000 0.900000 0.557143
0.214286 0.900000 0.557143
0.328571 0.900000 0.557143
0.442857 0.900000 0.557143
0.557143 0.900000 0.557143
0.671429 0.900000 0.557143
0.785714 0.900000 0.557143
0.900000 0.900000 0.557143
0.100000 0.100000 0.671429
0.214286 0.100000 0.671429
0.328571 0.100000 0.671429
0.442857 0.100000 0.671429
0.557143 0.100000 0.671429
0.671429 0.100000 0.671429
0.785714 0.100000 0.671429
0.900000 0.100000 0.671429
0.100000 0.214286 0.671429
0.214286 0.214286 0.671429
0.328571 0.214286 0.671429
0.442857 0.214286 0.671429
0.557143 0.214286 0.671429
0.671429 0.214286 0.671429
0.785714 0.214286 0.671429
0.900000 0.214286 0.671429
0.100000 0.328571 0.671429
0.214286 0.328571 0.671429
0.328571 0.328571 0.671429
0.442857 0.328571 0.671429
0.557143 0.328571 0.671429
0.671429 0.328571 0.671429
0.785714 0.328571 0.671429
0.900000 0.328571 0.671429
0.100000 0.442857 0.671429
0.214286 0.442857 0.671429
0.328571 0.442857 0.671429
0.442857 0.442857 0.671429
0.557143 0.442857 0.671429
0.671429 0.442857 0.671429
0.785714 0.442857 0.671429
0.900000 0.442857 0.671429
0.100000 0.557143 0.671429
0.214286 0.557143 0.671429
0.328571 0.557143 0.671429
0.442857 0.557143 0.671429
0.557143 0.557143 0.671429
0.671429 0.557143 0.671429
0.785714 0.557143 0.671429
0.900000 0.557143 0.671429
0.100000 0.671429 0.671429
0.214286 0.671429 0.671429
0.328571 0.671429 0.671429
0.442857 0.671429 0.671429
0.557143 0.671429 0.671429
0.671429 0.671429 0.671429
0.785714 0.671429 0.671429
0.900000 0.671429 0.671429
0.100000 0.785714 0.671429
0.214286 0.785714 0.671429
0.328571 0.785714 0.671429
0.442857 0.785714 0.671429
0.557143 0.785714 0.671429
0.671429 0.785714 0.671429
0.785714 0.785714 0.671429
0.900000 0.785714 0.671429
0.100000 0.900000 0.671429
0.214286 0.900000 0.671429
0.328571 0.900000 0.671429
0.442857 0.900000 0.671429
0.557143 0.900000 0.671429
0.671429 0.900000 0.671429
0.785714 0.900000 0.671429
0.900000 0.900000 0.671429
0.100000 0.100000 0.785714
0.214286 0.100000 0.785714
0.328571 0.100000 0.785714
0.442857 0.100000 0.785714
0.557143 0.100000 0.785714
0.671429 0.100000 0.785714
0.785714 0.100000 0.785714
0.900000 0.100000 0.785714
0.100000 0.214286 0.785714
0.214286 0.214286 0.785714
0.328571 0.214286 0.785714
0.442857 0.214286 0.785714
0.557143 0.214286 0.785714
0.671429 0.214286 0.785714
0.785714 0.214286 0.785714
0.900000 0.214286 0.785714
0.100000 0.328571 0.785714
0.214286 0.328571 0.785714
0.328571 0.328571 0.785714
0.442857 0.328571 0.785714
0.557143 0.328571 0.785714
0.671429 0.328571 0.785714
0.785714 0.328571 0.785714
0.900000 0.328571 0.785714
0.100000 0.442857 0.785714
0.214286 0.442857 0.785714
0.328571 0.442857 0.785714
0.442857 0.442857 0.785714
0.557143 0.442857 0.785714
0.671429 0.442857 0.785714
0.785714 0.442857 0.785714
0.900000 0.442857 0.785714
0.100000 0.557143 0.785714
0.214286 0.557143 0.785714
0.328571 0.557143 0.785714
0.442857 0.557143 0.785714
0.557143 0.557143 0.785714
0.671429 0.557143 0.785714
0.785714 0.557143 0.785714
0.900000 0.557143 0.785714
0.100000 0.671429 0.785714
0.214286 0.671429 0.785714
0.328571 0.671429 0.785714
0.442857 0.671429 0.785714
0.557143 0.671429 0.785714
0.671429 0.671429 0.785714
0.785714 0.671429 0.785714
0.900000 0.671429 0.785714
0.100000 0.785714 0.785714
0.214286 0.785714 0.785714
0.328571 0.785714 0.785714
0.442857 0.785714 0.785714
0.557143 0.785714 0.785714
0.671429 0.785714 0.785714
0.785714 0.785714 0.785714
0.900000 0.785714 0.785714
0.100000 0.900000 0.785714
0.214286 0.900000 0.785714
0.328571 0.900000 0.785714
0.442857 0.900000 0.785714
0.557143 0.900000 0.785714
0.671429 0.900000 0.785714
0.785714 0.900000 0.785714
0.900000 0.900000 0.785714
0.100000 0.100000 0.900000
0.214286 0.100000 0.900000
0.328571 0.100000 0.900000
0.442857 0.100000 0.900000
0.557143 0.100000 0.900000
0.671429 0.100000 0.900000
0.785714 0.100000 0.900000
0.900000 0.100000 0.900000
0.100000 0.214286 0.900000
0.214286 0.214286 0.900000
0.328571 0.214286 0.900000
0.442857 0.214286 0.900000
0.557143 0.214286 0.900000
0.671429 0.214286 0.900000
0.785714 0.214286 0.900000
0.900000 0.214286 0.900000
0.100000 0.328571 0.900000
0.214286 0.328571 0.900000
0.328571 0.328571 0.900000
0.442857 0.328571 0.900000
0.557143 0.328571 0.900000
0.671429 0.328571 0.900000
0.785714 0.328571 0.900000
0.900000 0.328571 0.900000
0.100000 0.442857 0.900000
0.214286 0.442857 0.900000
0.328571 0.442857 0.900000
0.442857 0.442857 0.900000
0.557143 0.442857 0.900000
0.671429 0.442857 0.900000
0.785714 0.442857 0.900000
0.900000 0.442857 0.900000
0.100000 0.557143 0.900000
0.214286 0.557143 0.900000
0.328571 0.557143 0.900000
0.442857 0.557143 0.900000
0.557143 0.557143 0.900000
0.671429 0.557143 0.900000
0.785714 0.557143 0.900000
0.900000 0.557143 0.900000
0.100000 0.671429 0.900000
0.214286 0.671429 0.900000
0.328571 0.671429 0.900000
0.442857 0.671429 0.900000
0.557143 0.671429 0.900000
0.671429 0.671429 0.900000
0.785714 0.671429 0.900000
0.900000 0.671429 0.900000
0.100000 0.785714 0.900000
0.214286 0.785714 0.900000
0.328571 0.785714 0.900000
0.442857 0.785714 0.900000
0.557143 0.785714 0.900000
0.671429 0.785714 0.900000
0.785714 0.785714 0.900000
0.900000 0.785714 0.900000
0.100000 0.900000 0.900000
0.214286 0.900000 0.900000
0.328571 0.900000 0.900000
0.442857 0.900000 0.900000
0.557143 0.900000 0.900000
0.671429 0.900000 0.900000
0.785714 0.900000 0.900000
0.900000 0.900000 0.900000
