assets/luts/muted.cube
TITLE "柔和"
LUT_3D_SIZE 8
DOMAIN_MIN 0.0 0.0 0.0
DOMAIN_MAX 1.0 1.0 1.0
0.025000 0.025000 0.025000
0.132174 0.037174 0.037174
0.239347 0.049347 0.049347
0.346521 0.061521 0.061521
0.453694 0.073694 0.073694
0.560868 0.085868 0.085868
0.668041 0.098041 0.098041
0.775215 0.110215 0.110215
0.048899 0.143899 0.048899
0.156073 0.156073 0.061073
0.263246 0.168246 0.073246
0.370420 0.180420 0.085420
0.477594 0.192594 0.097594
0.584767 0.204767 0.109767
0.691941 0.216941 0.121941
0.799114 0.229114 0.134114
0.072799 0.262799 0.072799
0.179972 0.274972 0.084972
0.287146 0.287146 0.097146
0.394319 0.299319 0.109319
0.501493 0.311493 0.121493
0.608666 0.323666 0.133666
0.715840 0.335840 0.145840
0.823014 0.348014 0.158014
0.096698 0.381698 0.096698
0.203871 0.393871 0.108871
0.311045 0.406045 0.121045
0.418219 0.418219 0.133219
0.525392 0.430392 0.145392
0.632566 0.442566 0.157566
0.739739 0.454739 0.169739
0.846913 0.466913 0.181913
0.120597 0.500597 0.120597
0.227771 0.512771 0.132771
0.334944 0.524944 0.144944
0.442118 0.537118 0.157118
0.549291 0.549291 0.169291
0.656465 0.561465 0.181465
0.763639 0.573639 0.193639
0.870812 0.585812 0.205812
0.144496 0.619496 0.144496
0.251670 0.631670 0.156670
0.358844 0.643844 0.168844
0.466017 0.656017 0.181017
0.573191 0.668191 0.193191
0.680364 0.680364 0.205364
0.787538 0.692538 0.217538
0.894711 0.704711 0.229711
0.168396 0.738396 0.168396
0.275569 0.750569 0.180569
0.382743 0.762743 0.192743
0.489916 0.774916 0.204916
0.597090 0.787090 0.217090
0.704264 0.799264 0.229264
0.811437 0.811437 0.241437
0.918611 0.823611 0.253611
0.192295 0.857295 0.192295
0.299469 0.869469 0.204469
0.406642 0.881642 0.216642
0.513816 0.893816 0.228816
0.620989 0.905989 0.240989
0.728163 0.918163 0.253163
0.835336 0.930336 0.265336
0.942510 0.942510 0.277510
0.029641 0.029641 0.124641
0.136815 0.041815 0.136815
0.243989 0.053989 0.148989
0.351162 0.066162 0.161162
0.458336 0.078336 0.173336
0.565509 0.090509 0.185509
0.672683 0.102683 0.197683
0.779856 0.114856 0.209856
0.053541 0.148541 0.148541
0.160714 0.160714 0.160714
0.267888 0.172888 0.172888
0.375061 0.185061 0.185061
0.482235 0.197235 0.197235
0.589409 0.209409 0.209409
0.696582 0.221582 0.221582
0.803756 0.233756 0.233756
0.077440 0.267440 0.172440
0.184614 0.279614 0.184614
0.291787 0.291787 0.196787
0.398961 0.303961 0.208961
0.506134 0.316134 0.221134
0.613308 0.328308 0.233308
0.720481 0.340481 0.245481
0.827655 0.352655 0.257655
0.101339 0.386339 0.196339
0.208513 0.398513 0.208513
0.315686 0.410686 0.220686
0.422860 0.422860 0.232860
0.530034 0.435034 0.245034
0.637207 0.447207 0.257207
0.744381 0.459381 0.269381
0.851554 0.471554 0.281554
0.125239 0.505239 0.220239
0.232412 0.517412 0.232412
0.339586 0.529586 0.244586
0.446759 0.541759 0.256759
0.553933 0.553933 0.268933
0.661106 0.566106 0.281106
0.768280 0.578280 0.293280
0.875454 0.590454 0.305454
0.149138 0.624138 0.244138
0.256311 0.636311 0.256311
0.363485 0.648485 0.268485
0.470659 0.660659 0.280659
0.577832 0.672832 0.292832
0.685006 0.685006 0.305006
0.792179 0.697179 0.317179
0.899353 0.709353 0.329353
0.173037 0.743037 0.268037
0.280211 0.755211 0.280211
0.387384 0.767384 0.292384
0.494558 0.779558 0.304558
0.601731 0.791731 0.316731
0.708905 0.803905 0.328905
0.816079 0.816079 0.341079
0.923252 0.828252 0.353252
0.196936 0.861936 0.291936
0.304110 0.874110 0.304110
0.411284 0.886284 0.316284
0.518457 0.898457 0.328457
0.625631 0.910631 0.340631
0.732804 0.922804 0.352804
0.839978 0.934978 0.364978
0.947151 0.947151 0.377151
0.034283 0.034283 0.224283
0.141456 0.046456 0.236456
0.248630 0.058630 0.248630
0.355804 0.070804 0.260804
0.462977 0.082977 0.272977
0.570151 0.095151 0.285151
0.677324 0.107324 0.297324
0.784498 0.119498 0.309498
0.058182 0.153182 0.248182
0.165356 0.165356 0.260356
0.272529 0.177529 0.272529
0.379703 0.189703 0.284703
0.486876 0.201876 0.296876
0.594050 0.214050 0.309050
0.701224 0.226224 0.321224
0.808397 0.238397 0.333397
0.082081 0.272081 0.272081
0.189255 0.284255 0.284255
0.296429 0.296429 0.296429
0.403602 0.308602 0.308602
0.510776 0.320776 0.320776
0.617949 0.332949 0.332949
0.725123 0.345123 0.345123
0.832296 0.357296 0.357296
0.105981 0.390981 0.295981
0.213154 0.403154 0.308154
0.320328 0.415328 0.320328
0.427501 0.427501 0.332501
0.534675 0.439675 0.344675
0.641849 0.451849 0.356849
0.749022 0.464022 0.369022
0.856196 0.476196 0.381196
0.129880 0.509880 0.319880
0.237054 0.522054 0.332054
0.344227 0.534227 0.344227
0.451401 0.546401 0.356401
0.558574 0.558574 0.368574
0.665748 0.570748 0.380748
0.772921 0.582921 0.392921
0.880095 0.595095 0.405095
0.153779 0.628779 0.343779
0.260953 0.640953 0.355953
0.368126 0.653126 0.368126
0.475300 0.665300 0.380300
0.582474 0.677474 0.392474
0.689647 0.689647 0.404647
0.796821 0.701821 0.416821
0.903994 0.713994 0.428994
0.177679 0.747679 0.367679
0.284852 0.759852 0.379852
0.392026 0.772026 0.392026
0.499199 0.784199 0.404199
0.606373 0.796373 0.416373
0.713546 0.808546 0.428546
0.820720 0.820720 0.440720
0.927894 0.832894 0.452894
0.201578 0.866578 0.391578
0.308751 0.878751 0.403751
0.415925 0.890925 0.415925
0.523099 0.903099 0.428099
0.630272 0.915272 0.440272
0.737446 0.927446 0.452446
0.844619 0.939619 0.464619
0.951793 0.951793 0.476793
0.038924 0.038924 0.323924
0.146098 0.051098 0.336098
0.253271 0.063271 0.348271
0.360445 0.075445 0.360445
0.467619 0.087619 0.372619
0.574792 0.099792 0.384792
0.681966 0.111966 0.396966
0.789139 0.124139 0.409139
0.062824 0.157824 0.347824
0.169997 0.169997 0.359997
0.277171 0.182171 0.372171
0.384344 0.194344 0.384344
0.491518 0.206518 0.396518
0.598691 0.218691 0.408691
0.705865 0.230865 0.420865
0.813039 0.243039 0.433039
0.086723 0.276723 0.371723
0.193896 0.288896 0.383896
0.301070 0.301070 0.396070
0.408244 0.313244 0.408244
0.515417 0.325417 0.420417
0.622591 0.337591 0.432591
0.729764 0.349764 0.444764
0.836938 0.361938 0.456938
0.110622 0.395622 0.395622
0.217796 0.407796 0.407796
0.324969 0.419969 0.419969
0.432143 0.432143 0.432143
0.539316 0.444316 0.444316
0.646490 0.456490 0.456490
0.753664 0.468664 0.468664
0.860837 0.480837 0.480837
0.134521 0.514521 0.419521
0.241695 0.526695 0.431695
0.348869 0.538869 0.443869
0.456042 0.551042 0.456042
0.563216 0.563216 0.468216
0.670389 0.575389 0.480389
0.777563 0.587563 0.492563
0.884736 0.599736 0.504736
0.158421 0.633421 0.443421
0.265594 0.645594 0.455594
0.372768 0.657768 0.467768
0.479941 0.669941 0.479941
0.587115 0.682115 0.492115
0.694289 0.694289 0.504289
0.801462 0.706462 0.516462
0.908636 0.718636 0.528636
0.182320 0.752320 0.467320
0.289494 0.764494 0.479494
0.396667 0.776667 0.491667
0.503841 0.788841 0.503841
0.611014 0.801014 0.516014
0.718188 0.813188 0.528188
0.825361 0.825361 0.540361
0.932535 0.837535 0.552535
0.206219 0.871219 0.491219
0.313393 0.883393 0.503393
0.420566 0.895566 0.515566
0.527740 0.907740 0.527740
0.634914 0.919914 0.539914
0.742087 0.932087 0.552087
0.849261 0.944261 0.564261
0.956434 0.956434 0.576434
0.043566 0.043566 0.423566
0.150739 0.055739 0.435739
0.257913 0.067913 0.447913
0.365086 0.080086 0.460086
0.472260 0.092260 0.472260
0.579434 0.104434 0.484434
0.686607 0.116607 0.496607
0.793781 0.128781 0.508781
0.067465 0.162465 0.447465
0.174639 0.174639 0.459639
0.281812 0.186812 0.471812
0.388986 0.198986 0.483986
0.496159 0.211159 0.496159
0.603333 0.223333 0.508333
0.710506 0.235506 0.520506
0.817680 0.247680 0.532680
0.091364 0.281364 0.471364
0.198538 0.293538 0.483538
0.305711 0.305711 0.495711
0.412885 0.317885 0.507885
0.520059 0.330059 0.520059
0.627232 0.342232 0.532232
0.734406 0.354406 0.544406
0.841579 0.366579 0.556579
0.115264 0.400264 0.495264
0.222437 0.412437 0.507437
0.329611 0.424611 0.519611
0.436784 0.436784 0.531784
0.543958 0.448958 0.543958
0.651131 0.461131 0.556131
0.758305 0.473305 0.568305
0.865479 0.485479 0.580479
0.139163 0.519163 0.519163
0.246336 0.531336 0.531336
0.353510 0.543510 0.543510
0.460684 0.555684 0.555684
0.567857 0.567857 0.567857
0.675031 0.580031 0.580031
0.782204 0.592204 0.592204
0.889378 0.604378 0.604378
0.163062 0.638062 0.543062
0.270236 0.650236 0.555236
0.377409 0.662409 0.567409
0.484583 0.674583 0.579583
0.591756 0.686756 0.591756
0.698930 0.698930 0.603930
0.806104 0.711104 0.616104
0.913277 0.723277 0.628277
0.186961 0.756961 0.566961
0.294135 0.769135 0.579135
0.401309 0.781309 0.591309
0.508482 0.793482 0.603482
0.615656 0.805656 0.615656
0.722829 0.817829 0.627829
0.830003 0.830003 0.640003
0.937176 0.842176 0.652176
0.210861 0.875861 0.590861
0.318034 0.888034 0.603034
0.425208 0.900208 0.615208
0.532381 0.912381 0.627381
0.639555 0.924555 0.639555
0.746729 0.936729 0.651729
0.853902 0.948902 0.663902
0.961076 0.961076 0.676076
0.048207 0.048207 0.523207
0.155381 0.060381 0.535381
0.262554 0.072554 0.547554
0.369728 0.084728 0.559728
0.476901 0.096901 0.571901
0.584075 0.109075 0.584075
0.691249 0.121249 0.596249
0.798422 0.133422 0.608422
0.072106 0.167106 0.547106
0.179280 0.179280 0.559280
0.286454 0.191454 0.571454
0.393627 0.203627 0.583627
0.500801 0.215801 0.595801
0.607974 0.227974 0.607974
0.715148 0.240148 0.620148
0.822321 0.252321 0.632321
0.096006 0.286006 0.571006
0.203179 0.298179 0.583179
0.310353 0.310353 0.595353
0.417526 0.322526 0.607526
0.524700 0.334700 0.619700
0.631874 0.346874 0.631874
0.739047 0.359047 0.644047
0.846221 0.371221 0.656221
0.119905 0.404905 0.594905
0.227079 0.417079 0.607079
0.334252 0.429252 0.619252
0.441426 0.441426 0.631426
0.548599 0.453599 0.643599
0.655773 0.465773 0.655773
0.762946 0.477946 0.667946
0.870120 0.490120 0.680120
0.143804 0.523804 0.618804
0.250978 0.535978 0.630978
0.358151 0.548151 0.643151
0.465325 0.560325 0.655325
0.572499 0.572499 0.667499
0.679672 0.584672 0.679672
0.786846 0.596846 0.691846
0.894019 0.609019 0.704019
0.167704 0.642704 0.642704
0.274877 0.654877 0.654877
0.382051 0.667051 0.667051
0.489224 0.679224 0.679224
0.596398 0.691398 0.691398
0.703571 0.703571 0.703571
0.810745 0.715745 0.715745
0.917919 0.727919 0.727919
0.191603 0.761603 0.666603
0.298776 0.773776 0.678776
0.405950 0.785950 0.690950
0.513124 0.798124 0.703124
0.620297 0.810297 0.715297
0.727471 0.822471 0.727471
0.834644 0.834644 0.739644
0.941818 0.846818 0.751818
0.215502 0.880502 0.690502
0.322676 0.892676 0.702676
0.429849 0.904849 0.714849
0.537023 0.917023 0.727023
0.644196 0.929196 0.739196
0.751370 0.941370 0.751370
0.858544 0.953544 0.763544
0.965717 0.965717 0.775717
0.052849 0.052849 0.622849
0.160022 0.065022 0.635022
0.267196 0.077196 0.647196
0.374369 0.089369 0.659369
0.481543 0.101543 0.671543
0.588716 0.113716 0.683716
0.695890 0.125890 0.695890
0.803064 0.138064 0.708064
0.076748 0.171748 0.646748
0.183921 0.183921 0.658921
0.291095 0.196095 0.671095
0.398269 0.208269 0.683269
0.505442 0.220442 0.695442
0.612616 0.232616 0.707616
0.719789 0.244789 0.719789
0.826963 0.256963 0.731963
0.100647 0.290647 0.670647
0.207821 0.302821 0.682821
0.314994 0.314994 0.694994
0.422168 0.327168 0.707168
0.529341 0.339341 0.719341
0.636515 0.351515 0.731515
0.743689 0.363689 0.743689
0.850862 0.375862 0.755862
0.124546 0.409546 0.694546
0.231720 0.421720 0.706720
0.338894 0.433894 0.718894
0.446067 0.446067 0.731067
0.553241 0.458241 0.743241
0.660414 0.470414 0.755414
0.767588 0.482588 0.767588
0.874761 0.494761 0.779761
0.148446 0.528446 0.718446
0.255619 0.540619 0.730619
0.362793 0.552793 0.742793
0.469966 0.564966 0.754966
0.577140 0.577140 0.767140
0.684314 0.589314 0.779314
0.791487 0.601487 0.791487
0.898661 0.613661 0.803661
0.172345 0.647345 0.742345
0.279519 0.659519 0.754519
0.386692 0.671692 0.766692
0.493866 0.683866 0.778866
0.601039 0.696039 0.791039
0.708213 0.708213 0.803213
0.815386 0.720386 0.815386
0.922560 0.732560 0.827560
0.196244 0.766244 0.766244
0.303418 0.778418 0.778418
0.410591 0.790591 0.790591
0.517765 0.802765 0.802765
0.624939 0.814939 0.814939
0.732112 0.827112 0.827112
0.839286 0.839286 0.839286
0.946459 0.851459 0.851459
0.220144 0.885144 0.790144
0.327317 0.897317 0.802317
0.434491 0.909491 0.814491
0.541664 0.921664 0.826664
0.648838 0.933838 0.838838
0.756011 0.946011 0.851011
0.863185 0.958185 0.863185
0.970359 0.970359 0.875359
0.057490 0.057490 0.722490
0.164664 0.069664 0.734664
0.271837 0.081837 0.746837
0.379011 0.094011 0.759011
0.486184 0.106184 0.771184
0.593358 0.118358 0.783358
0.700531 0.130531 0.795531
0.807705 0.142705 0.807705
0.081389 0.176389 0.746389
0.188563 0.188563 0.758563
0.295736 0.200736 0.770736
0.402910 0.212910 0.782910
0.510084 0.225084 0.795084
0.617257 0.237257 0.807257
0.724431 0.249431 0.819431
0.831604 0.261604 0.831604
0.105289 0.295289 0.770289
0.212462 0.307462 0.782462
0.319636 0.319636 0.794636
0.426809 0.331809 0.806809
0.533983 0.343983 0.818983
0.641156 0.356156 0.831156
0.748330 0.368330 0.843330
0.855504 0.380504 0.855504
0.129188 0.414188 0.794188
0.236361 0.426361 0.806361
0.343535 0.438535 0.818535
0.450709 0.450709 0.830709
0.557882 0.462882 0.842882
0.665056 0.475056 0.855056
0.772229 0.487229 0.867229
0.879403 0.499403 0.879403
0.153087 0.533087 0.818087
0.260261 0.545261 0.830261
0.367434 0.557434 0.842434
0.474608 0.569608 0.854608
0.581781 0.581781 0.866781
0.688955 0.593955 0.878955
0.796129 0.606129 0.891129
0.903302 0.618302 0.903302
0.176986 0.651986 0.841986
0.284160 0.664160 0.854160
0.391334 0.676334 0.866334
0.498507 0.688507 0.878507
0.605681 0.700681 0.890681
0.712854 0.712854 0.902854
0.820028 0.725028 0.915028
0.927201 0.737201 0.927201
0.200886 0.770886 0.865886
0.308059 0.783059 0.878059
0.415233 0.795233 0.890233
0.522406 0.807406 0.902406
0.629580 0.819580 0.914580
0.736754 0.831754 0.926754
0.843927 0.843927 0.938927
0.951101 0.856101 0.951101
0.224785 0.889785 0.889785
0.331959 0.901959 0.901959
0.439132 0.914132 0.914132
0.546306 0.926306 0.926306
0.653479 0.938479 0.938479
0.760653 0.950653 0.950653
0.867826 0.962826 0.962826
0.975000 0.975000 0.975000
