assets/luts/night.cube
TITLE "夜景"
LUT_3D_SIZE 8
DOMAIN_MIN 0.0 0.0 0.0
DOMAIN_MAX 1.0 1.0 1.0
0.000000 0.000000 0.040000
0.069742 0.002242 0.042243
0.209228 0.006727 0.046727
0.348712 0.011213 0.051213
0.488197 0.015698 0.055698
0.627682 0.020182 0.060182
0.767168 0.024667 0.064667
0.906652 0.029152 0.069152
0.004402 0.071902 0.044402
0.074145 0.074145 0.046645
0.213630 0.078630 0.051130
0.353115 0.083115 0.055615
0.492600 0.087600 0.060100
0.632085 0.092085 0.064585
0.771570 0.096570 0.069070
0.911055 0.101055 0.073555
0.013207 0.215707 0.053207
0.082950 0.217950 0.055450
0.222435 0.222435 0.059935
0.361920 0.226920 0.064420
0.501405 0.231405 0.068905
0.640890 0.235890 0.073390
0.780375 0.240375 0.077875
0.919860 0.244860 0.082360
0.022012 0.359513 0.062012
0.091755 0.361755 0.064255
0.231240 0.366240 0.068740
0.370725 0.370725 0.073225
0.510210 0.375210 0.077710
0.649695 0.379695 0.082195
0.789180 0.384180 0.086680
0.928665 0.388665 0.091165
0.030817 0.503317 0.070818
0.100560 0.505560 0.073060
0.240045 0.510045 0.077545
0.379530 0.514530 0.082030
0.519015 0.519015 0.086515
0.658500 0.523500 0.091000
0.797985 0.527985 0.095485
0.937470 0.532470 0.099970
0.039623 0.647122 0.079623
0.109365 0.649365 0.081865
0.248850 0.653850 0.086350
0.388335 0.658335 0.090835
0.527820 0.662820 0.095320
0.667305 0.667305 0.099805
0.806790 0.671790 0.104290
0.946275 0.676275 0.108775
0.048428 0.790928 0.088428
0.118170 0.793170 0.090670
0.257655 0.797655 0.095155
0.397140 0.802140 0.099640
0.536625 0.806625 0.104125
0.676110 0.811110 0.108610
0.815595 0.815595 0.113095
0.955080 0.820080 0.117580
0.057233 0.934732 0.097233
0.126975 0.936975 0.099475
0.266460 0.941460 0.103960
0.405945 0.945945 0.108445
0.545430 0.950430 0.112930
0.684915 0.954915 0.117415
0.824400 0.959400 0.121900
0.963885 0.963885 0.126385
0.000855 0.000855 0.108355
0.070598 0.003097 0.110598
0.210083 0.007582 0.115083
0.349568 0.012067 0.119567
0.489052 0.016552 0.124052
0.628537 0.021037 0.128537
0.768022 0.025523 0.133023
0.907507 0.030007 0.137508
0.005257 0.072758 0.112758
0.075000 0.075000 0.115000
0.214485 0.079485 0.119485
0.353970 0.083970 0.123970
0.493455 0.088455 0.128455
0.632940 0.092940 0.132940
0.772425 0.097425 0.137425
0.911910 0.101910 0.141910
0.014063 0.216562 0.121562
0.083805 0.218805 0.123805
0.223290 0.223290 0.128290
0.362775 0.227775 0.132775
0.502260 0.232260 0.137260
0.641745 0.236745 0.141745
0.781230 0.241230 0.146230
0.920715 0.245715 0.150715
0.022867 0.360368 0.130367
0.092610 0.362610 0.132610
0.232095 0.367095 0.137095
0.371580 0.371580 0.141580
0.511065 0.376065 0.146065
0.650550 0.380550 0.150550
0.790035 0.385035 0.155035
0.929520 0.389520 0.159520
0.031672 0.504172 0.139173
0.101415 0.506415 0.141415
0.240900 0.510900 0.145900
0.380385 0.515385 0.150385
0.519870 0.519870 0.154870
0.659355 0.524355 0.159355
0.798840 0.528840 0.163840
0.938325 0.533325 0.168325
0.040477 0.647977 0.147978
0.110220 0.650220 0.150220
0.249705 0.654705 0.154705
0.389190 0.659190 0.159190
0.528675 0.663675 0.163675
0.668160 0.668160 0.168160
0.807645 0.672645 0.172645
0.947130 0.677130 0.177130
0.049283 0.791782 0.156783
0.119025 0.794025 0.159025
0.258510 0.798510 0.163510
0.397995 0.802995 0.167995
0.537480 0.807480 0.172480
0.676965 0.811965 0.176965
0.816450 0.816450 0.181450
0.955935 0.820935 0.185935
0.058087 0.935587 0.165587
0.127830 0.937830 0.167830
0.267315 0.942315 0.172315
0.406800 0.946800 0.176800
0.546285 0.951285 0.181285
0.685770 0.955770 0.185770
0.825255 0.960255 0.190255
0.964740 0.964740 0.194740
0.002565 0.002565 0.245065
0.072307 0.004807 0.247307
0.211792 0.009292 0.251792
0.351278 0.013777 0.256277
0.490762 0.018262 0.260762
0.630247 0.022748 0.265247
0.769733 0.027232 0.269732
0.909217 0.031718 0.274217
0.006968 0.074467 0.249467
0.076710 0.076710 0.251710
0.216195 0.081195 0.256195
0.355680 0.085680 0.260680
0.495165 0.090165 0.265165
0.634650 0.094650 0.269650
0.774135 0.099135 0.274135
0.913620 0.103620 0.278620
0.015772 0.218272 0.258272
0.085515 0.220515 0.260515
0.225000 0.225000 0.265000
0.364485 0.229485 0.269485
0.503970 0.233970 0.273970
0.643455 0.238455 0.278455
0.782940 0.242940 0.282940
0.922425 0.247425 0.287425
0.024578 0.362077 0.267077
0.094320 0.364320 0.269320
0.233805 0.368805 0.273805
0.373290 0.373290 0.278290
0.512775 0.377775 0.282775
0.652260 0.382260 0.287260
0.791745 0.386745 0.291745
0.931230 0.391230 0.296230
0.033382 0.505882 0.275882
0.103125 0.508125 0.278125
0.242610 0.512610 0.282610
0.382095 0.517095 0.287095
0.521580 0.521580 0.291580
0.661065 0.526065 0.296065
0.800550 0.530550 0.300550
0.940035 0.535035 0.305035
0.042187 0.649687 0.284687
0.111930 0.651930 0.286930
0.251415 0.656415 0.291415
0.390900 0.660900 0.295900
0.530385 0.665385 0.300385
0.669870 0.669870 0.304870
0.809355 0.674355 0.309355
0.948840 0.678840 0.313840
0.050992 0.793492 0.293492
0.120735 0.795735 0.295735
0.260220 0.800220 0.300220
0.399705 0.804705 0.304705
0.539190 0.809190 0.309190
0.678675 0.813675 0.313675
0.818160 0.818160 0.318160
0.957645 0.822645 0.322645
0.059797 0.937297 0.302297
0.129540 0.939540 0.304540
0.269025 0.944025 0.309025
0.408510 0.948510 0.313510
0.547995 0.952995 0.317995
0.687480 0.957480 0.322480
0.826965 0.961965 0.326965
0.966450 0.966450 0.331450
0.004275 0.004275 0.381775
0.074017 0.006517 0.384018
0.213502 0.011002 0.388502
0.352988 0.015487 0.392987
0.492472 0.019973 0.397472
0.631957 0.024457 0.401957
0.771442 0.028942 0.406442
0.910927 0.033427 0.410927
0.008677 0.076177 0.386178
0.078420 0.078420 0.388420
0.217905 0.082905 0.392905
0.357390 0.087390 0.397390
0.496875 0.091875 0.401875
0.636360 0.096360 0.406360
0.775845 0.100845 0.410845
0.915330 0.105330 0.415330
0.017482 0.219982 0.394982
0.087225 0.222225 0.397225
0.226710 0.226710 0.401710
0.366195 0.231195 0.406195
0.505680 0.235680 0.410680
0.645165 0.240165 0.415165
0.784650 0.244650 0.419650
0.924135 0.249135 0.424135
0.026287 0.363787 0.403787
0.096030 0.366030 0.406030
0.235515 0.370515 0.410515
0.375000 0.375000 0.415000
0.514485 0.379485 0.419485
0.653970 0.383970 0.423970
0.793455 0.388455 0.428455
0.932940 0.392940 0.432940
0.035092 0.507592 0.412592
0.104835 0.509835 0.414835
0.244320 0.514320 0.419320
0.383805 0.518805 0.423805
0.523290 0.523290 0.428290
0.662775 0.527775 0.432775
0.802260 0.532260 0.437260
0.941745 0.536745 0.441745
0.043897 0.651397 0.421397
0.113640 0.653640 0.423640
0.253125 0.658125 0.428125
0.392610 0.662610 0.432610
0.532095 0.667095 0.437095
0.671580 0.671580 0.441580
0.811065 0.676065 0.446065
0.950550 0.680550 0.450550
0.052702 0.795203 0.430202
0.122445 0.797445 0.432445
0.261930 0.801930 0.436930
0.401415 0.806415 0.441415
0.540900 0.810900 0.445900
0.680385 0.815385 0.450385
0.819870 0.819870 0.454870
0.959355 0.824355 0.459355
0.061507 0.939007 0.439007
0.131250 0.941250 0.441250
0.270735 0.945735 0.445735
0.410220 0.950220 0.450220
0.549705 0.954705 0.454705
0.689190 0.959190 0.459190
0.828675 0.963675 0.463675
0.968160 0.968160 0.468160
0.005985 0.005985 0.518485
0.075728 0.008227 0.520727
0.215212 0.012713 0.525212
0.354697 0.017198 0.529697
0.494182 0.021682 0.534183
0.633667 0.026167 0.538667
0.773153 0.030652 0.543152
0.912637 0.035137 0.547637
0.010387 0.077887 0.522887
0.080130 0.080130 0.525130
0.219615 0.084615 0.529615
0.359100 0.089100 0.534100
0.498585 0.093585 0.538585
0.638070 0.098070 0.543070
0.777555 0.102555 0.547555
0.917040 0.107040 0.552040
0.019193 0.221692 0.531692
0.088935 0.223935 0.533935
0.228420 0.228420 0.538420
0.367905 0.232905 0.542905
0.507390 0.237390 0.547390
0.646875 0.241875 0.551875
0.786360 0.246360 0.556360
0.925845 0.250845 0.560845
0.027998 0.365498 0.540497
0.097740 0.367740 0.542740
0.237225 0.372225 0.547225
0.376710 0.376710 0.551710
0.516195 0.381195 0.556195
0.655680 0.385680 0.560680
0.795165 0.390165 0.565165
0.934650 0.394650 0.569650
0.036802 0.509302 0.549302
0.106545 0.511545 0.551545
0.246030 0.516030 0.556030
0.385515 0.520515 0.560515
0.525000 0.525000 0.565000
0.664485 0.529485 0.569485
0.803970 0.533970 0.573970
0.943455 0.538455 0.578455
0.045607 0.653107 0.558107
0.115350 0.655350 0.560350
0.254835 0.659835 0.564835
0.394320 0.664320 0.569320
0.533805 0.668805 0.573805
0.673290 0.673290 0.578290
0.812775 0.677775 0.582775
0.952260 0.682260 0.587260
0.054412 0.796912 0.566912
0.124155 0.799155 0.569155
0.263640 0.803640 0.573640
0.403125 0.808125 0.578125
0.542610 0.812610 0.582610
0.682095 0.817095 0.587095
0.821580 0.821580 0.591580
0.961065 0.826065 0.596065
0.063217 0.940717 0.575717
0.132960 0.942960 0.577960
0.272445 0.947445 0.582445
0.411930 0.951930 0.586930
0.551415 0.956415 0.591415
0.690900 0.960900 0.595900
0.830385 0.965385 0.600385
0.969870 0.969870 0.604870
0.007695 0.007695 0.655195
0.077437 0.009938 0.657437
0.216922 0.014423 0.661922
0.356407 0.018907 0.666407
0.495892 0.023392 0.670892
0.635377 0.027877 0.675377
0.774863 0.032362 0.679862
0.914347 0.036847 0.684347
0.012097 0.079597 0.659597
0.081840 0.081840 0.661840
0.221325 0.086325 0.666325
0.360810 0.090810 0.670810
0.500295 0.095295 0.675295
0.639780 0.099780 0.679780
0.779265 0.104265 0.684265
0.918750 0.108750 0.688750
0.020902 0.223402 0.668402
0.090645 0.225645 0.670645
0.230130 0.230130 0.675130
0.369615 0.234615 0.679615
0.509100 0.239100 0.684100
0.648585 0.243585 0.688585
0.788070 0.248070 0.693070
0.927555 0.252555 0.697555
0.029707 0.367208 0.677207
0.099450 0.369450 0.679450
0.238935 0.373935 0.683935
0.378420 0.378420 0.688420
0.517905 0.382905 0.692905
0.657390 0.387390 0.697390
0.796875 0.391875 0.701875
0.936360 0.396360 0.706360
0.038513 0.511012 0.686012
0.108255 0.513255 0.688255
0.247740 0.517740 0.692740
0.387225 0.522225 0.697225
0.526710 0.526710 0.701710
0.666195 0.531195 0.706195
0.805680 0.535680 0.710680
0.945165 0.540165 0.715165
0.047317 0.654817 0.694817
0.117060 0.657060 0.697060
0.256545 0.661545 0.701545
0.396030 0.666030 0.706030
0.535515 0.670515 0.710515
0.675000 0.675000 0.715000
0.814485 0.679485 0.719485
0.953970 0.683970 0.723970
0.056122 0.798623 0.703622
0.125865 0.800865 0.705865
0.265350 0.805350 0.710350
0.404835 0.809835 0.714835
0.544320 0.814320 0.719320
0.683805 0.818805 0.723805
0.823290 0.823290 0.728290
0.962775 0.827775 0.732775
0.064927 0.942427 0.712427
0.134670 0.944670 0.714670
0.274155 0.949155 0.719155
0.413640 0.953640 0.723640
0.553125 0.958125 0.728125
0.692610 0.962610 0.732610
0.832095 0.967095 0.737095
0.971580 0.971580 0.741580
0.009405 0.009405 0.791905
0.079147 0.011647 0.794148
0.218632 0.016132 0.798633
0.358117 0.020617 0.803118
0.497602 0.025102 0.807603
0.637087 0.029587 0.812088
0.776572 0.034073 0.816572
0.916057 0.038557 0.821057
0.013808 0.081308 0.796308
0.083550 0.083550 0.798550
0.223035 0.088035 0.803035
0.362520 0.092520 0.807520
0.502005 0.097005 0.812005
0.641490 0.101490 0.816490
0.780975 0.105975 0.820975
0.920460 0.110460 0.825460
0.022612 0.225112 0.805113
0.092355 0.227355 0.807355
0.231840 0.231840 0.811840
0.371325 0.236325 0.816325
0.510810 0.240810 0.820810
0.650295 0.245295 0.825295
0.789780 0.249780 0.829780
0.929265 0.254265 0.834265
0.031417 0.368918 0.813918
0.101160 0.371160 0.816160
0.240645 0.375645 0.820645
0.380130 0.380130 0.825130
0.519615 0.384615 0.829615
0.659100 0.389100 0.834100
0.798585 0.393585 0.838585
0.938070 0.398070 0.843070
0.040222 0.512722 0.822723
0.109965 0.514965 0.824965
0.249450 0.519450 0.829450
0.388935 0.523935 0.833935
0.528420 0.528420 0.838420
0.667905 0.532905 0.842905
0.807390 0.537390 0.847390
0.946875 0.541875 0.851875
0.049028 0.656527 0.831527
0.118770 0.658770 0.833770
0.258255 0.663255 0.838255
0.397740 0.667740 0.842740
0.537225 0.672225 0.847225
0.676710 0.676710 0.851710
0.816195 0.681195 0.856195
0.955680 0.685680 0.860680
0.057832 0.800333 0.840333
0.127575 0.802575 0.842575
0.267060 0.807060 0.847060
0.406545 0.811545 0.851545
0.546030 0.816030 0.856030
0.685515 0.820515 0.860515
0.825000 0.825000 0.865000
0.964485 0.829485 0.869485
0.066638 0.944137 0.849137
0.136380 0.946380 0.851380
0.275865 0.950865 0.855865
0.415350 0.955350 0.860350
0.554835 0.959835 0.864835
0.694320 0.964320 0.869320
0.833805 0.968805 0.873805
0.973290 0.973290 0.878290
0.011115 0.011115 0.928615
0.080857 0.013357 0.930857
0.220342 0.017842 0.935342
0.359827 0.022328 0.939827
0.499312 0.026812 0.944312
0.638797 0.031297 0.948797
0.778282 0.035782 0.953282
0.917767 0.040267 0.957767
0.015517 0.083017 0.933017
0.085260 0.085260 0.935260
0.224745 0.089745 0.939745
0.364230 0.094230 0.944230
0.503715 0.098715 0.948715
0.643200 0.103200 0.953200
0.782685 0.107685 0.957685
0.922170 0.112170 0.962170
0.024322 0.226822 0.941822
0.094065 0.229065 0.944065
0.233550 0.233550 0.948550
0.373035 0.238035 0.953035
0.512520 0.242520 0.957520
0.652005 0.247005 0.962005
0.791490 0.251490 0.966490
0.930975 0.255975 0.970975
0.033127 0.370627 0.950627
0.102870 0.372870 0.952870
0.242355 0.377355 0.957355
0.381840 0.381840 0.961840
0.521325 0.386325 0.966325
0.660810 0.390810 0.970810
0.800295 0.395295 0.975295
0.939780 0.399780 0.979780
0.041932 0.514432 0.959432
0.111675 0.516675 0.961675
0.251160 0.521160 0.966160
0.390645 0.525645 0.970645
0.530130 0.530130 0.975130
0.669615 0.534615 0.979615
0.809100 0.539100 0.984100
0.948585 0.543585 0.988585
0.050737 0.658237 0.968237
0.120480 0.660480 0.970480
0.259965 0.664965 0.974965
0.399450 0.669450 0.979450
0.538935 0.673935 0.983935
0.678420 0.678420 0.988420
0.817905 0.682905 0.992905
0.957390 0.687390 0.997390
0.059542 0.802042 0.977042
0.129285 0.804285 0.979285
0.268770 0.808770 0.983770
0.408255 0.813255 0.988255
0.547740 0.817740 0.992740
0.687225 0.822225 0.997225
0.826710 0.826710 1.000000
0.966195 0.831195 1.000000
0.068348 0.945847 0.985847
0.138090 0.948090 0.988090
0.277575 0.952575 0.992575
0.417060 0.957060 0.997060
0.556545 0.961545 1.000000
0.696030 0.966030 1.000000
0.835515 0.970515 1.000000
0.975000 0.975000 1.000000
