assets/luts/pastel.cube
TITLE "粉彩"
LUT_3D_SIZE 8
DOMAIN_MIN 0.0 0.0 0.0
DOMAIN_MAX 1.0 1.0 1.0
0.090000 0.090000 0.090000
0.200546 0.097689 0.097689
0.311091 0.105377 0.105377
0.421637 0.113066 0.113066
0.532183 0.120754 0.120754
0.642729 0.128443 0.128443
0.753274 0.136131 0.136131
0.863820 0.143820 0.143820
0.105094 0.207951 0.105094
0.215640 0.215640 0.112783
0.326186 0.223329 0.120471
0.436731 0.231017 0.128160
0.547277 0.238706 0.135849
0.657823 0.246394 0.143537
0.768369 0.254083 0.151226
0.878914 0.261771 0.158914
0.120189 0.325903 0.120189
0.230734 0.333591 0.127877
0.341280 0.341280 0.135566
0.451826 0.348969 0.143254
0.562371 0.356657 0.150943
0.672917 0.364346 0.158631
0.783463 0.372034 0.166320
0.894009 0.379723 0.174009
0.135283 0.443854 0.135283
0.245829 0.451543 0.142971
0.356374 0.459231 0.150660
0.466920 0.466920 0.158349
0.577466 0.474609 0.166037
0.688011 0.482297 0.173726
0.798557 0.489986 0.181414
0.909103 0.497674 0.189103
0.150377 0.561806 0.150377
0.260923 0.569494 0.158066
0.371469 0.577183 0.165754
0.482014 0.584871 0.173443
0.592560 0.592560 0.181131
0.703106 0.600249 0.188820
0.813651 0.607937 0.196509
0.924197 0.615626 0.204197
0.165471 0.679757 0.165471
0.276017 0.687446 0.173160
0.386563 0.695134 0.180849
0.497109 0.702823 0.188537
0.607654 0.710511 0.196226
0.718200 0.718200 0.203914
0.828746 0.725889 0.211603
0.939291 0.733577 0.219291
0.180566 0.797709 0.180566
0.291111 0.805397 0.188254
0.401657 0.813086 0.195943
0.512203 0.820774 0.203631
0.622749 0.828463 0.211320
0.733294 0.836151 0.219009
0.843840 0.843840 0.226697
0.954386 0.851529 0.234386
0.195660 0.915660 0.195660
0.306206 0.923349 0.203349
0.416751 0.931037 0.211037
0.527297 0.938726 0.218726
0.637843 0.946414 0.226414
0.748389 0.954103 0.234103
0.858934 0.961791 0.241791
0.969480 0.969480 0.249480
0.092931 0.092931 0.195789
0.203477 0.100620 0.203477
0.314023 0.108309 0.211166
0.424569 0.115997 0.218854
0.535114 0.123686 0.226543
0.645660 0.131374 0.234231
0.756206 0.139063 0.241920
0.866751 0.146751 0.249609
0.108026 0.210883 0.210883
0.218571 0.218571 0.218571
0.329117 0.226260 0.226260
0.439663 0.233949 0.233949
0.550209 0.241637 0.241637
0.660754 0.249326 0.249326
0.771300 0.257014 0.257014
0.881846 0.264703 0.264703
0.123120 0.328834 0.225977
0.233666 0.336523 0.233666
0.344211 0.344211 0.241354
0.454757 0.351900 0.249043
0.565303 0.359589 0.256731
0.675849 0.367277 0.264420
0.786394 0.374966 0.272109
0.896940 0.382654 0.279797
0.138214 0.446786 0.241071
0.248760 0.454474 0.248760
0.359306 0.462163 0.256449
0.469851 0.469851 0.264137
0.580397 0.477540 0.271826
0.690943 0.485229 0.279514
0.801489 0.492917 0.287203
0.912034 0.500606 0.294891
0.153309 0.564737 0.256166
0.263854 0.572426 0.263854
0.374400 0.580114 0.271543
0.484946 0.587803 0.279231
0.595491 0.595491 0.286920
0.706037 0.603180 0.294609
0.816583 0.610869 0.302297
0.927129 0.618557 0.309986
0.168403 0.682689 0.271260
0.278949 0.690377 0.278949
0.389494 0.698066 0.286637
0.500040 0.705754 0.294326
0.610586 0.713443 0.302014
0.721131 0.721131 0.309703
0.831677 0.728820 0.317391
0.942223 0.736509 0.325080
0.183497 0.800640 0.286354
0.294043 0.808329 0.294043
0.404589 0.816017 0.301731
0.515134 0.823706 0.309420
0.625680 0.831394 0.317109
0.736226 0.839083 0.324797
0.846771 0.846771 0.332486
0.957317 0.854460 0.340174
0.198591 0.918591 0.301449
0.309137 0.926280 0.309137
0.419683 0.933969 0.316826
0.530229 0.941657 0.324514
0.640774 0.949346 0.332203
0.751320 0.957034 0.339891
0.861866 0.964723 0.347580
0.972411 0.972411 0.355269
0.095863 0.095863 0.301577
0.206409 0.103551 0.309266
0.316954 0.111240 0.316954
0.427500 0.118929 0.324643
0.538046 0.126617 0.332331
0.648591 0.134306 0.340020
0.759137 0.141994 0.347709
0.869683 0.149683 0.355397
0.110957 0.213814 0.316671
0.221503 0.221503 0.324360
0.332049 0.229191 0.332049
0.442594 0.236880 0.339737
0.553140 0.244569 0.347426
0.663686 0.252257 0.355114
0.774231 0.259946 0.362803
0.884777 0.267634 0.370491
0.126051 0.331766 0.331766
0.236597 0.339454 0.339454
0.347143 0.347143 0.347143
0.457689 0.354831 0.354831
0.568234 0.362520 0.362520
0.678780 0.370209 0.370209
0.789326 0.377897 0.377897
0.899871 0.385586 0.385586
0.141146 0.449717 0.346860
0.251691 0.457406 0.354549
0.362237 0.465094 0.362237
0.472783 0.472783 0.369926
0.583329 0.480471 0.377614
0.693874 0.488160 0.385303
0.804420 0.495849 0.392991
0.914966 0.503537 0.400680
0.156240 0.567669 0.361954
0.266786 0.575357 0.369643
0.377331 0.583046 0.377331
0.487877 0.590734 0.385020
0.598423 0.598423 0.392709
0.708969 0.606111 0.400397
0.819514 0.613800 0.408086
0.930060 0.621489 0.415774
0.171334 0.685620 0.377049
0.281880 0.693309 0.384737
0.392426 0.700997 0.392426
0.502971 0.708686 0.400114
0.613517 0.716374 0.407803
0.724063 0.724063 0.415491
0.834609 0.731751 0.423180
0.945154 0.739440 0.430869
0.186429 0.803571 0.392143
0.296974 0.811260 0.399831
0.407520 0.818949 0.407520
0.518066 0.826637 0.415209
0.628611 0.834326 0.422897
0.739157 0.842014 0.430586
0.849703 0.849703 0.438274
0.960249 0.857391 0.445963
0.201523 0.921523 0.407237
0.312069 0.929211 0.414926
0.422614 0.936900 0.422614
0.533160 0.944589 0.430303
0.643706 0.952277 0.437991
0.754251 0.959966 0.445680
0.864797 0.967654 0.453369
0.975343 0.975343 0.461057
0.098794 0.098794 0.407366
0.209340 0.106483 0.415054
0.319886 0.114171 0.422743
0.430431 0.121860 0.430431
0.540977 0.129549 0.438120
0.651523 0.137237 0.445809
0.762069 0.144926 0.453497
0.872614 0.152614 0.461186
0.113889 0.216746 0.422460
0.224434 0.224434 0.430149
0.334980 0.232123 0.437837
0.445526 0.239811 0.445526
0.556071 0.247500 0.453214
0.666617 0.255189 0.460903
0.777163 0.262877 0.468591
0.887709 0.270566 0.476280
0.128983 0.334697 0.437554
0.239529 0.342386 0.445243
0.350074 0.350074 0.452931
0.460620 0.357763 0.460620
0.571166 0.365451 0.468309
0.681711 0.373140 0.475997
0.792257 0.380829 0.483686
0.902803 0.388517 0.491374
0.144077 0.452649 0.452649
0.254623 0.460337 0.460337
0.365169 0.468026 0.468026
0.475714 0.475714 0.475714
0.586260 0.483403 0.483403
0.696806 0.491091 0.491091
0.807351 0.498780 0.498780
0.917897 0.506469 0.506469
0.159171 0.570600 0.467743
0.269717 0.578289 0.475431
0.380263 0.585977 0.483120
0.490809 0.593666 0.490809
0.601354 0.601354 0.498497
0.711900 0.609043 0.506186
0.822446 0.616731 0.513874
0.932991 0.624420 0.521563
0.174266 0.688551 0.482837
0.284811 0.696240 0.490526
0.395357 0.703929 0.498214
0.505903 0.711617 0.505903
0.616449 0.719306 0.513591
0.726994 0.726994 0.521280
0.837540 0.734683 0.528969
0.948086 0.742371 0.536657
0.189360 0.806503 0.497931
0.299906 0.814191 0.505620
0.410451 0.821880 0.513309
0.520997 0.829569 0.520997
0.631543 0.837257 0.528686
0.742089 0.844946 0.536374
0.852634 0.852634 0.544063
0.963180 0.860323 0.551751
0.204454 0.924454 0.513026
0.315000 0.932143 0.520714
0.425546 0.939831 0.528403
0.536091 0.947520 0.536091
0.646637 0.955209 0.543780
0.757183 0.962897 0.551469
0.867729 0.970586 0.559157
0.978274 0.978274 0.566846
0.101726 0.101726 0.513154
0.212271 0.109414 0.520843
0.322817 0.117103 0.528531
0.433363 0.124791 0.536220
0.543909 0.132480 0.543909
0.654454 0.140169 0.551597
0.765000 0.147857 0.559286
0.875546 0.155546 0.566974
0.116820 0.219677 0.528249
0.227366 0.227366 0.535937
0.337911 0.235054 0.543626
0.448457 0.242743 0.551314
0.559003 0.250431 0.559003
0.669549 0.258120 0.566691
0.780094 0.265809 0.574380
0.890640 0.273497 0.582069
0.131914 0.337629 0.543343
0.242460 0.345317 0.551031
0.353006 0.353006 0.558720
0.463551 0.360694 0.566409
0.574097 0.368383 0.574097
0.684643 0.376071 0.581786
0.795189 0.383760 0.589474
0.905734 0.391449 0.597163
0.147009 0.455580 0.558437
0.257554 0.463269 0.566126
0.368100 0.470957 0.573814
0.478646 0.478646 0.581503
0.589191 0.486334 0.589191
0.699737 0.494023 0.596880
0.810283 0.501711 0.604569
0.920829 0.509400 0.612257
0.162103 0.573531 0.573531
0.272649 0.581220 0.581220
0.383194 0.588909 0.588909
0.493740 0.596597 0.596597
0.604286 0.604286 0.604286
0.714831 0.611974 0.611974
0.825377 0.619663 0.619663
0.935923 0.627351 0.627351
0.177197 0.691483 0.588626
0.287743 0.699171 0.596314
0.398289 0.706860 0.604003
0.508834 0.714549 0.611691
0.619380 0.722237 0.619380
0.729926 0.729926 0.627069
0.840471 0.737614 0.634757
0.951017 0.745303 0.642446
0.192291 0.809434 0.603720
0.302837 0.817123 0.611409
0.413383 0.824811 0.619097
0.523929 0.832500 0.626786
0.634474 0.840189 0.634474
0.745020 0.847877 0.642163
0.855566 0.855566 0.649851
0.966111 0.863254 0.657540
0.207386 0.927386 0.618814
0.317931 0.935074 0.626503
0.428477 0.942763 0.634191
0.539023 0.950451 0.641880
0.649569 0.958140 0.649569
0.760114 0.965829 0.657257
0.870660 0.973517 0.664946
0.981206 0.981206 0.672634
0.104657 0.104657 0.618943
0.215203 0.112346 0.626631
0.325749 0.120034 0.634320
0.436294 0.127723 0.642009
0.546840 0.135411 0.649697
0.657386 0.143100 0.657386
0.767931 0.150789 0.665074
0.878477 0.158477 0.672763
0.119751 0.222609 0.634037
0.230297 0.230297 0.641726
0.340843 0.237986 0.649414
0.451389 0.245674 0.657103
0.561934 0.253363 0.664791
0.672480 0.261051 0.672480
0.783026 0.268740 0.680169
0.893571 0.276429 0.687857
0.134846 0.340560 0.649131
0.245391 0.348249 0.656820
0.355937 0.355937 0.664509
0.466483 0.363626 0.672197
0.577029 0.371314 0.679886
0.687574 0.379003 0.687574
0.798120 0.386691 0.695263
0.908666 0.394380 0.702951
0.149940 0.458511 0.664226
0.260486 0.466200 0.671914
0.371031 0.473889 0.679603
0.481577 0.481577 0.687291
0.592123 0.489266 0.694980
0.702669 0.496954 0.702669
0.813214 0.504643 0.710357
0.923760 0.512331 0.718046
0.165034 0.576463 0.679320
0.275580 0.584151 0.687009
0.386126 0.591840 0.694697
0.496671 0.599529 0.702386
0.607217 0.607217 0.710074
0.717763 0.614906 0.717763
0.828309 0.622594 0.725451
0.938854 0.630283 0.733140
0.180129 0.694414 0.694414
0.290674 0.702103 0.702103
0.401220 0.709791 0.709791
0.511766 0.717480 0.717480
0.622311 0.725169 0.725169
0.732857 0.732857 0.732857
0.843403 0.740546 0.740546
0.953949 0.748234 0.748234
0.195223 0.812366 0.709509
0.305769 0.820054 0.717197
0.416314 0.827743 0.724886
0.526860 0.835431 0.732574
0.637406 0.843120 0.740263
0.747951 0.850809 0.747951
0.858497 0.858497 0.755640
0.969043 0.866186 0.763329
0.210317 0.930317 0.724603
0.320863 0.938006 0.732291
0.431409 0.945694 0.739980
0.541954 0.953383 0.747669
0.652500 0.961071 0.755357
0.763046 0.968760 0.763046
0.873591 0.976449 0.770734
0.984137 0.984137 0.778423
0.107589 0.107589 0.724731
0.218134 0.115277 0.732420
0.328680 0.122966 0.740109
0.439226 0.130654 0.747797
0.549771 0.138343 0.755486
0.660317 0.146031 0.763174
0.770863 0.153720 0.770863
0.881409 0.161409 0.778551
0.122683 0.225540 0.739826
0.233229 0.233229 0.747514
0.343774 0.240917 0.755203
0.454320 0.248606 0.762891
0.564866 0.256294 0.770580
0.675411 0.263983 0.778269
0.785957 0.271671 0.785957
0.896503 0.279360 0.793646
0.137777 0.343491 0.754920
0.248323 0.351180 0.762609
0.358869 0.358869 0.770297
0.469414 0.366557 0.777986
0.579960 0.374246 0.785674
0.690506 0.381934 0.793363
0.801051 0.389623 0.801051
0.911597 0.397311 0.808740
0.152871 0.461443 0.770014
0.263417 0.469131 0.777703
0.373963 0.476820 0.785391
0.484509 0.484509 0.793080
0.595054 0.492197 0.800769
0.705600 0.499886 0.808457
0.816146 0.507574 0.816146
0.926691 0.515263 0.823834
0.167966 0.579394 0.785109
0.278511 0.587083 0.792797
0.389057 0.594771 0.800486
0.499603 0.602460 0.808174
0.610149 0.610149 0.815863
0.720694 0.617837 0.823551
0.831240 0.625526 0.831240
0.941786 0.633214 0.838929
0.183060 0.697346 0.800203
0.293606 0.705034 0.807891
0.404151 0.712723 0.815580
0.514697 0.720411 0.823269
0.625243 0.728100 0.830957
0.735789 0.735789 0.838646
0.846334 0.743477 0.846334
0.956880 0.751166 0.854023
0.198154 0.815297 0.815297
0.308700 0.822986 0.822986
0.419246 0.830674 0.830674
0.529791 0.838363 0.838363
0.640337 0.846051 0.846051
0.750883 0.853740 0.853740
0.861429 0.861429 0.861429
0.971974 0.869117 0.869117
0.213249 0.933249 0.830391
0.323794 0.940937 0.838080
0.434340 0.948626 0.845769
0.544886 0.956314 0.853457
0.655431 0.964003 0.861146
0.765977 0.971691 0.868834
0.876523 0.979380 0.876523
0.987069 0.987069 0.884211
0.110520 0.110520 0.830520
0.221066 0.118209 0.838209
0.331611 0.125897 0.845897
0.442157 0.133586 0.853586
0.552703 0.141274 0.861274
0.663249 0.148963 0.868963
0.773794 0.156651 0.876651
0.884340 0.164340 0.884340
0.125614 0.228471 0.845614
0.236160 0.236160 0.853303
0.346706 0.243849 0.860991
0.457251 0.251537 0.868680
0.567797 0.259226 0.876369
0.678343 0.266914 0.884057
0.788889 0.274603 0.891746
0.899434 0.282291 0.899434
0.140709 0.346423 0.860709
0.251254 0.354111 0.868397
0.361800 0.361800 0.876086
0.472346 0.369489 0.883774
0.582891 0.377177 0.891463
0.693437 0.384866 0.899151
0.803983 0.392554 0.906840
0.914529 0.400243 0.914529
0.155803 0.464374 0.875803
0.266349 0.472063 0.883491
0.376894 0.479751 0.891180
0.487440 0.487440 0.898869
0.597986 0.495129 0.906557
0.708531 0.502817 0.914246
0.819077 0.510506 0.921934
0.929623 0.518194 0.929623
0.170897 0.582326 0.890897
0.281443 0.590014 0.898586
0.391989 0.597703 0.906274
0.502534 0.605391 0.913963
0.613080 0.613080 0.921651
0.723626 0.620769 0.929340
0.834171 0.628457 0.937029
0.944717 0.636146 0.944717
0.185991 0.700277 0.905991
0.296537 0.707966 0.913680
0.407083 0.715654 0.921369
0.517629 0.723343 0.929057
0.628174 0.731031 0.936746
0.738720 0.738720 0.944434
0.849266 0.746409 0.952123
0.959811 0.754097 0.959811
0.201086 0.818229 0.921086
0.311631 0.825917 0.928774
0.422177 0.833606 0.936463
0.532723 0.841294 0.944151
0.643269 0.848983 0.951840
0.753814 0.856671 0.959529
0.864360 0.864360 0.967217
0.974906 0.872049 0.974906
0.216180 0.936180 0.936180
0.326726 0.943869 0.943869
0.437271 0.951557 0.951557
0.547817 0.959246 0.959246
0.658363 0.966934 0.966934
0.768909 0.974623 0.974623
0.879454 0.982311 0.982311
0.990000 0.990000 0.990000
