assets/luts/portrait.cube
TITLE "人像"
LUT_3D_SIZE 8
DOMAIN_MIN 0.0 0.0 0.0
DOMAIN_MAX 1.0 1.0 1.0
0.030000 0.010000 0.010000
0.174907 0.007907 0.007907
0.319814 0.005814 0.005814
0.464721 0.003721 0.003721
0.609628 0.001628 0.001628
0.754535 0.000000 0.000000
0.899442 0.000000 0.000000
1.000000 0.000000 0.000000
0.025891 0.152891 0.005891
0.170798 0.150798 0.003798
0.315705 0.148705 0.001705
0.460612 0.146612 0.000000
0.605519 0.144519 0.000000
0.750426 0.142426 0.000000
0.895333 0.140333 0.000000
1.000000 0.138240 0.000000
0.021782 0.295782 0.001782
0.166689 0.293689 0.000000
0.311596 0.291596 0.000000
0.456503 0.289503 0.000000
0.601410 0.287410 0.000000
0.746317 0.285317 0.000000
0.891224 0.283224 0.000000
1.000000 0.281131 0.000000
0.017673 0.438673 0.000000
0.162580 0.436580 0.000000
0.307487 0.434487 0.000000
0.452394 0.432394 0.000000
0.597301 0.430301 0.000000
0.742208 0.428208 0.000000
0.887115 0.426115 0.000000
1.000000 0.424022 0.000000
0.013564 0.581564 0.000000
0.158471 0.579471 0.000000
0.303378 0.577378 0.000000
0.448285 0.575285 0.000000
0.593192 0.573192 0.000000
0.738099 0.571099 0.000000
0.883006 0.569006 0.000000
1.000000 0.566913 0.000000
0.009455 0.724455 0.000000
0.154362 0.722362 0.000000
0.299269 0.720269 0.000000
0.444176 0.718176 0.000000
0.589083 0.716083 0.000000
0.733990 0.713990 0.000000
0.878897 0.711897 0.000000
1.000000 0.709804 0.000000
0.005346 0.867346 0.000000
0.150253 0.865253 0.000000
0.295160 0.863160 0.000000
0.440067 0.861067 0.000000
0.584974 0.858974 0.000000
0.729881 0.856881 0.000000
0.874788 0.854788 0.000000
1.000000 0.852695 0.000000
0.001237 1.000000 0.000000
0.146144 1.000000 0.000000
0.291051 1.000000 0.000000
0.435958 1.000000 0.000000
0.580865 1.000000 0.000000
0.725772 0.999772 0.000000
0.870679 0.997679 0.000000
1.000000 0.995586 0.000000
0.029202 0.009202 0.156202
0.174109 0.007109 0.154109
0.319016 0.005016 0.152016
0.463923 0.002923 0.149923
0.608830 0.000830 0.147830
0.753737 0.000000 0.145737
0.898644 0.000000 0.143644
1.000000 0.000000 0.141551
0.025093 0.152093 0.152093
0.170000 0.150000 0.150000
0.314907 0.147907 0.147907
0.459814 0.145814 0.145814
0.604721 0.143721 0.143721
0.749628 0.141628 0.141628
0.894535 0.139535 0.139535
1.000000 0.137442 0.137442
0.020984 0.294984 0.147984
0.165891 0.292891 0.145891
0.310798 0.290798 0.143798
0.455705 0.288705 0.141705
0.600612 0.286612 0.139612
0.745519 0.284519 0.137519
0.890426 0.282426 0.135426
1.000000 0.280333 0.133333
0.016875 0.437875 0.143875
0.161782 0.435782 0.141782
0.306689 0.433689 0.139689
0.451596 0.431596 0.137596
0.596503 0.429503 0.135503
0.741410 0.427410 0.133410
0.886317 0.425317 0.131317
1.000000 0.423224 0.129224
0.012766 0.580766 0.139766
0.157673 0.578673 0.137673
0.302580 0.576580 0.135580
0.447487 0.574487 0.133487
0.592394 0.572394 0.131394
0.737301 0.570301 0.129301
0.882208 0.568208 0.127208
1.000000 0.566115 0.125115
0.008657 0.723657 0.135657
0.153564 0.721564 0.133564
0.298471 0.719471 0.131471
0.443378 0.717378 0.129378
0.588285 0.715285 0.127285
0.733192 0.713192 0.125192
0.878099 0.711099 0.123099
1.000000 0.709006 0.121006
0.004548 0.866548 0.131548
0.149455 0.864455 0.129455
0.294362 0.862362 0.127362
0.439269 0.860269 0.125269
0.584176 0.858176 0.123176
0.729083 0.856083 0.121083
0.873990 0.853990 0.118990
1.000000 0.851897 0.116897
0.000439 1.000000 0.127439
0.145346 1.000000 0.125346
0.290253 1.000000 0.123253
0.435160 1.000000 0.121160
0.580067 1.000000 0.119067
0.724974 0.998974 0.116974
0.869881 0.996881 0.114881
1.000000 0.994788 0.112788
0.028404 0.008404 0.302404
0.173311 0.006311 0.300311
0.318218 0.004218 0.298218
0.463125 0.002125 0.296125
0.608032 0.000032 0.294032
0.752939 0.000000 0.291939
0.897846 0.000000 0.289846
1.000000 0.000000 0.287753
0.024295 0.151295 0.298295
0.169202 0.149202 0.296202
0.314109 0.147109 0.294109
0.459016 0.145016 0.292016
0.603923 0.142923 0.289923
0.748830 0.140830 0.287830
0.893737 0.138737 0.285737
1.000000 0.136644 0.283644
0.020186 0.294186 0.294186
0.165093 0.292093 0.292093
0.310000 0.290000 0.290000
0.454907 0.287907 0.287907
0.599814 0.285814 0.285814
0.744721 0.283721 0.283721
0.889628 0.281628 0.281628
1.000000 0.279535 0.279535
0.016077 0.437077 0.290077
0.160984 0.434984 0.287984
0.305891 0.432891 0.285891
0.450798 0.430798 0.283798
0.595705 0.428705 0.281705
0.740612 0.426612 0.279612
0.885519 0.424519 0.277519
1.000000 0.422426 0.275426
0.011968 0.579968 0.285968
0.156875 0.577875 0.283875
0.301782 0.575782 0.281782
0.446689 0.573689 0.279689
0.591596 0.571596 0.277596
0.736503 0.569503 0.275503
0.881410 0.567410 0.273410
1.000000 0.565317 0.271317
0.007859 0.722859 0.281859
0.152766 0.720766 0.279766
0.297673 0.718673 0.277673
0.442580 0.716580 0.275580
0.587487 0.714487 0.273487
0.732394 0.712394 0.271394
0.877301 0.710301 0.269301
1.000000 0.708208 0.267208
0.003750 0.865750 0.277750
0.148657 0.863657 0.275657
0.293564 0.861564 0.273564
0.438471 0.859471 0.271471
0.583378 0.857378 0.269378
0.728285 0.855285 0.267285
0.873192 0.853192 0.265192
1.000000 0.851099 0.263099
0.000000 1.000000 0.273641
0.144548 1.000000 0.271548
0.289455 1.000000 0.269455
0.434362 1.000000 0.267362
0.579269 1.000000 0.265269
0.724176 0.998176 0.263176
0.869083 0.996083 0.261083
1.000000 0.993990 0.258990
0.027606 0.007606 0.448606
0.172513 0.005513 0.446513
0.317420 0.003420 0.444420
0.462327 0.001327 0.442327
0.607234 0.000000 0.440234
0.752141 0.000000 0.438141
0.897048 0.000000 0.436048
1.000000 0.000000 0.433955
0.023497 0.150497 0.444497
0.168404 0.148404 0.442404
0.313311 0.146311 0.440311
0.458218 0.144218 0.438218
0.603125 0.142125 0.436125
0.748032 0.140032 0.434032
0.892939 0.137939 0.431939
1.000000 0.135846 0.429846
0.019388 0.293388 0.440388
0.164295 0.291295 0.438295
0.309202 0.289202 0.436202
0.454109 0.287109 0.434109
0.599016 0.285016 0.432016
0.743923 0.282923 0.429923
0.888830 0.280830 0.427830
1.000000 0.278737 0.425737
0.015279 0.436279 0.436279
0.160186 0.434186 0.434186
0.305093 0.432093 0.432093
0.450000 0.430000 0.430000
0.594907 0.427907 0.427907
0.739814 0.425814 0.425814
0.884721 0.423721 0.423721
1.000000 0.421628 0.421628
0.011170 0.579170 0.432170
0.156077 0.577077 0.430077
0.300984 0.574984 0.427984
0.445891 0.572891 0.425891
0.590798 0.570798 0.423798
0.735705 0.568705 0.421705
0.880612 0.566612 0.419612
1.000000 0.564519 0.417519
0.007061 0.722061 0.428061
0.151968 0.719968 0.425968
0.296875 0.717875 0.423875
0.441782 0.715782 0.421782
0.586689 0.713689 0.419689
0.731596 0.711596 0.417596
0.876503 0.709503 0.415503
1.000000 0.707410 0.413410
0.002952 0.864952 0.423952
0.147859 0.862859 0.421859
0.292766 0.860766 0.419766
0.437673 0.858673 0.417673
0.582580 0.856580 0.415580
0.727487 0.854487 0.413487
0.872394 0.852394 0.411394
1.000000 0.850301 0.409301
0.000000 1.000000 0.419843
0.143750 1.000000 0.417750
0.288657 1.000000 0.415657
0.433564 1.000000 0.413564
0.578471 0.999471 0.411471
0.723378 0.997378 0.409378
0.868285 0.995285 0.407285
1.000000 0.993192 0.405192
0.026808 0.006808 0.594808
0.171715 0.004715 0.592715
0.316622 0.002622 0.590622
0.461529 0.000529 0.588529
0.606436 0.000000 0.586436
0.751343 0.000000 0.584343
0.896250 0.000000 0.582250
1.000000 0.000000 0.580157
0.022699 0.149699 0.590699
0.167606 0.147606 0.588606
0.312513 0.145513 0.586513
0.457420 0.143420 0.584420
0.602327 0.141327 0.582327
0.747234 0.139234 0.580234
0.892141 0.137141 0.578141
1.000000 0.135048 0.576048
0.018590 0.292590 0.586590
0.163497 0.290497 0.584497
0.308404 0.288404 0.582404
0.453311 0.286311 0.580311
0.598218 0.284218 0.578218
0.743125 0.282125 0.576125
0.888032 0.280032 0.574032
1.000000 0.277939 0.571939
0.014481 0.435481 0.582481
0.159388 0.433388 0.580388
0.304295 0.431295 0.578295
0.449202 0.429202 0.576202
0.594109 0.427109 0.574109
0.739016 0.425016 0.572016
0.883923 0.422923 0.569923
1.000000 0.420830 0.567830
0.010372 0.578372 0.578372
0.155279 0.576279 0.576279
0.300186 0.574186 0.574186
0.445093 0.572093 0.572093
0.590000 0.570000 0.570000
0.734907 0.567907 0.567907
0.879814 0.565814 0.565814
1.000000 0.563721 0.563721
0.006263 0.721263 0.574263
0.151170 0.719170 0.572170
0.296077 0.717077 0.570077
0.440984 0.714984 0.567984
0.585891 0.712891 0.565891
0.730798 0.710798 0.563798
0.875705 0.708705 0.561705
1.000000 0.706612 0.559612
0.002154 0.864154 0.570154
0.147061 0.862061 0.568061
0.291968 0.859968 0.565968
0.436875 0.857875 0.563875
0.581782 0.855782 0.561782
0.726689 0.853689 0.559689
0.871596 0.851596 0.557596
1.000000 0.849503 0.555503
0.000000 1.000000 0.566045
0.142952 1.000000 0.563952
0.287859 1.000000 0.561859
0.432766 1.000000 0.559766
0.577673 0.998673 0.557673
0.722580 0.996580 0.555580
0.867487 0.994487 0.553487
1.000000 0.992394 0.551394
0.026010 0.006010 0.741010
0.170917 0.003917 0.738917
0.315824 0.001824 0.736824
0.460731 0.000000 0.734731
0.605638 0.000000 0.732638
0.750545 0.000000 0.730545
0.895452 0.000000 0.728452
1.000000 0.000000 0.726359
0.021901 0.148901 0.736901
0.166808 0.146808 0.734808
0.311715 0.144715 0.732715
0.456622 0.142622 0.730622
0.601529 0.140529 0.728529
0.746436 0.138436 0.726436
0.891343 0.136343 0.724343
1.000000 0.134250 0.722250
0.017792 0.291792 0.732792
0.162699 0.289699 0.730699
0.307606 0.287606 0.728606
0.452513 0.285513 0.726513
0.597420 0.283420 0.724420
0.742327 0.281327 0.722327
0.887234 0.279234 0.720234
1.000000 0.277141 0.718141
0.013683 0.434683 0.728683
0.158590 0.432590 0.726590
0.303497 0.430497 0.724497
0.448404 0.428404 0.722404
0.593311 0.426311 0.720311
0.738218 0.424218 0.718218
0.883125 0.422125 0.716125
1.000000 0.420032 0.714032
0.009574 0.577574 0.724574
0.154481 0.575481 0.722481
0.299388 0.573388 0.720388
0.444295 0.571295 0.718295
0.589202 0.569202 0.716202
0.734109 0.567109 0.714109
0.879016 0.565016 0.712016
1.000000 0.562923 0.709923
0.005465 0.720465 0.720465
0.150372 0.718372 0.718372
0.295279 0.716279 0.716279
0.440186 0.714186 0.714186
0.585093 0.712093 0.712093
0.730000 0.710000 0.710000
0.874907 0.707907 0.707907
1.000000 0.705814 0.705814
0.001356 0.863356 0.716356
0.146263 0.861263 0.714263
0.291170 0.859170 0.712170
0.436077 0.857077 0.710077
0.580984 0.854984 0.707984
0.725891 0.852891 0.705891
0.870798 0.850798 0.703798
1.000000 0.848705 0.701705
0.000000 1.000000 0.712247
0.142154 1.000000 0.710154
0.287061 1.000000 0.708061
0.431968 0.999968 0.705968
0.576875 0.997875 0.703875
0.721782 0.995782 0.701782
0.866689 0.993689 0.699689
1.000000 0.991596 0.697596
0.025212 0.005212 0.887212
0.170119 0.003119 0.885119
0.315026 0.001026 0.883026
0.459933 0.000000 0.880933
0.604840 0.000000 0.878840
0.749747 0.000000 0.876747
0.894654 0.000000 0.874654
1.000000 0.000000 0.872561
0.021103 0.148103 0.883103
0.166010 0.146010 0.881010
0.310917 0.143917 0.878917
0.455824 0.141824 0.876824
0.600731 0.139731 0.874731
0.745638 0.137638 0.872638
0.890545 0.135545 0.870545
1.000000 0.133452 0.868452
0.016994 0.290994 0.878994
0.161901 0.288901 0.876901
0.306808 0.286808 0.874808
0.451715 0.284715 0.872715
0.596622 0.282622 0.870622
0.741529 0.280529 0.868529
0.886436 0.278436 0.866436
1.000000 0.276343 0.864343
0.012885 0.433885 0.874885
0.157792 0.431792 0.872792
0.302699 0.429699 0.870699
0.447606 0.427606 0.868606
0.592513 0.425513 0.866513
0.737420 0.423420 0.864420
0.882327 0.421327 0.862327
1.000000 0.419234 0.860234
0.008776 0.576776 0.870776
0.153683 0.574683 0.868683
0.298590 0.572590 0.866590
0.443497 0.570497 0.864497
0.588404 0.568404 0.862404
0.733311 0.566311 0.860311
0.878218 0.564218 0.858218
1.000000 0.562125 0.856125
0.004667 0.719667 0.866667
0.149574 0.717574 0.864574
0.294481 0.715481 0.862481
0.439388 0.713388 0.860388
0.584295 0.711295 0.858295
0.729202 0.709202 0.856202
0.874109 0.707109 0.854109
1.000000 0.705016 0.852016
0.000558 0.862558 0.862558
0.145465 0.860465 0.860465
0.290372 0.858372 0.858372
0.435279 0.856279 0.856279
0.580186 0.854186 0.854186
0.725093 0.852093 0.852093
0.870000 0.850000 0.850000
1.000000 0.847907 0.847907
0.000000 1.000000 0.858449
0.141356 1.000000 0.856356
0.286263 1.000000 0.854263
0.431170 0.999170 0.852170
0.576077 0.997077 0.850077
0.720984 0.994984 0.847984
0.865891 0.992891 0.845891
1.000000 0.990798 0.843798
0.024414 0.004414 1.000000
0.169321 0.002321 1.000000
0.314228 0.000228 1.000000
0.459135 0.000000 1.000000
0.604042 0.000000 1.000000
0.748949 0.000000 1.000000
0.893856 0.000000 1.000000
1.000000 0.000000 1.000000
0.020305 0.147305 1.000000
0.165212 0.145212 1.000000
0.310119 0.143119 1.000000
0.455026 0.141026 1.000000
0.599933 0.138933 1.000000
0.744840 0.136840 1.000000
0.889747 0.134747 1.000000
1.000000 0.132654 1.000000
0.016196 0.290196 1.000000
0.161103 0.288103 1.000000
0.306010 0.286010 1.000000
0.450917 0.283917 1.000000
0.595824 0.281824 1.000000
0.740731 0.279731 1.000000
0.885638 0.277638 1.000000
1.000000 0.275545 1.000000
0.012087 0.433087 1.000000
0.156994 0.430994 1.000000
0.301901 0.428901 1.000000
0.446808 0.426808 1.000000
0.591715 0.424715 1.000000
0.736622 0.422622 1.000000
0.881529 0.420529 1.000000
1.000000 0.418436 1.000000
0.007978 0.575978 1.000000
0.152885 0.573885 1.000000
0.297792 0.571792 1.000000
0.442699 0.569699 1.000000
0.587606 0.567606 1.000000
0.732513 0.565513 1.000000
0.877420 0.563420 1.000000
1.000000 0.561327 1.000000
0.003869 0.718869 1.000000
0.148776 0.716776 1.000000
0.293683 0.714683 1.000000
0.438590 0.712590 1.000000
0.583497 0.710497 1.000000
0.728404 0.708404 1.000000
0.873311 0.706311 1.000000
1.000000 0.704218 0.998218
0.000000 0.861760 1.000000
0.144667 0.859667 1.000000
0.289574 0.857574 1.000000
0.434481 0.855481 1.000000
0.579388 0.853388 1.000000
0.724295 0.851295 0.998295
0.869202 0.849202 0.996202
1.000000 0.847109 0.994109
0.000000 1.000000 1.000000
0.140558 1.000000 1.000000
0.285465 1.000000 1.000000
0.430372 0.998372 0.998372
0.575279 0.996279 0.996279
0.720186 0.994186 0.994186
0.865093 0.992093 0.992093
1.000000 0.990000 0.990000
