assets/luts/sepia.cube
TITLE "棕褐"
LUT_3D_SIZE 8
DOMAIN_MIN 0.0 0.0 0.0
DOMAIN_MAX 1.0 1.0 1.0
0.080000 0.020000 0.000000
0.192814 0.032814 0.000000
0.305629 0.045629 0.000000
0.418443 0.058443 0.000000
0.531257 0.071257 0.011257
0.644071 0.084071 0.024071
0.756886 0.096886 0.036886
0.869700 0.109700 0.049700
0.105157 0.145157 0.000000
0.217971 0.157971 0.000000
0.330786 0.170786 0.010786
0.443600 0.183600 0.023600
0.556414 0.196414 0.036414
0.669229 0.209229 0.049229
0.782043 0.222043 0.062043
0.894857 0.234857 0.074857
0.130314 0.270314 0.010314
0.243129 0.283129 0.023129
0.355943 0.295943 0.035943
0.468757 0.308757 0.048757
0.581571 0.321571 0.061571
0.694386 0.334386 0.074386
0.807200 0.347200 0.087200
0.920014 0.360014 0.100014
0.155471 0.395471 0.035471
0.268286 0.408286 0.048286
0.381100 0.421100 0.061100
0.493914 0.433914 0.073914
0.606729 0.446729 0.086729
0.719543 0.459543 0.099543
0.832357 0.472357 0.112357
0.945171 0.485171 0.125171
0.180629 0.520629 0.060629
0.293443 0.533443 0.073443
0.406257 0.546257 0.086257
0.519071 0.559071 0.099071
0.631886 0.571886 0.111886
0.744700 0.584700 0.124700
0.857514 0.597514 0.137514
0.970329 0.610329 0.150329
0.205786 0.645786 0.085786
0.318600 0.658600 0.098600
0.431414 0.671414 0.111414
0.544229 0.684229 0.124229
0.657043 0.697043 0.137043
0.769857 0.709857 0.149857
0.882671 0.722671 0.162671
0.995486 0.735486 0.175486
0.230943 0.770943 0.110943
0.343757 0.783757 0.123757
0.456571 0.796571 0.136571
0.569386 0.809386 0.149386
0.682200 0.822200 0.162200
0.795014 0.835014 0.175014
0.907829 0.847829 0.187829
1.000000 0.860643 0.200643
0.256100 0.896100 0.136100
0.368914 0.908914 0.148914
0.481729 0.921729 0.161729
0.594543 0.934543 0.174543
0.707357 0.947357 0.187357
0.820171 0.960171 0.200171
0.932986 0.972986 0.212986
1.000000 0.985800 0.225800
0.084886 0.024886 0.064886
0.197700 0.037700 0.077700
0.310514 0.050514 0.090514
0.423329 0.063329 0.103329
0.536143 0.076143 0.116143
0.648957 0.088957 0.128957
0.761771 0.101771 0.141771
0.874586 0.114586 0.154586
0.110043 0.150043 0.090043
0.222857 0.162857 0.102857
0.335671 0.175671 0.115671
0.448486 0.188486 0.128486
0.561300 0.201300 0.141300
0.674114 0.214114 0.154114
0.786929 0.226929 0.166929
0.899743 0.239743 0.179743
0.135200 0.275200 0.115200
0.248014 0.288014 0.128014
0.360829 0.300829 0.140829
0.473643 0.313643 0.153643
0.586457 0.326457 0.166457
0.699271 0.339271 0.179271
0.812086 0.352086 0.192086
0.924900 0.364900 0.204900
0.160357 0.400357 0.140357
0.273171 0.413171 0.153171
0.385986 0.425986 0.165986
0.498800 0.438800 0.178800
0.611614 0.451614 0.191614
0.724429 0.464429 0.204429
0.837243 0.477243 0.217243
0.950057 0.490057 0.230057
0.185514 0.525514 0.165514
0.298329 0.538329 0.178329
0.411143 0.551143 0.191143
0.523957 0.563957 0.203957
0.636771 0.576771 0.216771
0.749586 0.589586 0.229586
0.862400 0.602400 0.242400
0.975214 0.615214 0.255214
0.210671 0.650671 0.190671
0.323486 0.663486 0.203486
0.436300 0.676300 0.216300
0.549114 0.689114 0.229114
0.661929 0.701929 0.241929
0.774743 0.714743 0.254743
0.887557 0.727557 0.267557
1.000000 0.740371 0.280371
0.235829 0.775829 0.215829
0.348643 0.788643 0.228643
0.461457 0.801457 0.241457
0.574271 0.814271 0.254271
0.687086 0.827086 0.267086
0.799900 0.839900 0.279900
0.912714 0.852714 0.292714
1.000000 0.865529 0.305529
0.260986 0.900986 0.240986
0.373800 0.913800 0.253800
0.486614 0.926614 0.266614
0.599429 0.939429 0.279429
0.712243 0.952243 0.292243
0.825057 0.965057 0.305057
0.937871 0.977871 0.317871
1.000000 0.990686 0.330686
0.089771 0.029771 0.169771
0.202586 0.042586 0.182586
0.315400 0.055400 0.195400
0.428214 0.068214 0.208214
0.541029 0.081029 0.221029
0.653843 0.093843 0.233843
0.766657 0.106657 0.246657
0.879471 0.119471 0.259471
0.114929 0.154929 0.194929
0.227743 0.167743 0.207743
0.340557 0.180557 0.220557
0.453371 0.193371 0.233371
0.566186 0.206186 0.246186
0.679000 0.219000 0.259000
0.791814 0.231814 0.271814
0.904629 0.244629 0.284629
0.140086 0.280086 0.220086
0.252900 0.292900 0.232900
0.365714 0.305714 0.245714
0.478529 0.318529 0.258529
0.591343 0.331343 0.271343
0.704157 0.344157 0.284157
0.816971 0.356971 0.296971
0.929786 0.369786 0.309786
0.165243 0.405243 0.245243
0.278057 0.418057 0.258057
0.390871 0.430871 0.270871
0.503686 0.443686 0.283686
0.616500 0.456500 0.296500
0.729314 0.469314 0.309314
0.842129 0.482129 0.322129
0.954943 0.494943 0.334943
0.190400 0.530400 0.270400
0.303214 0.543214 0.283214
0.416029 0.556029 0.296029
0.528843 0.568843 0.308843
0.641657 0.581657 0.321657
0.754471 0.594471 0.334471
0.867286 0.607286 0.347286
0.980100 0.620100 0.360100
0.215557 0.655557 0.295557
0.328371 0.668371 0.308371
0.441186 0.681186 0.321186
0.554000 0.694000 0.334000
0.666814 0.706814 0.346814
0.779629 0.719629 0.359629
0.892443 0.732443 0.372443
1.000000 0.745257 0.385257
0.240714 0.780714 0.320714
0.353529 0.793529 0.333529
0.466343 0.806343 0.346343
0.579157 0.819157 0.359157
0.691971 0.831971 0.371971
0.804786 0.844786 0.384786
0.917600 0.857600 0.397600
1.000000 0.870414 0.410414
0.265871 0.905871 0.345871
0.378686 0.918686 0.358686
0.491500 0.931500 0.371500
0.604314 0.944314 0.384314
0.717129 0.957129 0.397129
0.829943 0.969943 0.409943
0.942757 0.982757 0.422757
1.000000 0.995571 0.435571
0.094657 0.034657 0.274657
0.207471 0.047471 0.287471
0.320286 0.060286 0.300286
0.433100 0.073100 0.313100
0.545914 0.085914 0.325914
0.658729 0.098729 0.338729
0.771543 0.111543 0.351543
0.884357 0.124357 0.364357
0.119814 0.159814 0.299814
0.232629 0.172629 0.312629
0.345443 0.185443 0.325443
0.458257 0.198257 0.338257
0.571071 0.211071 0.351071
0.683886 0.223886 0.363886
0.796700 0.236700 0.376700
0.909514 0.249514 0.389514
0.144971 0.284971 0.324971
0.257786 0.297786 0.337786
0.370600 0.310600 0.350600
0.483414 0.323414 0.363414
0.596229 0.336229 0.376229
0.709043 0.349043 0.389043
0.821857 0.361857 0.401857
0.934671 0.374671 0.414671
0.170129 0.410129 0.350129
0.282943 0.422943 0.362943
0.395757 0.435757 0.375757
0.508571 0.448571 0.388571
0.621386 0.461386 0.401386
0.734200 0.474200 0.414200
0.847014 0.487014 0.427014
0.959829 0.499829 0.439829
0.195286 0.535286 0.375286
0.308100 0.548100 0.388100
0.420914 0.560914 0.400914
0.533729 0.573729 0.413729
0.646543 0.586543 0.426543
0.759357 0.599357 0.439357
0.872171 0.612171 0.452171
0.984986 0.624986 0.464986
0.220443 0.660443 0.400443
0.333257 0.673257 0.413257
0.446071 0.686071 0.426071
0.558886 0.698886 0.438886
0.671700 0.711700 0.451700
0.784514 0.724514 0.464514
0.897329 0.737329 0.477329
1.000000 0.750143 0.490143
0.245600 0.785600 0.425600
0.358414 0.798414 0.438414
0.471229 0.811229 0.451229
0.584043 0.824043 0.464043
0.696857 0.836857 0.476857
0.809671 0.849671 0.489671
0.922486 0.862486 0.502486
1.000000 0.875300 0.515300
0.270757 0.910757 0.450757
0.383571 0.923571 0.463571
0.496386 0.936386 0.476386
0.609200 0.949200 0.489200
0.722014 0.962014 0.502014
0.834829 0.974829 0.514829
0.947643 0.987643 0.527643
1.000000 1.000000 0.540457
0.099543 0.039543 0.379543
0.212357 0.052357 0.392357
0.325171 0.065171 0.405171
0.437986 0.077986 0.417986
0.550800 0.090800 0.430800
0.663614 0.103614 0.443614
0.776429 0.116429 0.456429
0.889243 0.129243 0.469243
0.124700 0.164700 0.404700
0.237514 0.177514 0.417514
0.350329 0.190329 0.430329
0.463143 0.203143 0.443143
0.575957 0.215957 0.455957
0.688771 0.228771 0.468771
0.801586 0.241586 0.481586
0.914400 0.254400 0.494400
0.149857 0.289857 0.429857
0.262671 0.302671 0.442671
0.375486 0.315486 0.455486
0.488300 0.328300 0.468300
0.601114 0.341114 0.481114
0.713929 0.353929 0.493929
0.826743 0.366743 0.506743
0.939557 0.379557 0.519557
0.175014 0.415014 0.455014
0.287829 0.427829 0.467829
0.400643 0.440643 0.480643
0.513457 0.453457 0.493457
0.626271 0.466271 0.506271
0.739086 0.479086 0.519086
0.851900 0.491900 0.531900
0.964714 0.504714 0.544714
0.200171 0.540171 0.480171
0.312986 0.552986 0.492986
0.425800 0.565800 0.505800
0.538614 0.578614 0.518614
0.651429 0.591429 0.531429
0.764243 0.604243 0.544243
0.877057 0.617057 0.557057
0.989871 0.629871 0.569871
0.225329 0.665329 0.505329
0.338143 0.678143 0.518143
0.450957 0.690957 0.530957
0.563771 0.703771 0.543771
0.676586 0.716586 0.556586
0.789400 0.729400 0.569400
0.902214 0.742214 0.582214
1.000000 0.755029 0.595029
0.250486 0.790486 0.530486
0.363300 0.803300 0.543300
0.476114 0.816114 0.556114
0.588929 0.828929 0.568929
0.701743 0.841743 0.581743
0.814557 0.854557 0.594557
0.927371 0.867371 0.607371
1.000000 0.880186 0.620186
0.275643 0.915643 0.555643
0.388457 0.928457 0.568457
0.501271 0.941271 0.581271
0.614086 0.954086 0.594086
0.726900 0.966900 0.606900
0.839714 0.979714 0.619714
0.952529 0.992529 0.632529
1.000000 1.000000 0.645343
0.104429 0.044429 0.484429
0.217243 0.057243 0.497243
0.330057 0.070057 0.510057
0.442871 0.082871 0.522871
0.555686 0.095686 0.535686
0.668500 0.108500 0.548500
0.781314 0.121314 0.561314
0.894129 0.134129 0.574129
0.129586 0.169586 0.509586
0.242400 0.182400 0.522400
0.355214 0.195214 0.535214
0.468029 0.208029 0.548029
0.580843 0.220843 0.560843
0.693657 0.233657 0.573657
0.806471 0.246471 0.586471
0.919286 0.259286 0.599286
0.154743 0.294743 0.534743
0.267557 0.307557 0.547557
0.380371 0.320371 0.560371
0.493186 0.333186 0.573186
0.606000 0.346000 0.586000
0.718814 0.358814 0.598814
0.831629 0.371629 0.611629
0.944443 0.384443 0.624443
0.179900 0.419900 0.559900
0.292714 0.432714 0.572714
0.405529 0.445529 0.585529
0.518343 0.458343 0.598343
0.631157 0.471157 0.611157
0.743971 0.483971 0.623971
0.856786 0.496786 0.636786
0.969600 0.509600 0.649600
0.205057 0.545057 0.585057
0.317871 0.557871 0.597871
0.430686 0.570686 0.610686
0.543500 0.583500 0.623500
0.656314 0.596314 0.636314
0.769129 0.609129 0.649129
0.881943 0.621943 0.661943
0.994757 0.634757 0.674757
0.230214 0.670214 0.610214
0.343029 0.683029 0.623029
0.455843 0.695843 0.635843
0.568657 0.708657 0.648657
0.681471 0.721471 0.661471
0.794286 0.734286 0.674286
0.907100 0.747100 0.687100
1.000000 0.759914 0.699914
0.255371 0.795371 0.635371
0.368186 0.808186 0.648186
0.481000 0.821000 0.661000
0.593814 0.833814 0.673814
0.706629 0.846629 0.686629
0.819443 0.859443 0.699443
0.932257 0.872257 0.712257
1.000000 0.885071 0.725071
0.280529 0.920529 0.660529
0.393343 0.933343 0.673343
0.506157 0.946157 0.686157
0.618971 0.958971 0.698971
0.731786 0.971786 0.711786
0.844600 0.984600 0.724600
0.957414 0.997414 0.737414
1.000000 1.000000 0.750229
0.109314 0.049314 0.589314
0.222129 0.062129 0.602129
0.334943 0.074943 0.614943
0.447757 0.087757 0.627757
0.560571 0.100571 0.640571
0.673386 0.113386 0.653386
0.786200 0.126200 0.666200
0.899014 0.139014 0.679014
0.134471 0.174471 0.614471
0.247286 0.187286 0.627286
0.360100 0.200100 0.640100
0.472914 0.212914 0.652914
0.585729 0.225729 0.665729
0.698543 0.238543 0.678543
0.811357 0.251357 0.691357
0.924171 0.264171 0.704171
0.159629 0.299629 0.639629
0.272443 0.312443 0.652443
0.385257 0.325257 0.665257
0.498071 0.338071 0.678071
0.610886 0.350886 0.690886
0.723700 0.363700 0.703700
0.836514 0.376514 0.716514
0.949329 0.389329 0.729329
0.184786 0.424786 0.664786
0.297600 0.437600 0.677600
0.410414 0.450414 0.690414
0.523229 0.463229 0.703229
0.636043 0.476043 0.716043
0.748857 0.488857 0.728857
0.861671 0.501671 0.741671
0.974486 0.514486 0.754486
0.209943 0.549943 0.689943
0.322757 0.562757 0.702757
0.435571 0.575571 0.715571
0.548386 0.588386 0.728386
0.661200 0.601200 0.741200
0.774014 0.614014 0.754014
0.886829 0.626829 0.766829
0.999643 0.639643 0.779643
0.235100 0.675100 0.715100
0.347914 0.687914 0.727914
0.460729 0.700729 0.740729
0.573543 0.713543 0.753543
0.686357 0.726357 0.766357
0.799171 0.739171 0.779171
0.911986 0.751986 0.791986
1.000000 0.764800 0.804800
0.260257 0.800257 0.740257
0.373071 0.813071 0.753071
0.485886 0.825886 0.765886
0.598700 0.838700 0.778700
0.711514 0.851514 0.791514
0.824329 0.864329 0.804329
0.937143 0.877143 0.817143
1.000000 0.889957 0.829957
0.285414 0.925414 0.765414
0.398229 0.938229 0.778229
0.511043 0.951043 0.791043
0.623857 0.963857 0.803857
0.736671 0.976671 0.816671
0.849486 0.989486 0.829486
0.962300 1.000000 0.842300
1.000000 1.000000 0.855114
0.114200 0.054200 0.694200
0.227014 0.067014 0.707014
0.339829 0.079829 0.719829
0.452643 0.092643 0.732643
0.565457 0.105457 0.745457
0.678271 0.118271 0.758271
0.791086 0.131086 0.771086
0.903900 0.143900 0.783900
0.139357 0.179357 0.719357
0.252171 0.192171 0.732171
0.364986 0.204986 0.744986
0.477800 0.217800 0.757800
0.590614 0.230614 0.770614
0.703429 0.243429 0.783429
0.816243 0.256243 0.796243
0.929057 0.269057 0.809057
0.164514 0.304514 0.744514
0.277329 0.317329 0.757329
0.390143 0.330143 0.770143
0.502957 0.342957 0.782957
0.615771 0.355771 0.795771
0.728586 0.368586 0.808586
0.841400 0.381400 0.821400
0.954214 0.394214 0.834214
0.189671 0.429671 0.769671
0.302486 0.442486 0.782486
0.415300 0.455300 0.795300
0.528114 0.468114 0.808114
0.640929 0.480929 0.820929
0.753743 0.493743 0.833743
0.866557 0.506557 0.846557
0.979371 0.519371 0.859371
0.214829 0.554829 0.794829
0.327643 0.567643 0.807643
0.440457 0.580457 0.820457
0.553271 0.593271 0.833271
0.666086 0.606086 0.846086
0.778900 0.618900 0.858900
0.891714 0.631714 0.871714
1.000000 0.644529 0.884529
0.239986 0.679986 0.819986
0.352800 0.692800 0.832800
0.465614 0.705614 0.845614
0.578429 0.718429 0.858429
0.691243 0.731243 0.871243
0.804057 0.744057 0.884057
0.916871 0.756871 0.896871
1.000000 0.769686 0.909686
0.265143 0.805143 0.845143
0.377957 0.817957 0.857957
0.490771 0.830771 0.870771
0.603586 0.843586 0.883586
0.716400 0.856400 0.896400
0.829214 0.869214 0.909214
0.942029 0.882029 0.922029
1.000000 0.894843 0.934843
0.290300 0.930300 0.870300
0.403114 0.943114 0.883114
0.515929 0.955929 0.895929
0.628743 0.968743 0.908743
0.741557 0.981557 0.921557
0.854371 0.994371 0.934371
0.967186 1.000000 0.947186
1.000000 1.000000 0.960000
