assets/luts/soft_light.cube
TITLE "柔光"
LUT_3D_SIZE 8
DOMAIN_MIN 0.0 0.0 0.0
DOMAIN_MAX 1.0 1.0 1.0
0.055000 0.055000 0.055000
0.190714 0.055000 0.055000
0.326429 0.055000 0.055000
0.462143 0.055000 0.055000
0.597857 0.055000 0.055000
0.733571 0.055000 0.055000
0.869286 0.055000 0.055000
1.000000 0.055000 0.055000
0.055000 0.190714 0.055000
0.190714 0.190714 0.055000
0.326429 0.190714 0.055000
0.462143 0.190714 0.055000
0.597857 0.190714 0.055000
0.733571 0.190714 0.055000
0.869286 0.190714 0.055000
1.000000 0.190714 0.055000
0.055000 0.326429 0.055000
0.190714 0.326429 0.055000
0.326429 0.326429 0.055000
0.462143 0.326429 0.055000
0.597857 0.326429 0.055000
0.733571 0.326429 0.055000
0.869286 0.326429 0.055000
1.000000 0.326429 0.055000
0.055000 0.462143 0.055000
0.190714 0.462143 0.055000
0.326429 0.462143 0.055000
0.462143 0.462143 0.055000
0.597857 0.462143 0.055000
0.733571 0.462143 0.055000
0.869286 0.462143 0.055000
1.000000 0.462143 0.055000
0.055000 0.597857 0.055000
0.190714 0.597857 0.055000
0.326429 0.597857 0.055000
0.462143 0.597857 0.055000
0.597857 0.597857 0.055000
0.733571 0.597857 0.055000
0.869286 0.597857 0.055000
1.000000 0.597857 0.055000
0.055000 0.733571 0.055000
0.190714 0.733571 0.055000
0.326429 0.733571 0.055000
0.462143 0.733571 0.055000
0.597857 0.733571 0.055000
0.733571 0.733571 0.055000
0.869286 0.733571 0.055000
1.000000 0.733571 0.055000
0.055000 0.869286 0.055000
0.190714 0.869286 0.055000
0.326429 0.869286 0.055000
0.462143 0.869286 0.055000
0.597857 0.869286 0.055000
0.733571 0.869286 0.055000
0.869286 0.869286 0.055000
1.000000 0.869286 0.055000
0.055000 1.000000 0.055000
0.190714 1.000000 0.055000
0.326429 1.000000 0.055000
0.462143 1.000000 0.055000
0.597857 1.000000 0.055000
0.733571 1.000000 0.055000
0.869286 1.000000 0.055000
1.000000 1.000000 0.055000
0.055000 0.055000 0.190714
0.190714 0.055000 0.190714
0.326429 0.055000 0.190714
0.462143 0.055000 0.190714
0.597857 0.055000 0.190714
0.733571 0.055000 0.190714
0.869286 0.055000 0.190714
1.000000 0.055000 0.190714
0.055000 0.190714 0.190714
0.190714 0.190714 0.190714
0.326429 0.190714 0.190714
0.462143 0.190714 0.190714
0.597857 0.190714 0.190714
0.733571 0.190714 0.190714
0.869286 0.190714 0.190714
1.000000 0.190714 0.190714
0.055000 0.326429 0.190714
0.190714 0.326429 0.190714
0.326429 0.326429 0.190714
0.462143 0.326429 0.190714
0.597857 0.326429 0.190714
0.733571 0.326429 0.190714
0.869286 0.326429 0.190714
1.000000 0.326429 0.190714
0.055000 0.462143 0.190714
0.190714 0.462143 0.190714
0.326429 0.462143 0.190714
0.462143 0.462143 0.190714
0.597857 0.462143 0.190714
0.733571 0.462143 0.190714
0.869286 0.462143 0.190714
1.000000 0.462143 0.190714
0.055000 0.597857 0.190714
0.190714 0.597857 0.190714
0.326429 0.597857 0.190714
0.462143 0.597857 0.190714
0.597857 0.597857 0.190714
0.733571 0.597857 0.190714
0.869286 0.597857 0.190714
1.000000 0.597857 0.190714
0.055000 0.733571 0.190714
0.190714 0.733571 0.190714
0.326429 0.733571 0.190714
0.462143 0.733571 0.190714
0.597857 0.733571 0.190714
0.733571 0.733571 0.190714
0.869286 0.733571 0.190714
1.000000 0.733571 0.190714
0.055000 0.869286 0.190714
0.190714 0.869286 0.190714
0.326429 0.869286 0.190714
0.462143 0.869286 0.190714
0.597857 0.869286 0.190714
0.733571 0.869286 0.190714
0.869286 0.869286 0.190714
1.000000 0.869286 0.190714
0.055000 1.000000 0.190714
0.190714 1.000000 0.190714
0.326429 1.000000 0.190714
0.462143 1.000000 0.190714
0.597857 1.000000 0.190714
0.733571 1.000000 0.190714
0.869286 1.000000 0.190714
1.000000 1.000000 0.190714
0.055000 0.055000 0.326429
0.190714 0.055000 0.326429
0.326429 0.055000 0.326429
0.462143 0.055000 0.326429
0.597857 0.055000 0.326429
0.733571 0.055000 0.326429
0.869286 0.055000 0.326429
1.000000 0.055000 0.326429
0.055000 0.190714 0.326429
0.190714 0.190714 0.326429
0.326429 0.190714 0.326429
0.462143 0.190714 0.326429
0.597857 0.190714 0.326429
0.733571 0.190714 0.326429
0.869286 0.190714 0.326429
1.000000 0.190714 0.326429
0.055000 0.326429 0.326429
0.190714 0.326429 0.326429
0.326429 0.326429 0.326429
0.462143 0.326429 0.326429
0.597857 0.326429 0.326429
0.733571 0.326429 0.326429
0.869286 0.326429 0.326429
1.000000 0.326429 0.326429
0.055000 0.462143 0.326429
0.190714 0.462143 0.326429
0.326429 0.462143 0.326429
0.462143 0.462143 0.326429
0.597857 0.462143 0.326429
0.733571 0.462143 0.326429
0.869286 0.462143 0.326429
1.000000 0.462143 0.326429
0.055000 0.597857 0.326429
0.190714 0.597857 0.326429
0.326429 0.597857 0.326429
0.462143 0.597857 0.326429
0.597857 0.597857 0.326429
0.733571 0.597857 0.326429
0.869286 0.597857 0.326429
1.000000 0.597857 0.326429
0.055000 0.733571 0.326429
0.190714 0.733571 0.326429
0.326429 0.733571 0.326429
0.462143 0.733571 0.326429
0.597857 0.733571 0.326429
0.733571 0.733571 0.326429
0.869286 0.733571 0.326429
1.000000 0.733571 0.326429
0.055000 0.869286 0.326429
0.190714 0.869286 0.326429
0.326429 0.869286 0.326429
0.462143 0.869286 0.326429
0.597857 0.869286 0.326429
0.733571 0.869286 0.326429
0.869286 0.869286 0.326429
1.000000 0.869286 0.326429
0.055000 1.000000 0.326429
0.190714 1.000000 0.326429
0.326429 1.000000 0.326429
0.462143 1.000000 0.326429
0.597857 1.000000 0.326429
0.733571 1.000000 0.326429
0.869286 1.000000 0.326429
1.000000 1.000000 0.326429
0.055000 0.055000 0.462143
0.190714 0.055000 0.462143
0.326429 0.055000 0.462143
0.462143 0.055000 0.462143
0.597857 0.055000 0.462143
0.733571 0.055000 0.462143
0.869286 0.055000 0.462143
1.000000 0.055000 0.462143
0.055000 0.190714 0.462143
0.190714 0.190714 0.462143
0.326429 0.190714 0.462143
0.462143 0.190714 0.462143
0.597857 0.190714 0.462143
0.733571 0.190714 0.462143
0.869286 0.190714 0.462143
1.000000 0.190714 0.462143
0.055000 0.326429 0.462143
0.190714 0.326429 0.462143
0.326429 0.326429 0.462143
0.462143 0.326429 0.462143
0.597857 0.326429 0.462143
0.733571 0.326429 0.462143
0.869286 0.326429 0.462143
1.000000 0.326429 0.462143
0.055000 0.462143 0.462143
0.190714 0.462143 0.462143
0.326429 0.462143 0.462143
0.462143 0.462143 0.462143
0.597857 0.462143 0.462143
0.733571 0.462143 0.462143
0.869286 0.462143 0.462143
1.000000 0.462143 0.462143
0.055000 0.597857 0.462143
0.190714 0.597857 0.462143
0.326429 0.597857 0.462143
0.462143 0.597857 0.462143
0.597857 0.597857 0.462143
0.733571 0.597857 0.462143
0.869286 0.597857 0.462143
1.000000 0.597857 0.462143
0.055000 0.733571 0.462143
0.190714 0.733571 0.462143
0.326429 0.733571 0.462143
0.462143 0.733571 0.462143
0.597857 0.733571 0.462143
0.733571 0.733571 0.462143
0.869286 0.733571 0.462143
1.000000 0.733571 0.462143
0.055000 0.869286 0.462143
0.190714 0.869286 0.462143
0.326429 0.869286 0.462143
0.462143 0.869286 0.462143
0.597857 0.869286 0.462143
0.733571 0.869286 0.462143
0.869286 0.869286 0.462143
1.000000 0.869286 0.462143
0.055000 1.000000 0.462143
0.190714 1.000000 0.462143
0.326429 1.000000 0.462143
0.462143 1.000000 0.462143
0.597857 1.000000 0.462143
0.733571 1.000000 0.462143
0.869286 1.000000 0.462143
1.000000 1.000000 0.462143
0.055000 0.055000 0.597857
0.190714 0.055000 0.597857
0.326429 0.055000 0.597857
0.462143 0.055000 0.597857
0.597857 0.055000 0.597857
0.733571 0.055000 0.597857
0.869286 0.055000 0.597857
1.000000 0.055000 0.597857
0.055000 0.190714 0.597857
0.190714 0.190714 0.597857
0.326429 0.190714 0.597857
0.462143 0.190714 0.597857
0.597857 0.190714 0.597857
0.733571 0.190714 0.597857
0.869286 0.190714 0.597857
1.000000 0.190714 0.597857
0.055000 0.326429 0.597857
0.190714 0.326429 0.597857
0.326429 0.326429 0.597857
0.462143 0.326429 0.597857
0.597857 0.326429 0.597857
0.733571 0.326429 0.597857
0.869286 0.326429 0.597857
1.000000 0.326429 0.597857
0.055000 0.462143 0.597857
0.190714 0.462143 0.597857
0.326429 0.462143 0.597857
0.462143 0.462143 0.597857
0.597857 0.462143 0.597857
0.733571 0.462143 0.597857
0.869286 0.462143 0.597857
1.000000 0.462143 0.597857
0.055000 0.597857 0.597857
0.190714 0.597857 0.597857
0.326429 0.597857 0.597857
0.462143 0.597857 0.597857
0.597857 0.597857 0.597857
0.733571 0.597857 0.597857
0.869286 0.597857 0.597857
1.000000 0.597857 0.597857
0.055000 0.733571 0.597857
0.190714 0.733571 0.597857
0.326429 0.733571 0.597857
0.462143 0.733571 0.597857
0.597857 0.733571 0.597857
0.733571 0.733571 0.597857
0.869286 0.733571 0.597857
1.000000 0.733571 0.597857
0.055000 0.869286 0.597857
0.190714 0.869286 0.597857
0.326429 0.869286 0.597857
0.462143 0.869286 0.597857
0.597857 0.869286 0.597857
0.733571 0.869286 0.597857
0.869286 0.869286 0.597857
1.000000 0.869286 0.597857
0.055000 1.000000 0.597857
0.190714 1.000000 0.597857
0.326429 1.000000 0.597857
0.462143 1.000000 0.597857
0.597857 1.000000 0.597857
0.733571 1.000000 0.597857
0.869286 1.000000 0.597857
1.000000 1.000000 0.597857
0.055000 0.055000 0.733571
0.190714 0.055000 0.733571
0.326429 0.055000 0.733571
0.462143 0.055000 0.733571
0.597857 0.055000 0.733571
0.733571 0.055000 0.733571
0.869286 0.055000 0.733571
1.000000 0.055000 0.733571
0.055000 0.190714 0.733571
0.190714 0.190714 0.733571
0.326429 0.190714 0.733571
0.462143 0.190714 0.733571
0.597857 0.190714 0.733571
0.733571 0.190714 0.733571
0.869286 0.190714 0.733571
1.000000 0.190714 0.733571
0.055000 0.326429 0.733571
0.190714 0.326429 0.733571
0.326429 0.326429 0.733571
0.462143 0.326429 0.733571
0.597857 0.326429 0.733571
0.733571 0.326429 0.733571
0.869286 0.326429 0.733571
1.000000 0.326429 0.733571
0.055000 0.462143 0.733571
0.190714 0.462143 0.733571
0.326429 0.462143 0.733571
0.462143 0.462143 0.733571
0.597857 0.462143 0.733571
0.733571 0.462143 0.733571
0.869286 0.462143 0.733571
1.000000 0.462143 0.733571
0.055000 0.597857 0.733571
0.190714 0.597857 0.733571
0.326429 0.597857 0.733571
0.462143 0.597857 0.733571
0.597857 0.597857 0.733571
0.733571 0.597857 0.733571
0.869286 0.597857 0.733571
1.000000 0.597857 0.733571
0.055000 0.733571 0.733571
0.190714 0.733571 0.733571
0.326429 0.733571 0.733571
0.462143 0.733571 0.733571
0.597857 0.733571 0.733571
0.733571 0.733571 0.733571
0.869286 0.733571 0.733571
1.000000 0.733571 0.733571
0.055000 0.869286 0.733571
0.190714 0.869286 0.733571
0.326429 0.869286 0.733571
0.462143 0.869286 0.733571
0.597857 0.869286 0.733571
0.733571 0.869286 0.733571
0.869286 0.869286 0.733571
1.000000 0.869286 0.733571
0.055000 1.000000 0.733571
0.190714 1.000000 0.733571
0.326429 1.000000 0.733571
0.462143 1.000000 0.733571
0.597857 1.000000 0.733571
0.733571 1.000000 0.733571
0.869286 1.000000 0.733571
1.000000 1.000000 0.733571
0.055000 0.055000 0.869286
0.190714 0.055000 0.869286
0.326429 0.055000 0.869286
0.462143 0.055000 0.869286
0.597857 0.055000 0.869286
0.733571 0.055000 0.869286
0.869286 0.055000 0.869286
1.000000 0.055000 0.869286
0.055000 0.190714 0.869286
0.190714 0.190714 0.869286
0.326429 0.190714 0.869286
0.462143 0.190714 0.869286
0.597857 0.190714 0.869286
0.733571 0.190714 0.869286
0.869286 0.190714 0.869286
1.000000 0.190714 0.869286
0.055000 0.326429 0.869286
0.190714 0.326429 0.869286
0.326429 0.326429 0.869286
0.462143 0.326429 0.869286
0.597857 0.326429 0.869286
0.733571 0.326429 0.869286
0.869286 0.326429 0.869286
1.000000 0.326429 0.869286
0.055000 0.462143 0.869286
0.190714 0.462143 0.869286
0.326429 0.462143 0.869286
0.462143 0.462143 0.869286
0.597857 0.462143 0.869286
0.733571 0.462143 0.869286
0.869286 0.462143 0.869286
1.000000 0.462143 0.869286
0.055000 0.597857 0.869286
0.190714 0.597857 0.869286
0.326429 0.597857 0.869286
0.462143 0.597857 0.869286
0.597857 0.597857 0.869286
0.733571 0.597857 0.869286
0.869286 0.597857 0.869286
1.000000 0.597857 0.869286
0.055000 0.733571 0.869286
0.190714 0.733571 0.869286
0.326429 0.733571 0.869286
0.462143 0.733571 0.869286
0.597857 0.733571 0.869286
0.733571 0.733571 0.869286
0.869286 0.733571 0.869286
1.000000 0.733571 0.869286
0.055000 0.869286 0.869286
0.190714 0.869286 0.869286
0.326429 0.869286 0.869286
0.462143 0.869286 0.869286
0.597857 0.869286 0.869286
0.733571 0.869286 0.869286
0.869286 0.869286 0.869286
1.000000 0.869286 0.869286
0.055000 1.000000 0.869286
0.190714 1.000000 0.869286
0.326429 1.000000 0.869286
0.462143 1.000000 0.869286
0.597857 1.000000 0.869286
0.733571 1.000000 0.869286
0.869286 1.000000 0.869286
1.000000 1.000000 0.869286
0.055000 0.055000 1.000000
0.190714 0.055000 1.000000
0.326429 0.055000 1.000000
0.462143 0.055000 1.000000
0.597857 0.055000 1.000000
0.733571 0.055000 1.000000
0.869286 0.055000 1.000000
1.000000 0.055000 1.000000
0.055000 0.190714 1.000000
0.190714 0.190714 1.000000
0.326429 0.190714 1.000000
0.462143 0.190714 1.000000
0.597857 0.190714 1.000000
0.733571 0.190714 1.000000
0.869286 0.190714 1.000000
1.000000 0.190714 1.000000
0.055000 0.326429 1.000000
0.190714 0.326429 1.000000
0.326429 0.326429 1.000000
0.462143 0.326429 1.000000
0.597857 0.326429 1.000000
0.733571 0.326429 1.000000
0.869286 0.326429 1.000000
1.000000 0.326429 1.000000
0.055000 0.462143 1.000000
0.190714 0.462143 1.000000
0.326429 0.462143 1.000000
0.462143 0.462143 1.000000
0.597857 0.462143 1.000000
0.733571 0.462143 1.000000
0.869286 0.462143 1.000000
1.000000 0.462143 1.000000
0.055000 0.597857 1.000000
0.190714 0.597857 1.000000
0.326429 0.597857 1.000000
0.462143 0.597857 1.000000
0.597857 0.597857 1.000000
0.733571 0.597857 1.000000
0.869286 0.597857 1.000000
1.000000 0.597857 1.000000
0.055000 0.733571 1.000000
0.190714 0.733571 1.000000
0.326429 0.733571 1.000000
0.462143 0.733571 1.000000
0.597857 0.733571 1.000000
0.733571 0.733571 1.000000
0.869286 0.733571 1.000000
1.000000 0.733571 1.000000
0.055000 0.869286 1.000000
0.190714 0.869286 1.000000
0.326429 0.869286 1.000000
0.462143 0.869286 1.000000
0.597857 0.869286 1.000000
0.733571 0.869286 1.000000
0.869286 0.869286 1.000000
1.000000 0.869286 1.000000
0.055000 1.000000 1.000000
0.190714 1.000000 1.000000
0.326429 1.000000 1.000000
0.462143 1.000000 1.000000
0.597857 1.000000 1.000000
0.733571 1.000000 1.000000
0.869286 1.000000 1.000000
1.000000 1.000000 1.000000
