assets/luts/spring.cube
TITLE "春季"
LUT_3D_SIZE 8
DOMAIN_MIN 0.0 0.0 0.0
DOMAIN_MAX 1.0 1.0 1.0
0.000000 0.020000 0.000000
0.147864 0.017864 0.000000
0.295729 0.015729 0.000000
0.443593 0.013593 0.000000
0.591457 0.011457 0.000000
0.739321 0.009321 0.000000
0.887186 0.007186 0.000000
1.000000 0.005050 0.000000
0.000000 0.165807 0.000000
0.143671 0.163671 0.000000
0.291536 0.161536 0.000000
0.439400 0.159400 0.000000
0.587264 0.157264 0.000000
0.735129 0.155129 0.000000
0.882993 0.152993 0.000000
1.000000 0.150857 0.000000
0.000000 0.311614 0.000000
0.139479 0.309479 0.000000
0.287343 0.307343 0.000000
0.435207 0.305207 0.000000
0.583071 0.303071 0.000000
0.730936 0.300936 0.000000
0.878800 0.298800 0.000000
1.000000 0.296664 0.000000
0.000000 0.457421 0.000000
0.135286 0.455286 0.000000
0.283150 0.453150 0.000000
0.431014 0.451014 0.000000
0.578879 0.448879 0.000000
0.726743 0.446743 0.000000
0.874607 0.444607 0.000000
1.000000 0.442471 0.000000
0.000000 0.603229 0.000000
0.131093 0.601093 0.000000
0.278957 0.598957 0.000000
0.426821 0.596821 0.000000
0.574686 0.594686 0.000000
0.722550 0.592550 0.000000
0.870414 0.590414 0.000000
1.000000 0.588279 0.000000
0.000000 0.749036 0.000000
0.126900 0.746900 0.000000
0.274764 0.744764 0.000000
0.422629 0.742629 0.000000
0.570493 0.740493 0.000000
0.718357 0.738357 0.000000
0.866221 0.736221 0.000000
1.000000 0.734086 0.000000
0.000000 0.894843 0.000000
0.122707 0.892707 0.000000
0.270571 0.890571 0.000000
0.418436 0.888436 0.000000
0.566300 0.886300 0.000000
0.714164 0.884164 0.000000
0.862029 0.882029 0.000000
1.000000 0.879893 0.000000
0.000000 1.000000 0.000000
0.118514 1.000000 0.000000
0.266379 1.000000 0.000000
0.414243 1.000000 0.000000
0.562107 1.000000 0.000000
0.709971 1.000000 0.000000
0.857836 1.000000 0.000000
1.000000 1.000000 0.000000
0.000000 0.019186 0.149186
0.147050 0.017050 0.147050
0.294914 0.014914 0.144914
0.442779 0.012779 0.142779
0.590643 0.010643 0.140643
0.738507 0.008507 0.138507
0.886371 0.006371 0.136371
1.000000 0.004236 0.134236
0.000000 0.164993 0.144993
0.142857 0.162857 0.142857
0.290721 0.160721 0.140721
0.438586 0.158586 0.138586
0.586450 0.156450 0.136450
0.734314 0.154314 0.134314
0.882179 0.152179 0.132179
1.000000 0.150043 0.130043
0.000000 0.310800 0.140800
0.138664 0.308664 0.138664
0.286529 0.306529 0.136529
0.434393 0.304393 0.134393
0.582257 0.302257 0.132257
0.730121 0.300121 0.130121
0.877986 0.297986 0.127986
1.000000 0.295850 0.125850
0.000000 0.456607 0.136607
0.134471 0.454471 0.134471
0.282336 0.452336 0.132336
0.430200 0.450200 0.130200
0.578064 0.448064 0.128064
0.725929 0.445929 0.125929
0.873793 0.443793 0.123793
1.000000 0.441657 0.121657
0.000000 0.602414 0.132414
0.130279 0.600279 0.130279
0.278143 0.598143 0.128143
0.426007 0.596007 0.126007
0.573871 0.593871 0.123871
0.721736 0.591736 0.121736
0.869600 0.589600 0.119600
1.000000 0.587464 0.117464
0.000000 0.748221 0.128221
0.126086 0.746086 0.126086
0.273950 0.743950 0.123950
0.421814 0.741814 0.121814
0.569679 0.739679 0.119679
0.717543 0.737543 0.117543
0.865407 0.735407 0.115407
1.000000 0.733271 0.113271
0.000000 0.894029 0.124029
0.121893 0.891893 0.121893
0.269757 0.889757 0.119757
0.417621 0.887621 0.117621
0.565486 0.885486 0.115486
0.713350 0.883350 0.113350
0.861214 0.881214 0.111214
1.000000 0.879079 0.109079
0.000000 1.000000 0.119836
0.117700 1.000000 0.117700
0.265564 1.000000 0.115564
0.413429 1.000000 0.113429
0.561293 1.000000 0.111293
0.709157 1.000000 0.109157
0.857021 1.000000 0.107021
1.000000 1.000000 0.104886
0.000000 0.018371 0.298371
0.146236 0.016236 0.296236
0.294100 0.014100 0.294100
0.441964 0.011964 0.291964
0.589829 0.009829 0.289829
0.737693 0.007693 0.287693
0.885557 0.005557 0.285557
1.000000 0.003421 0.283421
0.000000 0.164179 0.294179
0.142043 0.162043 0.292043
0.289907 0.159907 0.289907
0.437771 0.157771 0.287771
0.585636 0.155636 0.285636
0.733500 0.153500 0.283500
0.881364 0.151364 0.281364
1.000000 0.149229 0.279229
0.000000 0.309986 0.289986
0.137850 0.307850 0.287850
0.285714 0.305714 0.285714
0.433579 0.303579 0.283579
0.581443 0.301443 0.281443
0.729307 0.299307 0.279307
0.877171 0.297171 0.277171
1.000000 0.295036 0.275036
0.000000 0.455793 0.285793
0.133657 0.453657 0.283657
0.281521 0.451521 0.281521
0.429386 0.449386 0.279386
0.577250 0.447250 0.277250
0.725114 0.445114 0.275114
0.872979 0.442979 0.272979
1.000000 0.440843 0.270843
0.000000 0.601600 0.281600
0.129464 0.599464 0.279464
0.277329 0.597329 0.277329
0.425193 0.595193 0.275193
0.573057 0.593057 0.273057
0.720921 0.590921 0.270921
0.868786 0.588786 0.268786
1.000000 0.586650 0.266650
0.000000 0.747407 0.277407
0.125271 0.745271 0.275271
0.273136 0.743136 0.273136
0.421000 0.741000 0.271000
0.568864 0.738864 0.268864
0.716729 0.736729 0.266729
0.864593 0.734593 0.264593
1.000000 0.732457 0.262457
0.000000 0.893214 0.273214
0.121079 0.891079 0.271079
0.268943 0.888943 0.268943
0.416807 0.886807 0.266807
0.564671 0.884671 0.264671
0.712536 0.882536 0.262536
0.860400 0.880400 0.260400
1.000000 0.878264 0.258264
0.000000 1.000000 0.269021
0.116886 1.000000 0.266886
0.264750 1.000000 0.264750
0.412614 1.000000 0.262614
0.560479 1.000000 0.260479
0.708343 1.000000 0.258343
0.856207 1.000000 0.256207
1.000000 1.000000 0.254071
0.000000 0.017557 0.447557
0.145421 0.015421 0.445421
0.293286 0.013286 0.443286
0.441150 0.011150 0.441150
0.589014 0.009014 0.439014
0.736879 0.006879 0.436879
0.884743 0.004743 0.434743
1.000000 0.002607 0.432607
0.000000 0.163364 0.443364
0.141229 0.161229 0.441229
0.289093 0.159093 0.439093
0.436957 0.156957 0.436957
0.584821 0.154821 0.434821
0.732686 0.152686 0.432686
0.880550 0.150550 0.430550
1.000000 0.148414 0.428414
0.000000 0.309171 0.439171
0.137036 0.307036 0.437036
0.284900 0.304900 0.434900
0.432764 0.302764 0.432764
0.580629 0.300629 0.430629
0.728493 0.298493 0.428493
0.876357 0.296357 0.426357
1.000000 0.294221 0.424221
0.000000 0.454979 0.434979
0.132843 0.452843 0.432843
0.280707 0.450707 0.430707
0.428571 0.448571 0.428571
0.576436 0.446436 0.426436
0.724300 0.444300 0.424300
0.872164 0.442164 0.422164
1.000000 0.440029 0.420029
0.000000 0.600786 0.430786
0.128650 0.598650 0.428650
0.276514 0.596514 0.426514
0.424379 0.594379 0.424379
0.572243 0.592243 0.422243
0.720107 0.590107 0.420107
0.867971 0.587971 0.417971
1.000000 0.585836 0.415836
0.000000 0.746593 0.426593
0.124457 0.744457 0.424457
0.272321 0.742321 0.422321
0.420186 0.740186 0.420186
0.568050 0.738050 0.418050
0.715914 0.735914 0.415914
0.863779 0.733779 0.413779
1.000000 0.731643 0.411643
0.000000 0.892400 0.422400
0.120264 0.890264 0.420264
0.268129 0.888129 0.418129
0.415993 0.885993 0.415993
0.563857 0.883857 0.413857
0.711721 0.881721 0.411721
0.859586 0.879586 0.409586
1.000000 0.877450 0.407450
0.000000 1.000000 0.418207
0.116071 1.000000 0.416071
0.263936 1.000000 0.413936
0.411800 1.000000 0.411800
0.559664 1.000000 0.409664
0.707529 1.000000 0.407529
0.855393 1.000000 0.405393
1.000000 1.000000 0.403257
0.000000 0.016743 0.596743
0.144607 0.014607 0.594607
0.292471 0.012471 0.592471
0.440336 0.010336 0.590336
0.588200 0.008200 0.588200
0.736064 0.006064 0.586064
0.883929 0.003929 0.583929
1.000000 0.001793 0.581793
0.000000 0.162550 0.592550
0.140414 0.160414 0.590414
0.288279 0.158279 0.588279
0.436143 0.156143 0.586143
0.584007 0.154007 0.584007
0.731871 0.151871 0.581871
0.879736 0.149736 0.579736
1.000000 0.147600 0.577600
0.000000 0.308357 0.588357
0.136221 0.306221 0.586221
0.284086 0.304086 0.584086
0.431950 0.301950 0.581950
0.579814 0.299814 0.579814
0.727679 0.297679 0.577679
0.875543 0.295543 0.575543
1.000000 0.293407 0.573407
0.000000 0.454164 0.584164
0.132029 0.452029 0.582029
0.279893 0.449893 0.579893
0.427757 0.447757 0.577757
0.575621 0.445621 0.575621
0.723486 0.443486 0.573486
0.871350 0.441350 0.571350
1.000000 0.439214 0.569214
0.000000 0.599971 0.579971
0.127836 0.597836 0.577836
0.275700 0.595700 0.575700
0.423564 0.593564 0.573564
0.571429 0.591429 0.571429
0.719293 0.589293 0.569293
0.867157 0.587157 0.567157
1.000000 0.585021 0.565021
0.000000 0.745779 0.575779
0.123643 0.743643 0.573643
0.271507 0.741507 0.571507
0.419371 0.739371 0.569371
0.567236 0.737236 0.567236
0.715100 0.735100 0.565100
0.862964 0.732964 0.562964
1.000000 0.730829 0.560829
0.000000 0.891586 0.571586
0.119450 0.889450 0.569450
0.267314 0.887314 0.567314
0.415179 0.885179 0.565179
0.563043 0.883043 0.563043
0.710907 0.880907 0.560907
0.858771 0.878771 0.558771
1.000000 0.876636 0.556636
0.000000 1.000000 0.567393
0.115257 1.000000 0.565257
0.263121 1.000000 0.563121
0.410986 1.000000 0.560986
0.558850 1.000000 0.558850
0.706714 1.000000 0.556714
0.854579 1.000000 0.554579
1.000000 1.000000 0.552443
0.000000 0.015929 0.745929
0.143793 0.013793 0.743793
0.291657 0.011657 0.741657
0.439521 0.009521 0.739521
0.587386 0.007386 0.737386
0.735250 0.005250 0.735250
0.883114 0.003114 0.733114
1.000000 0.000979 0.730979
0.000000 0.161736 0.741736
0.139600 0.159600 0.739600
0.287464 0.157464 0.737464
0.435329 0.155329 0.735329
0.583193 0.153193 0.733193
0.731057 0.151057 0.731057
0.878921 0.148921 0.728921
1.000000 0.146786 0.726786
0.000000 0.307543 0.737543
0.135407 0.305407 0.735407
0.283271 0.303271 0.733271
0.431136 0.301136 0.731136
0.579000 0.299000 0.729000
0.726864 0.296864 0.726864
0.874729 0.294729 0.724729
1.000000 0.292593 0.722593
0.000000 0.453350 0.733350
0.131214 0.451214 0.731214
0.279079 0.449079 0.729079
0.426943 0.446943 0.726943
0.574807 0.444807 0.724807
0.722671 0.442671 0.722671
0.870536 0.440536 0.720536
1.000000 0.438400 0.718400
0.000000 0.599157 0.729157
0.127021 0.597021 0.727021
0.274886 0.594886 0.724886
0.422750 0.592750 0.722750
0.570614 0.590614 0.720614
0.718479 0.588479 0.718479
0.866343 0.586343 0.716343
1.000000 0.584207 0.714207
0.000000 0.744964 0.724964
0.122829 0.742829 0.722829
0.270693 0.740693 0.720693
0.418557 0.738557 0.718557
0.566421 0.736421 0.716421
0.714286 0.734286 0.714286
0.862150 0.732150 0.712150
1.000000 0.730014 0.710014
0.000000 0.890771 0.720771
0.118636 0.888636 0.718636
0.266500 0.886500 0.716500
0.414364 0.884364 0.714364
0.562229 0.882229 0.712229
0.710093 0.880093 0.710093
0.857957 0.877957 0.707957
1.000000 0.875821 0.705821
0.000000 1.000000 0.716579
0.114443 1.000000 0.714443
0.262307 1.000000 0.712307
0.410171 1.000000 0.710171
0.558036 1.000000 0.708036
0.705900 1.000000 0.705900
0.853764 1.000000 0.703764
1.000000 1.000000 0.701629
0.000000 0.015114 0.895114
0.142979 0.012979 0.892979
0.290843 0.010843 0.890843
0.438707 0.008707 0.888707
0.586571 0.006571 0.886571
0.734436 0.004436 0.884436
0.882300 0.002300 0.882300
1.000000 0.000164 0.880164
0.000000 0.160921 0.890921
0.138786 0.158786 0.888786
0.286650 0.156650 0.886650
0.434514 0.154514 0.884514
0.582379 0.152379 0.882379
0.730243 0.150243 0.880243
0.878107 0.148107 0.878107
1.000000 0.145971 0.875971
0.000000 0.306729 0.886729
0.134593 0.304593 0.884593
0.282457 0.302457 0.882457
0.430321 0.300321 0.880321
0.578186 0.298186 0.878186
0.726050 0.296050 0.876050
0.873914 0.293914 0.873914
1.000000 0.291779 0.871779
0.000000 0.452536 0.882536
0.130400 0.450400 0.880400
0.278264 0.448264 0.878264
0.426129 0.446129 0.876129
0.573993 0.443993 0.873993
0.721857 0.441857 0.871857
0.869721 0.439721 0.869721
1.000000 0.437586 0.867586
0.000000 0.598343 0.878343
0.126207 0.596207 0.876207
0.274071 0.594071 0.874071
0.421936 0.591936 0.871936
0.569800 0.589800 0.869800
0.717664 0.587664 0.867664
0.865529 0.585529 0.865529
1.000000 0.583393 0.863393
0.000000 0.744150 0.874150
0.122014 0.742014 0.872014
0.269879 0.739879 0.869879
0.417743 0.737743 0.867743
0.565607 0.735607 0.865607
0.713471 0.733471 0.863471
0.861336 0.731336 0.861336
1.000000 0.729200 0.859200
0.000000 0.889957 0.869957
0.117821 0.887821 0.867821
0.265686 0.885686 0.865686
0.413550 0.883550 0.863550
0.561414 0.881414 0.861414
0.709279 0.879279 0.859279
0.857143 0.877143 0.857143
1.000000 0.875007 0.855007
0.000000 1.000000 0.865764
0.113629 1.000000 0.863629
0.261493 1.000000 0.861493
0.409357 1.000000 0.859357
0.557221 1.000000 0.857221
0.705086 1.000000 0.855086
0.852950 1.000000 0.852950
1.000000 1.000000 0.850814
0.000000 0.014300 1.000000
0.142164 0.012164 1.000000
0.290029 0.010029 1.000000
0.437893 0.007893 1.000000
0.585757 0.005757 1.000000
0.733621 0.003621 1.000000
0.881486 0.001486 1.000000
1.000000 0.000000 1.000000
0.000000 0.160107 1.000000
0.137971 0.157971 1.000000
0.285836 0.155836 1.000000
0.433700 0.153700 1.000000
0.581564 0.151564 1.000000
0.729429 0.149429 1.000000
0.877293 0.147293 1.000000
1.000000 0.145157 1.000000
0.000000 0.305914 1.000000
0.133779 0.303779 1.000000
0.281643 0.301643 1.000000
0.429507 0.299507 1.000000
0.577371 0.297371 1.000000
0.725236 0.295236 1.000000
0.873100 0.293100 1.000000
1.000000 0.290964 1.000000
0.000000 0.451721 1.000000
0.129586 0.449586 1.000000
0.277450 0.447450 1.000000
0.425314 0.445314 1.000000
0.573179 0.443179 1.000000
0.721043 0.441043 1.000000
0.868907 0.438907 1.000000
1.000000 0.436771 1.000000
0.000000 0.597529 1.000000
0.125393 0.595393 1.000000
0.273257 0.593257 1.000000
0.421121 0.591121 1.000000
0.568986 0.588986 1.000000
0.716850 0.586850 1.000000
0.864714 0.584714 1.000000
1.000000 0.582579 1.000000
0.000000 0.743336 1.000000
0.121200 0.741200 1.000000
0.269064 0.739064 1.000000
0.416929 0.736929 1.000000
0.564793 0.734793 1.000000
0.712657 0.732657 1.000000
0.860521 0.730521 1.000000
1.000000 0.728386 1.000000
0.000000 0.889143 1.000000
0.117007 0.887007 1.000000
0.264871 0.884871 1.000000
0.412736 0.882736 1.000000
0.560600 0.880600 1.000000
0.708464 0.878464 1.000000
0.856329 0.876329 1.000000
1.000000 0.874193 1.000000
0.000000 1.000000 1.000000
0.112814 1.000000 1.000000
0.260679 1.000000 1.000000
0.408543 1.000000 1.000000
0.556407 1.000000 1.000000
0.704271 1.000000 1.000000
0.852136 1.000000 1.000000
1.000000 1.000000 1.000000
