assets/luts/summer.cube
TITLE "夏季"
LUT_3D_SIZE 8
DOMAIN_MIN 0.0 0.0 0.0
DOMAIN_MAX 1.0 1.0 1.0
0.000000 0.000000 0.000000
0.155164 0.000000 0.000000
0.315680 0.000000 0.000000
0.476195 0.000000 0.000000
0.636710 0.000000 0.000000
0.797224 0.000000 0.000000
0.957740 0.000000 0.000000
1.000000 0.000000 0.000000
0.000000 0.150988 0.000000
0.146653 0.146653 0.000000
0.307168 0.142168 0.000000
0.467683 0.137683 0.000000
0.628198 0.133198 0.000000
0.788713 0.128713 0.000000
0.949228 0.124228 0.000000
1.000000 0.121088 0.000000
0.000000 0.307183 0.000000
0.137848 0.302848 0.000000
0.298363 0.298363 0.000000
0.458878 0.293878 0.000000
0.619393 0.289393 0.000000
0.779908 0.284908 0.000000
0.940423 0.280423 0.000000
1.000000 0.277283 0.000000
0.000000 0.463379 0.000000
0.129043 0.459043 0.000000
0.289558 0.454558 0.000000
0.450073 0.450073 0.000000
0.610588 0.445588 0.000000
0.771103 0.441103 0.000000
0.931618 0.436618 0.000000
1.000000 0.433478 0.000000
0.000000 0.619573 0.000000
0.120238 0.615238 0.000000
0.280753 0.610753 0.000000
0.441268 0.606268 0.000000
0.601783 0.601783 0.000000
0.762298 0.597298 0.000000
0.922813 0.592813 0.000000
1.000000 0.589673 0.000000
0.000000 0.775768 0.000000
0.111433 0.771433 0.000000
0.271948 0.766948 0.000000
0.432463 0.762463 0.000000
0.592978 0.757978 0.000000
0.753493 0.753493 0.000000
0.914008 0.749008 0.000000
1.000000 0.745868 0.000000
0.000000 0.931964 0.000000
0.102628 0.927628 0.000000
0.263143 0.923143 0.000000
0.423658 0.918658 0.000000
0.584173 0.914173 0.000000
0.744688 0.909688 0.000000
0.905203 0.905203 0.000000
1.000000 0.902064 0.000000
0.000000 1.000000 0.000000
0.096464 1.000000 0.000000
0.256979 1.000000 0.000000
0.417494 1.000000 0.000000
0.578009 1.000000 0.000000
0.738524 1.000000 0.000000
0.899039 1.000000 0.000000
1.000000 1.000000 0.000000
0.000000 0.000000 0.157847
0.153511 0.000000 0.153511
0.314026 0.000000 0.149027
0.474541 0.000000 0.144541
0.635057 0.000000 0.140056
0.795571 0.000000 0.135571
0.956087 0.000000 0.131086
1.000000 0.000000 0.127947
0.000000 0.149336 0.149336
0.145000 0.145000 0.145000
0.305515 0.140515 0.140515
0.466030 0.136030 0.136030
0.626545 0.131545 0.131545
0.787060 0.127060 0.127060
0.947575 0.122575 0.122575
1.000000 0.119435 0.119435
0.000000 0.305530 0.140531
0.136195 0.301195 0.136195
0.296710 0.296710 0.131710
0.457225 0.292225 0.127225
0.617740 0.287740 0.122740
0.778255 0.283255 0.118255
0.938770 0.278770 0.113770
1.000000 0.275631 0.110630
0.000000 0.461726 0.131725
0.127390 0.457390 0.127390
0.287905 0.452905 0.122905
0.448420 0.448420 0.118420
0.608935 0.443935 0.113935
0.769450 0.439450 0.109450
0.929965 0.434965 0.104965
1.000000 0.431825 0.101826
0.000000 0.617920 0.122920
0.118585 0.613585 0.118585
0.279100 0.609100 0.114100
0.439615 0.604615 0.109615
0.600130 0.600130 0.105130
0.760645 0.595645 0.100645
0.921160 0.591160 0.096160
1.000000 0.588020 0.093020
0.000000 0.774115 0.114115
0.109780 0.769780 0.109780
0.270295 0.765295 0.105295
0.430810 0.760810 0.100810
0.591325 0.756325 0.096325
0.751840 0.751840 0.091840
0.912355 0.747355 0.087355
1.000000 0.744215 0.084215
0.000000 0.930311 0.105310
0.100975 0.925975 0.100975
0.261490 0.921490 0.096490
0.422005 0.917005 0.092005
0.582520 0.912520 0.087520
0.743035 0.908035 0.083035
0.903550 0.903550 0.078550
1.000000 0.900411 0.075410
0.000000 1.000000 0.099147
0.094811 1.000000 0.094811
0.255326 1.000000 0.090326
0.415841 1.000000 0.085842
0.576356 1.000000 0.081356
0.736871 1.000000 0.076871
0.897386 1.000000 0.072386
1.000000 1.000000 0.069247
0.000000 0.000000 0.321137
0.151801 0.000000 0.316802
0.312316 0.000000 0.312316
0.472831 0.000000 0.307832
0.633347 0.000000 0.303346
0.793861 0.000000 0.298862
0.954377 0.000000 0.294376
1.000000 0.000000 0.291237
0.000000 0.147625 0.312626
0.143290 0.143290 0.308290
0.303805 0.138805 0.303805
0.464320 0.134320 0.299320
0.624835 0.129835 0.294835
0.785350 0.125350 0.290350
0.945865 0.120865 0.285865
1.000000 0.117725 0.282725
0.000000 0.303820 0.303820
0.134485 0.299485 0.299485
0.295000 0.295000 0.295000
0.455515 0.290515 0.290515
0.616030 0.286030 0.286030
0.776545 0.281545 0.281545
0.937060 0.277060 0.277060
1.000000 0.273920 0.273920
0.000000 0.460016 0.295015
0.125680 0.455680 0.290680
0.286195 0.451195 0.286195
0.446710 0.446710 0.281710
0.607225 0.442225 0.277225
0.767740 0.437740 0.272740
0.928255 0.433255 0.268255
1.000000 0.430115 0.265115
0.000000 0.616210 0.286210
0.116875 0.611875 0.281875
0.277390 0.607390 0.277390
0.437905 0.602905 0.272905
0.598420 0.598420 0.268420
0.758935 0.593935 0.263935
0.919450 0.589450 0.259450
1.000000 0.586310 0.256310
0.000000 0.772405 0.277405
0.108070 0.768070 0.273070
0.268585 0.763585 0.268585
0.429100 0.759100 0.264100
0.589615 0.754615 0.259615
0.750130 0.750130 0.255130
0.910645 0.745645 0.250645
1.000000 0.742505 0.247505
0.000000 0.928601 0.268600
0.099265 0.924265 0.264265
0.259780 0.919780 0.259780
0.420295 0.915295 0.255295
0.580810 0.910810 0.250810
0.741325 0.906325 0.246325
0.901840 0.901840 0.241840
1.000000 0.898701 0.238700
0.000000 1.000000 0.262437
0.093101 1.000000 0.258101
0.253616 1.000000 0.253616
0.414131 1.000000 0.249131
0.574646 1.000000 0.244646
0.735161 1.000000 0.240162
0.895676 1.000000 0.235676
1.000000 1.000000 0.232537
0.000000 0.000000 0.484427
0.150091 0.000000 0.480092
0.310607 0.000000 0.475607
0.471121 0.000000 0.471121
0.631636 0.000000 0.466637
0.792151 0.000000 0.462152
0.952667 0.000000 0.457667
1.000000 0.000000 0.454527
0.000000 0.145915 0.475916
0.141580 0.141580 0.471580
0.302095 0.137095 0.467095
0.462610 0.132610 0.462610
0.623125 0.128125 0.458125
0.783640 0.123640 0.453640
0.944155 0.119155 0.449155
1.000000 0.116015 0.446016
0.000000 0.302111 0.467111
0.132775 0.297775 0.462775
0.293290 0.293290 0.458290
0.453805 0.288805 0.453805
0.614320 0.284320 0.449320
0.774835 0.279835 0.444835
0.935350 0.275350 0.440350
1.000000 0.272210 0.437211
0.000000 0.458306 0.458306
0.123970 0.453970 0.453970
0.284485 0.449485 0.449485
0.445000 0.445000 0.445000
0.605515 0.440515 0.440515
0.766030 0.436030 0.436030
0.926545 0.431545 0.431545
1.000000 0.428405 0.428405
0.000000 0.614501 0.449501
0.115165 0.610165 0.445165
0.275680 0.605680 0.440680
0.436195 0.601195 0.436195
0.596710 0.596710 0.431710
0.757225 0.592225 0.427225
0.917740 0.587740 0.422740
1.000000 0.584600 0.419600
0.000000 0.770695 0.440696
0.106360 0.766360 0.436360
0.266875 0.761875 0.431875
0.427390 0.757390 0.427390
0.587905 0.752905 0.422905
0.748420 0.748420 0.418420
0.908935 0.743935 0.413935
1.000000 0.740795 0.410795
0.000000 0.926891 0.431890
0.097555 0.922555 0.427555
0.258070 0.918070 0.423070
0.418585 0.913585 0.418585
0.579100 0.909100 0.414100
0.739615 0.904615 0.409615
0.900130 0.900130 0.405130
1.000000 0.896991 0.401990
0.000000 1.000000 0.425727
0.091391 1.000000 0.421391
0.251906 1.000000 0.416906
0.412421 1.000000 0.412421
0.572936 1.000000 0.407936
0.733451 1.000000 0.403451
0.893966 1.000000 0.398967
1.000000 1.000000 0.395827
0.000000 0.000000 0.647717
0.148381 0.000000 0.643382
0.308897 0.000000 0.638896
0.469411 0.000000 0.634412
0.629927 0.000000 0.629927
0.790441 0.000000 0.625441
0.950957 0.000000 0.620957
1.000000 0.000000 0.617817
0.000000 0.144205 0.639206
0.139870 0.139870 0.634870
0.300385 0.135385 0.630385
0.460900 0.130900 0.625900
0.621415 0.126415 0.621415
0.781930 0.121930 0.616930
0.942445 0.117445 0.612445
1.000000 0.114305 0.609305
0.000000 0.300400 0.630401
0.131065 0.296065 0.626065
0.291580 0.291580 0.621580
0.452095 0.287095 0.617095
0.612610 0.282610 0.612610
0.773125 0.278125 0.608125
0.933640 0.273640 0.603640
1.000000 0.270500 0.600500
0.000000 0.456596 0.621595
0.122260 0.452260 0.617260
0.282775 0.447775 0.612775
0.443290 0.443290 0.608290
0.603805 0.438805 0.603805
0.764320 0.434320 0.599320
0.924835 0.429835 0.594835
1.000000 0.426696 0.591695
0.000000 0.612791 0.612791
0.113455 0.608455 0.608455
0.273970 0.603970 0.603970
0.434485 0.599485 0.599485
0.595000 0.595000 0.595000
0.755515 0.590515 0.590515
0.916030 0.586030 0.586030
1.000000 0.582890 0.582890
0.000000 0.768985 0.603985
0.104650 0.764650 0.599650
0.265165 0.760165 0.595165
0.425680 0.755680 0.590680
0.586195 0.751195 0.586195
0.746710 0.746710 0.581710
0.907225 0.742225 0.577225
1.000000 0.739085 0.574086
0.000000 0.925181 0.595181
0.095845 0.920845 0.590845
0.256360 0.916360 0.586360
0.416875 0.911875 0.581875
0.577390 0.907390 0.577390
0.737905 0.902905 0.572905
0.898420 0.898420 0.568420
1.000000 0.895281 0.565280
0.000000 1.000000 0.589017
0.089681 1.000000 0.584681
0.250196 1.000000 0.580197
0.410712 1.000000 0.575711
0.571226 1.000000 0.571226
0.731741 1.000000 0.566742
0.892257 1.000000 0.562256
1.000000 1.000000 0.559117
0.000000 0.000000 0.811007
0.146671 0.000000 0.806671
0.307187 0.000000 0.802186
0.467701 0.000000 0.797701
0.628216 0.000000 0.793216
0.788731 0.000000 0.788731
0.949247 0.000000 0.784246
1.000000 0.000000 0.781107
0.000000 0.142495 0.802495
0.138160 0.138160 0.798160
0.298675 0.133675 0.793675
0.459190 0.129190 0.789190
0.619705 0.124705 0.784705
0.780220 0.120220 0.780220
0.940735 0.115735 0.775735
1.000000 0.112595 0.772595
0.000000 0.298690 0.793690
0.129355 0.294355 0.789355
0.289870 0.289870 0.784870
0.450385 0.285385 0.780385
0.610900 0.280900 0.775900
0.771415 0.276415 0.771415
0.931930 0.271930 0.766930
1.000000 0.268790 0.763790
0.000000 0.454885 0.784885
0.120550 0.450550 0.780550
0.281065 0.446065 0.776065
0.441580 0.441580 0.771580
0.602095 0.437095 0.767095
0.762610 0.432610 0.762610
0.923125 0.428125 0.758125
1.000000 0.424986 0.754985
0.000000 0.611081 0.776080
0.111745 0.606745 0.771745
0.272260 0.602260 0.767260
0.432775 0.597775 0.762775
0.593290 0.593290 0.758290
0.753805 0.588805 0.753805
0.914320 0.584320 0.749320
1.000000 0.581180 0.746180
0.000000 0.767275 0.767275
0.102940 0.762940 0.762940
0.263455 0.758455 0.758455
0.423970 0.753970 0.753970
0.584485 0.749485 0.749485
0.745000 0.745000 0.745000
0.905515 0.740515 0.740515
1.000000 0.737375 0.737375
0.000000 0.923471 0.758470
0.094135 0.919135 0.754135
0.254650 0.914650 0.749650
0.415165 0.910165 0.745165
0.575680 0.905680 0.740680
0.736195 0.901195 0.736195
0.896710 0.896710 0.731710
1.000000 0.893571 0.728570
0.000000 1.000000 0.752307
0.087971 1.000000 0.747971
0.248486 1.000000 0.743486
0.409001 1.000000 0.739001
0.569516 1.000000 0.734516
0.730031 1.000000 0.730031
0.890547 1.000000 0.725546
1.000000 1.000000 0.722407
0.000000 0.000000 0.974297
0.144961 0.000000 0.969962
0.305476 0.000000 0.965477
0.465992 0.000000 0.960992
0.626507 0.000000 0.956506
0.787021 0.000000 0.952022
0.947537 0.000000 0.947537
1.000000 0.000000 0.944397
0.000000 0.140785 0.965786
0.136450 0.136450 0.961450
0.296965 0.131965 0.956965
0.457480 0.127480 0.952480
0.617995 0.122995 0.947995
0.778510 0.118510 0.943510
0.939025 0.114025 0.939025
1.000000 0.110885 0.935886
0.000000 0.296980 0.956981
0.127645 0.292645 0.952645
0.288160 0.288160 0.948160
0.448675 0.283675 0.943675
0.609190 0.279190 0.939190
0.769705 0.274705 0.934705
0.930220 0.270220 0.930220
1.000000 0.267080 0.927080
0.000000 0.453176 0.948176
0.118840 0.448840 0.943840
0.279355 0.444355 0.939355
0.439870 0.439870 0.934870
0.600385 0.435385 0.930385
0.760900 0.430900 0.925900
0.921415 0.426415 0.921415
1.000000 0.423276 0.918276
0.000000 0.609371 0.939371
0.110035 0.605035 0.935035
0.270550 0.600550 0.930550
0.431065 0.596065 0.926065
0.591580 0.591580 0.921580
0.752095 0.587095 0.917095
0.912610 0.582610 0.912610
1.000000 0.579470 0.909471
0.000000 0.765565 0.930566
0.101230 0.761230 0.926230
0.261745 0.756745 0.921745
0.422260 0.752260 0.917260
0.582775 0.747775 0.912775
0.743290 0.743290 0.908290
0.903805 0.738805 0.903805
1.000000 0.735665 0.900666
0.000000 0.921760 0.921760
0.092425 0.917425 0.917425
0.252940 0.912940 0.912940
0.413455 0.908455 0.908455
0.573970 0.903970 0.903970
0.734485 0.899485 0.899485
0.895000 0.895000 0.895000
1.000000 0.891861 0.891861
0.000000 1.000000 0.915597
0.086261 1.000000 0.911262
0.246776 1.000000 0.906777
0.407291 1.000000 0.902292
0.567806 1.000000 0.897807
0.728321 1.000000 0.893321
0.888837 1.000000 0.888837
1.000000 1.000000 0.885697
0.000000 0.000000 1.000000
0.143764 0.000000 1.000000
0.304279 0.000000 1.000000
0.464794 0.000000 1.000000
0.625309 0.000000 1.000000
0.785824 0.000000 1.000000
0.946340 0.000000 1.000000
1.000000 0.000000 1.000000
0.000000 0.139588 1.000000
0.135253 0.135253 1.000000
0.295768 0.130768 1.000000
0.456283 0.126283 1.000000
0.616798 0.121798 1.000000
0.777313 0.117313 1.000000
0.937828 0.112828 1.000000
1.000000 0.109688 1.000000
0.000000 0.295783 1.000000
0.126448 0.291448 1.000000
0.286963 0.286963 1.000000
0.447478 0.282478 1.000000
0.607993 0.277993 1.000000
0.768508 0.273508 1.000000
0.929023 0.269023 1.000000
1.000000 0.265883 1.000000
0.000000 0.451979 1.000000
0.117643 0.447643 1.000000
0.278158 0.443158 1.000000
0.438673 0.438673 1.000000
0.599188 0.434188 1.000000
0.759703 0.429703 1.000000
0.920218 0.425218 1.000000
1.000000 0.422079 1.000000
0.000000 0.608173 1.000000
0.108838 0.603838 1.000000
0.269353 0.599353 1.000000
0.429868 0.594868 1.000000
0.590383 0.590383 1.000000
0.750898 0.585898 1.000000
0.911413 0.581413 1.000000
1.000000 0.578273 1.000000
0.000000 0.764368 1.000000
0.100033 0.760033 1.000000
0.260548 0.755548 1.000000
0.421063 0.751063 1.000000
0.581578 0.746578 1.000000
0.742093 0.742093 1.000000
0.902608 0.737608 1.000000
1.000000 0.734468 1.000000
0.000000 0.920564 1.000000
0.091228 0.916228 1.000000
0.251743 0.911743 1.000000
0.412258 0.907258 1.000000
0.572773 0.902773 1.000000
0.733288 0.898288 1.000000
0.893803 0.893803 1.000000
1.000000 0.890664 1.000000
0.000000 1.000000 1.000000
0.085064 1.000000 1.000000
0.245579 1.000000 1.000000
0.406094 1.000000 1.000000
0.566609 1.000000 1.000000
0.727124 1.000000 1.000000
0.887640 1.000000 1.000000
1.000000 1.000000 1.000000
