assets/luts/sunset.cube
TITLE "日落"
LUT_3D_SIZE 8
DOMAIN_MIN 0.0 0.0 0.0
DOMAIN_MAX 1.0 1.0 1.0
0.060000 0.000000 0.000000
0.193763 0.000000 0.000000
0.354277 0.000000 0.000000
0.514792 0.000000 0.000000
0.675307 0.000000 0.000000
0.835822 0.000000 0.000000
0.996338 0.000000 0.000000
1.000000 0.000000 0.000000
0.052662 0.130163 0.000000
0.186425 0.126425 0.000000
0.346940 0.121940 0.000000
0.507455 0.117455 0.000000
0.667970 0.112970 0.000000
0.828485 0.108485 0.000000
0.989000 0.104000 0.000000
1.000000 0.100262 0.000000
0.043857 0.286357 0.000000
0.177620 0.282620 0.000000
0.338135 0.278135 0.000000
0.498650 0.273650 0.000000
0.659165 0.269165 0.000000
0.819680 0.264680 0.000000
0.980195 0.260195 0.000000
1.000000 0.256457 0.000000
0.035052 0.442553 0.000000
0.168815 0.438815 0.000000
0.329330 0.434330 0.000000
0.489845 0.429845 0.000000
0.650360 0.425360 0.000000
0.810875 0.420875 0.000000
0.971390 0.416390 0.000000
1.000000 0.412652 0.000000
0.026247 0.598747 0.000000
0.160010 0.595010 0.000000
0.320525 0.590525 0.000000
0.481040 0.586040 0.000000
0.641555 0.581555 0.000000
0.802070 0.577070 0.000000
0.962585 0.572585 0.000000
1.000000 0.568847 0.000000
0.017442 0.754942 0.000000
0.151205 0.751205 0.000000
0.311720 0.746720 0.000000
0.472235 0.742235 0.000000
0.632750 0.737750 0.000000
0.793265 0.733265 0.000000
0.953780 0.728780 0.000000
1.000000 0.725042 0.000000
0.008637 0.911138 0.000000
0.142400 0.907400 0.000000
0.302915 0.902915 0.000000
0.463430 0.898430 0.000000
0.623945 0.893945 0.000000
0.784460 0.889460 0.000000
0.944975 0.884975 0.000000
1.000000 0.881238 0.000000
0.001300 1.000000 0.000000
0.135062 1.000000 0.000000
0.295577 1.000000 0.000000
0.456092 1.000000 0.000000
0.616607 1.000000 0.000000
0.777122 1.000000 0.000000
0.937637 1.000000 0.000000
1.000000 1.000000 0.000000
0.058575 0.000000 0.106075
0.192337 0.000000 0.102337
0.352853 0.000000 0.097853
0.513367 0.000000 0.093367
0.673882 0.000000 0.088883
0.834397 0.000000 0.084398
0.994913 0.000000 0.079912
1.000000 0.000000 0.076175
0.051237 0.128738 0.098738
0.185000 0.125000 0.095000
0.345515 0.120515 0.090515
0.506030 0.116030 0.086030
0.666545 0.111545 0.081545
0.827060 0.107060 0.077060
0.987575 0.102575 0.072575
1.000000 0.098837 0.068837
0.042432 0.284932 0.089932
0.176195 0.281195 0.086195
0.336710 0.276710 0.081710
0.497225 0.272225 0.077225
0.657740 0.267740 0.072740
0.818255 0.263255 0.068255
0.978770 0.258770 0.063770
1.000000 0.255032 0.060032
0.033627 0.441128 0.081127
0.167390 0.437390 0.077390
0.327905 0.432905 0.072905
0.488420 0.428420 0.068420
0.648935 0.423935 0.063935
0.809450 0.419450 0.059450
0.969965 0.414965 0.054965
1.000000 0.411227 0.051227
0.024822 0.597322 0.072322
0.158585 0.593585 0.068585
0.319100 0.589100 0.064100
0.479615 0.584615 0.059615
0.640130 0.580130 0.055130
0.800645 0.575645 0.050645
0.961160 0.571160 0.046160
1.000000 0.567422 0.042422
0.016017 0.753517 0.063517
0.149780 0.749780 0.059780
0.310295 0.745295 0.055295
0.470810 0.740810 0.050810
0.631325 0.736325 0.046325
0.791840 0.731840 0.041840
0.952355 0.727355 0.037355
1.000000 0.723617 0.033617
0.007212 0.909713 0.054712
0.140975 0.905975 0.050975
0.301490 0.901490 0.046490
0.462005 0.897005 0.042005
0.622520 0.892520 0.037520
0.783035 0.888035 0.033035
0.943550 0.883550 0.028550
1.000000 0.879812 0.024812
0.000000 1.000000 0.047375
0.133637 1.000000 0.043637
0.294152 1.000000 0.039152
0.454667 1.000000 0.034667
0.615182 1.000000 0.030182
0.775697 1.000000 0.025697
0.936213 1.000000 0.021212
1.000000 1.000000 0.017475
0.056865 0.000000 0.269365
0.190628 0.000000 0.265628
0.351142 0.000000 0.261142
0.511657 0.000000 0.256657
0.672173 0.000000 0.252173
0.832687 0.000000 0.247687
0.993202 0.000000 0.243202
1.000000 0.000000 0.239465
0.049527 0.127028 0.262027
0.183290 0.123290 0.258290
0.343805 0.118805 0.253805
0.504320 0.114320 0.249320
0.664835 0.109835 0.244835
0.825350 0.105350 0.240350
0.985865 0.100865 0.235865
1.000000 0.097127 0.232127
0.040722 0.283222 0.253223
0.174485 0.279485 0.249485
0.335000 0.275000 0.245000
0.495515 0.270515 0.240515
0.656030 0.266030 0.236030
0.816545 0.261545 0.231545
0.977060 0.257060 0.227060
1.000000 0.253322 0.223322
0.031917 0.439418 0.244417
0.165680 0.435680 0.240680
0.326195 0.431195 0.236195
0.486710 0.426710 0.231710
0.647225 0.422225 0.227225
0.807740 0.417740 0.222740
0.968255 0.413255 0.218255
1.000000 0.409517 0.214517
0.023112 0.595612 0.235612
0.156875 0.591875 0.231875
0.317390 0.587390 0.227390
0.477905 0.582905 0.222905
0.638420 0.578420 0.218420
0.798935 0.573935 0.213935
0.959450 0.569450 0.209450
1.000000 0.565712 0.205712
0.014307 0.751807 0.226807
0.148070 0.748070 0.223070
0.308585 0.743585 0.218585
0.469100 0.739100 0.214100
0.629615 0.734615 0.209615
0.790130 0.730130 0.205130
0.950645 0.725645 0.200645
1.000000 0.721907 0.196907
0.005502 0.908003 0.218002
0.139265 0.904265 0.214265
0.299780 0.899780 0.209780
0.460295 0.895295 0.205295
0.620810 0.890810 0.200810
0.781325 0.886325 0.196325
0.941840 0.881840 0.191840
1.000000 0.878103 0.188102
0.000000 1.000000 0.210665
0.131927 1.000000 0.206927
0.292442 1.000000 0.202442
0.452957 1.000000 0.197957
0.613472 1.000000 0.193472
0.773987 1.000000 0.188987
0.934503 1.000000 0.184502
1.000000 1.000000 0.180765
0.055155 0.000000 0.432655
0.188918 0.000000 0.428918
0.349432 0.000000 0.424432
0.509947 0.000000 0.419948
0.670462 0.000000 0.415462
0.830977 0.000000 0.410977
0.991493 0.000000 0.406493
1.000000 0.000000 0.402755
0.047817 0.125317 0.425317
0.181580 0.121580 0.421580
0.342095 0.117095 0.417095
0.502610 0.112610 0.412610
0.663125 0.108125 0.408125
0.823640 0.103640 0.403640
0.984155 0.099155 0.399155
1.000000 0.095417 0.395417
0.039012 0.281512 0.416512
0.172775 0.277775 0.412775
0.333290 0.273290 0.408290
0.493805 0.268805 0.403805
0.654320 0.264320 0.399320
0.814835 0.259835 0.394835
0.975350 0.255350 0.390350
1.000000 0.251612 0.386613
0.030207 0.437708 0.407708
0.163970 0.433970 0.403970
0.324485 0.429485 0.399485
0.485000 0.425000 0.395000
0.645515 0.420515 0.390515
0.806030 0.416030 0.386030
0.966545 0.411545 0.381545
1.000000 0.407807 0.377807
0.021402 0.593902 0.398902
0.155165 0.590165 0.395165
0.315680 0.585680 0.390680
0.476195 0.581195 0.386195
0.636710 0.576710 0.381710
0.797225 0.572225 0.377225
0.957740 0.567740 0.372740
1.000000 0.564002 0.369003
0.012597 0.750097 0.390097
0.146360 0.746360 0.386360
0.306875 0.741875 0.381875
0.467390 0.737390 0.377390
0.627905 0.732905 0.372905
0.788420 0.728420 0.368420
0.948935 0.723935 0.363935
1.000000 0.720197 0.360197
0.003792 0.906293 0.381292
0.137555 0.902555 0.377555
0.298070 0.898070 0.373070
0.458585 0.893585 0.368585
0.619100 0.889100 0.364100
0.779615 0.884615 0.359615
0.940130 0.880130 0.355130
1.000000 0.876393 0.351392
0.000000 1.000000 0.373955
0.130217 1.000000 0.370217
0.290732 1.000000 0.365733
0.451247 1.000000 0.361247
0.611762 1.000000 0.356762
0.772277 1.000000 0.352277
0.932792 1.000000 0.347792
1.000000 1.000000 0.344055
0.053445 0.000000 0.595945
0.187207 0.000000 0.592207
0.347722 0.000000 0.587722
0.508238 0.000000 0.583237
0.668752 0.000000 0.578752
0.829267 0.000000 0.574267
0.989783 0.000000 0.569782
1.000000 0.000000 0.566045
0.046107 0.123607 0.588607
0.179870 0.119870 0.584870
0.340385 0.115385 0.580385
0.500900 0.110900 0.575900
0.661415 0.106415 0.571415
0.821930 0.101930 0.566930
0.982445 0.097445 0.562445
1.000000 0.093707 0.558707
0.037302 0.279802 0.579802
0.171065 0.276065 0.576065
0.331580 0.271580 0.571580
0.492095 0.267095 0.567095
0.652610 0.262610 0.562610
0.813125 0.258125 0.558125
0.973640 0.253640 0.553640
1.000000 0.249902 0.549902
0.028497 0.435997 0.570997
0.162260 0.432260 0.567260
0.322775 0.427775 0.562775
0.483290 0.423290 0.558290
0.643805 0.418805 0.553805
0.804320 0.414320 0.549320
0.964835 0.409835 0.544835
1.000000 0.406098 0.541097
0.019692 0.592193 0.562192
0.153455 0.588455 0.558455
0.313970 0.583970 0.553970
0.474485 0.579485 0.549485
0.635000 0.575000 0.545000
0.795515 0.570515 0.540515
0.956030 0.566030 0.536030
1.000000 0.562292 0.532292
0.010887 0.748387 0.553387
0.144650 0.744650 0.549650
0.305165 0.740165 0.545165
0.465680 0.735680 0.540680
0.626195 0.731195 0.536195
0.786710 0.726710 0.531710
0.947225 0.722225 0.527225
1.000000 0.718487 0.523487
0.002082 0.904583 0.544582
0.135845 0.900845 0.540845
0.296360 0.896360 0.536360
0.456875 0.891875 0.531875
0.617390 0.887390 0.527390
0.777905 0.882905 0.522905
0.938420 0.878420 0.518420
1.000000 0.874683 0.514682
0.000000 1.000000 0.537245
0.128507 1.000000 0.533507
0.289022 1.000000 0.529022
0.449537 1.000000 0.524537
0.610052 1.000000 0.520052
0.770567 1.000000 0.515567
0.931083 1.000000 0.511082
1.000000 1.000000 0.507345
0.051735 0.000000 0.759235
0.185498 0.000000 0.755497
0.346013 0.000000 0.751012
0.506528 0.000000 0.746528
0.667042 0.000000 0.742042
0.827557 0.000000 0.737557
0.988073 0.000000 0.733072
1.000000 0.000000 0.729335
0.044397 0.121897 0.751897
0.178160 0.118160 0.748160
0.338675 0.113675 0.743675
0.499190 0.109190 0.739190
0.659705 0.104705 0.734705
0.820220 0.100220 0.730220
0.980735 0.095735 0.725735
1.000000 0.091997 0.721997
0.035592 0.278092 0.743092
0.169355 0.274355 0.739355
0.329870 0.269870 0.734870
0.490385 0.265385 0.730385
0.650900 0.260900 0.725900
0.811415 0.256415 0.721415
0.971930 0.251930 0.716930
1.000000 0.248192 0.713192
0.026787 0.434287 0.734287
0.160550 0.430550 0.730550
0.321065 0.426065 0.726065
0.481580 0.421580 0.721580
0.642095 0.417095 0.717095
0.802610 0.412610 0.712610
0.963125 0.408125 0.708125
1.000000 0.404388 0.704387
0.017982 0.590483 0.725482
0.151745 0.586745 0.721745
0.312260 0.582260 0.717260
0.472775 0.577775 0.712775
0.633290 0.573290 0.708290
0.793805 0.568805 0.703805
0.954320 0.564320 0.699320
1.000000 0.560582 0.695582
0.009178 0.746677 0.716677
0.142940 0.742940 0.712940
0.303455 0.738455 0.708455
0.463970 0.733970 0.703970
0.624485 0.729485 0.699485
0.785000 0.725000 0.695000
0.945515 0.720515 0.690515
1.000000 0.716777 0.686777
0.000372 0.902872 0.707872
0.134135 0.899135 0.704135
0.294650 0.894650 0.699650
0.455165 0.890165 0.695165
0.615680 0.885680 0.690680
0.776195 0.881195 0.686195
0.936710 0.876710 0.681710
1.000000 0.872973 0.677972
0.000000 1.000000 0.700535
0.126797 1.000000 0.696797
0.287312 1.000000 0.692312
0.447827 1.000000 0.687827
0.608343 1.000000 0.683342
0.768857 1.000000 0.678857
0.929372 1.000000 0.674372
1.000000 1.000000 0.670635
0.050025 0.000000 0.922525
0.183787 0.000000 0.918788
0.344302 0.000000 0.914303
0.504817 0.000000 0.909817
0.665333 0.000000 0.905332
0.825847 0.000000 0.900848
0.986363 0.000000 0.896363
1.000000 0.000000 0.892625
0.042687 0.120188 0.915188
0.176450 0.116450 0.911450
0.336965 0.111965 0.906965
0.497480 0.107480 0.902480
0.657995 0.102995 0.897995
0.818510 0.098510 0.893510
0.979025 0.094025 0.889025
1.000000 0.090287 0.885288
0.033882 0.276382 0.906382
0.167645 0.272645 0.902645
0.328160 0.268160 0.898160
0.488675 0.263675 0.893675
0.649190 0.259190 0.889190
0.809705 0.254705 0.884705
0.970220 0.250220 0.880220
1.000000 0.246482 0.876483
0.025077 0.432578 0.897578
0.158840 0.428840 0.893840
0.319355 0.424355 0.889355
0.479870 0.419870 0.884870
0.640385 0.415385 0.880385
0.800900 0.410900 0.875900
0.961415 0.406415 0.871415
1.000000 0.402677 0.867677
0.016272 0.588772 0.888772
0.150035 0.585035 0.885035
0.310550 0.580550 0.880550
0.471065 0.576065 0.876065
0.631580 0.571580 0.871580
0.792095 0.567095 0.867095
0.952610 0.562610 0.862610
1.000000 0.558872 0.858872
0.007468 0.744967 0.879968
0.141230 0.741230 0.876230
0.301745 0.736745 0.871745
0.462260 0.732260 0.867260
0.622775 0.727775 0.862775
0.783290 0.723290 0.858290
0.943805 0.718805 0.853805
1.000000 0.715067 0.850067
0.000000 0.901163 0.871163
0.132425 0.897425 0.867425
0.292940 0.892940 0.862940
0.453455 0.888455 0.858455
0.613970 0.883970 0.853970
0.774485 0.879485 0.849485
0.935000 0.875000 0.845000
1.000000 0.871263 0.841263
0.000000 1.000000 0.863825
0.125087 1.000000 0.860088
0.285602 1.000000 0.855603
0.446117 1.000000 0.851117
0.606632 1.000000 0.846633
0.767147 1.000000 0.842147
0.927663 1.000000 0.837662
1.000000 1.000000 0.833925
0.048600 0.000000 1.000000
0.182362 0.000000 1.000000
0.342878 0.000000 1.000000
0.503392 0.000000 1.000000
0.663908 0.000000 1.000000
0.824422 0.000000 1.000000
0.984938 0.000000 1.000000
1.000000 0.000000 1.000000
0.041262 0.118762 1.000000
0.175025 0.115025 1.000000
0.335540 0.110540 1.000000
0.496055 0.106055 1.000000
0.656570 0.101570 1.000000
0.817085 0.097085 1.000000
0.977600 0.092600 1.000000
1.000000 0.088862 1.000000
0.032457 0.274957 1.000000
0.166220 0.271220 1.000000
0.326735 0.266735 1.000000
0.487250 0.262250 1.000000
0.647765 0.257765 1.000000
0.808280 0.253280 1.000000
0.968795 0.248795 1.000000
1.000000 0.245057 1.000000
0.023652 0.431152 1.000000
0.157415 0.427415 1.000000
0.317930 0.422930 1.000000
0.478445 0.418445 1.000000
0.638960 0.413960 1.000000
0.799475 0.409475 1.000000
0.959990 0.404990 1.000000
1.000000 0.401252 1.000000
0.014847 0.587347 1.000000
0.148610 0.583610 1.000000
0.309125 0.579125 1.000000
0.469640 0.574640 1.000000
0.630155 0.570155 1.000000
0.790670 0.565670 1.000000
0.951185 0.561185 0.998685
1.000000 0.557447 0.994948
0.006043 0.743542 1.000000
0.139805 0.739805 1.000000
0.300320 0.735320 1.000000
0.460835 0.730835 1.000000
0.621350 0.726350 0.998850
0.781865 0.721865 0.994365
0.942380 0.717380 0.989880
1.000000 0.713642 0.986142
0.000000 0.899738 1.000000
0.131000 0.896000 1.000000
0.291515 0.891515 0.999015
0.452030 0.887030 0.994530
0.612545 0.882545 0.990045
0.773060 0.878060 0.985560
0.933575 0.873575 0.981075
1.000000 0.869838 0.977337
0.000000 1.000000 0.999900
0.123662 1.000000 0.996163
0.284178 1.000000 0.991677
0.444692 1.000000 0.987192
0.605207 1.000000 0.982708
0.765722 1.000000 0.978222
0.926238 1.000000 0.973737
1.000000 1.000000 0.970000
