assets/luts/teal_orange.cube
TITLE "青橙"
LUT_3D_SIZE 8
DOMAIN_MIN 0.0 0.0 0.0
DOMAIN_MAX 1.0 1.0 1.0
0.040000 0.000000 0.040000
0.150898 0.000000 0.038398
0.313549 0.000000 0.036049
0.476200 0.000000 0.033700
0.638850 0.000000 0.031350
0.801501 0.000000 0.029001
0.964152 0.000000 0.026652
1.000000 0.000000 0.025050
0.036855 0.109355 0.036855
0.147754 0.107754 0.035254
0.310404 0.105404 0.032904
0.473055 0.103055 0.030555
0.635706 0.100706 0.028206
0.798356 0.098356 0.025856
0.961007 0.096007 0.023507
1.000000 0.094405 0.021905
0.032243 0.269743 0.032243
0.143141 0.268141 0.030641
0.305792 0.265792 0.028292
0.468443 0.263443 0.025943
0.631094 0.261094 0.023594
0.793744 0.258744 0.021244
0.956395 0.256395 0.018895
1.000000 0.254793 0.017293
0.027631 0.430131 0.027631
0.138529 0.428529 0.026029
0.301180 0.426180 0.023680
0.463831 0.423831 0.021331
0.626481 0.421481 0.018981
0.789132 0.419132 0.016632
0.951783 0.416783 0.014283
1.000000 0.415181 0.012681
0.023019 0.590519 0.023019
0.133917 0.588917 0.021417
0.296568 0.586568 0.019068
0.459219 0.584219 0.016719
0.621869 0.581869 0.014369
0.784520 0.579520 0.012020
0.947171 0.577171 0.009671
1.000000 0.575569 0.008069
0.018407 0.750907 0.018407
0.129305 0.749305 0.016805
0.291956 0.746956 0.014456
0.454606 0.744606 0.012106
0.617257 0.742257 0.009757
0.779908 0.739908 0.007408
0.942559 0.737559 0.005059
1.000000 0.735957 0.003457
0.013795 0.911295 0.013795
0.124693 0.909693 0.012193
0.287344 0.907344 0.009844
0.449994 0.904994 0.007494
0.612645 0.902645 0.005145
0.775296 0.900296 0.002796
0.937946 0.897946 0.000446
1.000000 0.896345 0.000000
0.010650 1.000000 0.010650
0.121548 1.000000 0.009048
0.284199 1.000000 0.006699
0.446850 1.000000 0.004350
0.609500 1.000000 0.002000
0.772151 1.000000 0.000000
0.934802 1.000000 0.000000
1.000000 1.000000 0.000000
0.039389 0.000000 0.151889
0.150287 0.000000 0.150287
0.312938 0.000000 0.147938
0.475589 0.000000 0.145589
0.638240 0.000000 0.143240
0.800890 0.000000 0.140890
0.963541 0.000000 0.138541
1.000000 0.000000 0.136939
0.036245 0.108745 0.148745
0.147143 0.107143 0.147143
0.309794 0.104794 0.144794
0.472444 0.102444 0.142444
0.635095 0.100095 0.140095
0.797746 0.097746 0.137746
0.960396 0.095396 0.135396
1.000000 0.093795 0.133795
0.031633 0.269132 0.144132
0.142531 0.267531 0.142531
0.305181 0.265181 0.140181
0.467832 0.262832 0.137832
0.630483 0.260483 0.135483
0.793134 0.258134 0.133134
0.955784 0.255784 0.130784
1.000000 0.254182 0.129182
0.027020 0.429520 0.139520
0.137919 0.427919 0.137919
0.300569 0.425569 0.135569
0.463220 0.423220 0.133220
0.625871 0.420871 0.130871
0.788521 0.418521 0.128521
0.951172 0.416172 0.126172
1.000000 0.414570 0.124570
0.022408 0.589908 0.134908
0.133306 0.588306 0.133306
0.295957 0.585957 0.130957
0.458608 0.583608 0.128608
0.621259 0.581259 0.126259
0.783909 0.578909 0.123909
0.946560 0.576560 0.121560
1.000000 0.574958 0.119958
0.017796 0.750296 0.130296
0.128694 0.748694 0.128694
0.291345 0.746345 0.126345
0.453996 0.743996 0.123996
0.616646 0.741646 0.121646
0.779297 0.739297 0.119297
0.941948 0.736948 0.116948
1.000000 0.735346 0.115346
0.013184 0.910684 0.125684
0.124082 0.909082 0.124082
0.286733 0.906733 0.121733
0.449384 0.904384 0.119384
0.612034 0.902034 0.117034
0.774685 0.899685 0.114685
0.937336 0.897336 0.112336
1.000000 0.895734 0.110734
0.010039 1.000000 0.122539
0.120937 1.000000 0.120937
0.283588 1.000000 0.118588
0.446239 1.000000 0.116239
0.608890 1.000000 0.113890
0.771540 1.000000 0.111540
0.934191 1.000000 0.109191
1.000000 1.000000 0.107589
0.038494 0.000000 0.315994
0.149392 0.000000 0.314392
0.312042 0.000000 0.312042
0.474693 0.000000 0.309693
0.637344 0.000000 0.307344
0.799995 0.000000 0.304995
0.962645 0.000000 0.302645
1.000000 0.000000 0.301044
0.035349 0.107849 0.312849
0.146247 0.106247 0.311247
0.308898 0.103898 0.308898
0.471549 0.101549 0.306549
0.634199 0.099199 0.304199
0.796850 0.096850 0.301850
0.959501 0.094501 0.299501
1.000000 0.092899 0.297899
0.030737 0.268237 0.308237
0.141635 0.266635 0.306635
0.304286 0.264286 0.304286
0.466936 0.261936 0.301936
0.629587 0.259587 0.299587
0.792238 0.257238 0.297238
0.954889 0.254889 0.294889
1.000000 0.253287 0.293287
0.026125 0.428625 0.303625
0.137023 0.427023 0.302023
0.299674 0.424674 0.299674
0.462324 0.422324 0.297324
0.624975 0.419975 0.294975
0.787626 0.417626 0.292626
0.950276 0.415276 0.290276
1.000000 0.413675 0.288675
0.021513 0.589012 0.299012
0.132411 0.587411 0.297411
0.295061 0.585061 0.295061
0.457712 0.582712 0.292712
0.620363 0.580363 0.290363
0.783014 0.578014 0.288014
0.945664 0.575664 0.285664
1.000000 0.574062 0.284062
0.016900 0.749400 0.294400
0.127799 0.747799 0.292799
0.290449 0.745449 0.290449
0.453100 0.743100 0.288100
0.615751 0.740751 0.285751
0.778401 0.738401 0.283401
0.941052 0.736052 0.281052
1.000000 0.734450 0.279450
0.012288 0.909788 0.289788
0.123186 0.908186 0.288186
0.285837 0.905837 0.285837
0.448488 0.903488 0.283488
0.611139 0.901139 0.281139
0.773789 0.898789 0.278789
0.936440 0.896440 0.276440
1.000000 0.894838 0.274838
0.009144 1.000000 0.286644
0.120042 1.000000 0.285042
0.282692 1.000000 0.282692
0.445343 1.000000 0.280343
0.607994 1.000000 0.277994
0.770645 1.000000 0.275645
0.933295 1.000000 0.273295
1.000000 1.000000 0.271694
0.037598 0.000000 0.480098
0.148496 0.000000 0.478496
0.311147 0.000000 0.476147
0.473797 0.000000 0.473797
0.636448 0.000000 0.471448
0.799099 0.000000 0.469099
0.961750 0.000000 0.466750
1.000000 0.000000 0.465148
0.034453 0.106953 0.476953
0.145351 0.105351 0.475351
0.308002 0.103002 0.473002
0.470653 0.100653 0.470653
0.633304 0.098304 0.468304
0.795954 0.095954 0.465954
0.958605 0.093605 0.463605
1.000000 0.092003 0.462003
0.029841 0.267341 0.472341
0.140739 0.265739 0.470739
0.303390 0.263390 0.468390
0.466041 0.261041 0.466041
0.628691 0.258691 0.463691
0.791342 0.256342 0.461342
0.953993 0.253993 0.458993
1.000000 0.252391 0.457391
0.025229 0.427729 0.467729
0.136127 0.426127 0.466127
0.298778 0.423778 0.463778
0.461429 0.421429 0.461429
0.624079 0.419079 0.459079
0.786730 0.416730 0.456730
0.949381 0.414381 0.454381
1.000000 0.412779 0.452779
0.020617 0.588117 0.463117
0.131515 0.586515 0.461515
0.294166 0.584166 0.459166
0.456816 0.581816 0.456816
0.619467 0.579467 0.454467
0.782118 0.577118 0.452118
0.944769 0.574769 0.449769
1.000000 0.573167 0.448167
0.016005 0.748505 0.458505
0.126903 0.746903 0.456903
0.289554 0.744554 0.454554
0.452204 0.742204 0.452204
0.614855 0.739855 0.449855
0.777506 0.737506 0.447506
0.940156 0.735156 0.445156
1.000000 0.733555 0.443555
0.011392 0.908892 0.453892
0.122291 0.907291 0.452291
0.284941 0.904941 0.449941
0.447592 0.902592 0.447592
0.610243 0.900243 0.445243
0.772894 0.897894 0.442894
0.935544 0.895544 0.440544
1.000000 0.893942 0.438942
0.008248 1.000000 0.450748
0.119146 1.000000 0.449146
0.281797 1.000000 0.446797
0.444447 1.000000 0.444447
0.607098 1.000000 0.442098
0.769749 1.000000 0.439749
0.932400 1.000000 0.437400
1.000000 1.000000 0.435798
0.036702 0.000000 0.644202
0.147600 0.000000 0.642600
0.310251 0.000000 0.640251
0.472902 0.000000 0.637902
0.635552 0.000000 0.635552
0.798203 0.000000 0.633203
0.960854 0.000000 0.630854
1.000000 0.000000 0.629252
0.033557 0.106057 0.641058
0.144456 0.104456 0.639456
0.307106 0.102106 0.637106
0.469757 0.099757 0.634757
0.632408 0.097408 0.632408
0.795059 0.095059 0.630059
0.957709 0.092709 0.627709
1.000000 0.091107 0.626108
0.028945 0.266445 0.636445
0.139844 0.264844 0.634844
0.302494 0.262494 0.632494
0.465145 0.260145 0.630145
0.627796 0.257796 0.627796
0.790446 0.255446 0.625446
0.953097 0.253097 0.623097
1.000000 0.251495 0.621495
0.024333 0.426833 0.631833
0.135231 0.425231 0.630231
0.297882 0.422882 0.627882
0.460533 0.420533 0.625533
0.623184 0.418184 0.623184
0.785834 0.415834 0.620834
0.948485 0.413485 0.618485
1.000000 0.411883 0.616883
0.019721 0.587221 0.627221
0.130619 0.585619 0.625619
0.293270 0.583270 0.623270
0.455921 0.580921 0.620921
0.618571 0.578571 0.618571
0.781222 0.576222 0.616222
0.943873 0.573873 0.613873
1.000000 0.572271 0.612271
0.015109 0.747609 0.622609
0.126007 0.746007 0.621007
0.288658 0.743658 0.618658
0.451309 0.741309 0.616309
0.613959 0.738959 0.613959
0.776610 0.736610 0.611610
0.939261 0.734261 0.609261
1.000000 0.732659 0.607659
0.010497 0.907997 0.617997
0.121395 0.906395 0.616395
0.284046 0.904046 0.614046
0.446696 0.901696 0.611696
0.609347 0.899347 0.609347
0.771998 0.896998 0.606998
0.934649 0.894649 0.604649
1.000000 0.893047 0.603047
0.007352 1.000000 0.614852
0.118250 1.000000 0.613250
0.280901 1.000000 0.610901
0.443552 1.000000 0.608552
0.606202 1.000000 0.606202
0.768853 1.000000 0.603853
0.931504 1.000000 0.601504
1.000000 1.000000 0.599902
0.035806 0.000000 0.808306
0.146705 0.000000 0.806705
0.309355 0.000000 0.804355
0.472006 0.000000 0.802006
0.634657 0.000000 0.799657
0.797308 0.000000 0.797308
0.959958 0.000000 0.794958
1.000000 0.000000 0.793356
0.032662 0.105162 0.805162
0.143560 0.103560 0.803560
0.306211 0.101211 0.801211
0.468861 0.098861 0.798861
0.631512 0.096512 0.796512
0.794163 0.094163 0.794163
0.956814 0.091814 0.791814
1.000000 0.090212 0.790212
0.028050 0.265550 0.800550
0.138948 0.263948 0.798948
0.301599 0.261599 0.796599
0.464249 0.259249 0.794249
0.626900 0.256900 0.791900
0.789551 0.254551 0.789551
0.952201 0.252201 0.787201
1.000000 0.250600 0.785600
0.023437 0.425937 0.795937
0.134336 0.424336 0.794336
0.296986 0.421986 0.791986
0.459637 0.419637 0.789637
0.622288 0.417288 0.787288
0.784939 0.414939 0.784939
0.947589 0.412589 0.782589
1.000000 0.410987 0.780987
0.018825 0.586325 0.791325
0.129724 0.584724 0.789724
0.292374 0.582374 0.787374
0.455025 0.580025 0.785025
0.617676 0.577676 0.782676
0.780326 0.575326 0.780326
0.942977 0.572977 0.777977
1.000000 0.571375 0.776375
0.014213 0.746713 0.786713
0.125111 0.745111 0.785111
0.287762 0.742762 0.782762
0.450413 0.740413 0.780413
0.613064 0.738064 0.778064
0.775714 0.735714 0.775714
0.938365 0.733365 0.773365
1.000000 0.731763 0.771763
0.009601 0.907101 0.782101
0.120499 0.905499 0.780499
0.283150 0.903150 0.778150
0.445801 0.900801 0.775801
0.608451 0.898451 0.773451
0.771102 0.896102 0.771102
0.933753 0.893753 0.768753
1.000000 0.892151 0.767151
0.006456 1.000000 0.778956
0.117355 1.000000 0.777355
0.280005 1.000000 0.775005
0.442656 1.000000 0.772656
0.605307 1.000000 0.770307
0.767957 1.000000 0.767957
0.930608 1.000000 0.765608
1.000000 1.000000 0.764006
0.034911 0.000000 0.972411
0.145809 0.000000 0.970809
0.308460 0.000000 0.968460
0.471110 0.000000 0.966110
0.633761 0.000000 0.963761
0.796412 0.000000 0.961412
0.959063 0.000000 0.959063
1.000000 0.000000 0.957461
0.031766 0.104266 0.969266
0.142664 0.102664 0.967664
0.305315 0.100315 0.965315
0.467966 0.097966 0.962966
0.630616 0.095616 0.960616
0.793267 0.093267 0.958267
0.955918 0.090918 0.955918
1.000000 0.089316 0.954316
0.027154 0.264654 0.964654
0.138052 0.263052 0.963052
0.300703 0.260703 0.960703
0.463354 0.258354 0.958354
0.626004 0.256004 0.956004
0.788655 0.253655 0.953655
0.951306 0.251306 0.951306
1.000000 0.249704 0.949704
0.022542 0.425042 0.960042
0.133440 0.423440 0.958440
0.296091 0.421091 0.956091
0.458741 0.418741 0.953741
0.621392 0.416392 0.951392
0.784043 0.414043 0.949043
0.946694 0.411694 0.946694
1.000000 0.410092 0.945092
0.017930 0.585430 0.955430
0.128828 0.583828 0.953828
0.291479 0.581479 0.951479
0.454129 0.579129 0.949129
0.616780 0.576780 0.946780
0.779431 0.574431 0.944431
0.942081 0.572081 0.942081
1.000000 0.570480 0.940480
0.013317 0.745817 0.950817
0.124216 0.744216 0.949216
0.286866 0.741866 0.946866
0.449517 0.739517 0.944517
0.612168 0.737168 0.942168
0.774819 0.734819 0.939819
0.937469 0.732469 0.937469
1.000000 0.730867 0.935867
0.008705 0.906205 0.946205
0.119604 0.904604 0.944604
0.282254 0.902254 0.942254
0.444905 0.899905 0.939905
0.607556 0.897556 0.937556
0.770206 0.895206 0.935206
0.932857 0.892857 0.932857
1.000000 0.891255 0.931255
0.005561 1.000000 0.943061
0.116459 1.000000 0.941459
0.279110 1.000000 0.939110
0.441760 1.000000 0.936760
0.604411 1.000000 0.934411
0.767062 1.000000 0.932062
0.929712 1.000000 0.929712
1.000000 1.000000 0.928111
0.034300 0.000000 1.000000
0.145198 0.000000 1.000000
0.307849 0.000000 1.000000
0.470500 0.000000 1.000000
0.633150 0.000000 1.000000
0.795801 0.000000 1.000000
0.958452 0.000000 1.000000
1.000000 0.000000 1.000000
0.031155 0.103655 1.000000
0.142054 0.102054 1.000000
0.304704 0.099704 1.000000
0.467355 0.097355 1.000000
0.630006 0.095006 1.000000
0.792656 0.092656 1.000000
0.955307 0.090307 1.000000
1.000000 0.088705 1.000000
0.026543 0.264043 1.000000
0.137441 0.262441 1.000000
0.300092 0.260092 1.000000
0.462743 0.257743 1.000000
0.625394 0.255394 1.000000
0.788044 0.253044 1.000000
0.950695 0.250695 1.000000
1.000000 0.249093 1.000000
0.021931 0.424431 1.000000
0.132829 0.422829 1.000000
0.295480 0.420480 1.000000
0.458131 0.418131 1.000000
0.620781 0.415781 1.000000
0.783432 0.413432 1.000000
0.946083 0.411083 1.000000
1.000000 0.409481 1.000000
0.017319 0.584819 1.000000
0.128217 0.583217 1.000000
0.290868 0.580868 1.000000
0.453519 0.578519 1.000000
0.616169 0.576169 1.000000
0.778820 0.573820 1.000000
0.941471 0.571471 1.000000
1.000000 0.569869 1.000000
0.012707 0.745207 1.000000
0.123605 0.743605 1.000000
0.286256 0.741256 1.000000
0.448906 0.738906 1.000000
0.611557 0.736557 1.000000
0.774208 0.734208 1.000000
0.936859 0.731859 1.000000
1.000000 0.730257 1.000000
0.008095 0.905595 1.000000
0.118993 0.903993 1.000000
0.281644 0.901644 1.000000
0.444294 0.899294 1.000000
0.606945 0.896945 1.000000
0.769596 0.894596 1.000000
0.932246 0.892246 1.000000
1.000000 0.890645 1.000000
0.004950 1.000000 1.000000
0.115848 1.000000 1.000000
0.278499 1.000000 1.000000
0.441150 1.000000 1.000000
0.603800 1.000000 1.000000
0.766451 1.000000 1.000000
0.929102 1.000000 1.000000
1.000000 1.000000 1.000000
