assets/luts/travel.cube
TITLE "旅行"
LUT_3D_SIZE 8
DOMAIN_MIN 0.0 0.0 0.0
DOMAIN_MAX 1.0 1.0 1.0
0.000000 0.000000 0.020000
0.122297 0.000000 0.016583
0.287398 0.000000 0.011970
0.452499 0.000000 0.007357
0.617601 0.000000 0.002743
0.782702 0.000000 0.000000
0.947803 0.000000 0.000000
1.000000 0.000000 0.000000
0.000000 0.119006 0.013291
0.115589 0.115589 0.009874
0.280690 0.110975 0.005261
0.445791 0.106362 0.000648
0.610892 0.101749 0.000000
0.775993 0.097136 0.000000
0.941094 0.092523 0.000000
1.000000 0.089106 0.000000
0.000000 0.279663 0.004235
0.106532 0.276246 0.000818
0.271633 0.271633 0.000000
0.436734 0.267020 0.000000
0.601835 0.262407 0.000000
0.766937 0.257794 0.000000
0.932038 0.253181 0.000000
1.000000 0.249763 0.000000
0.000000 0.440321 0.000000
0.097475 0.436904 0.000000
0.262577 0.432291 0.000000
0.427678 0.427678 0.000000
0.592779 0.423065 0.000000
0.757880 0.418451 0.000000
0.922981 0.413838 0.000000
1.000000 0.410421 0.000000
0.000000 0.600979 0.000000
0.088419 0.597562 0.000000
0.253520 0.592949 0.000000
0.418621 0.588335 0.000000
0.583722 0.583722 0.000000
0.748823 0.579109 0.000000
0.913925 0.574496 0.000000
1.000000 0.571079 0.000000
0.000000 0.761637 0.000000
0.079362 0.758219 0.000000
0.244463 0.753606 0.000000
0.409565 0.748993 0.000000
0.574666 0.744380 0.000000
0.739767 0.739767 0.000000
0.904868 0.735154 0.000000
1.000000 0.731737 0.000000
0.000000 0.922294 0.000000
0.070306 0.918877 0.000000
0.235407 0.914264 0.000000
0.400508 0.909651 0.000000
0.565609 0.905038 0.000000
0.730710 0.900425 0.000000
0.895811 0.895811 0.000000
1.000000 0.892394 0.000000
0.000000 1.000000 0.000000
0.063597 1.000000 0.000000
0.228698 1.000000 0.000000
0.393799 1.000000 0.000000
0.558901 1.000000 0.000000
0.724002 1.000000 0.000000
0.889103 1.000000 0.000000
1.000000 1.000000 0.000000
0.000000 0.000000 0.144411
0.120994 0.000000 0.140994
0.286095 0.000000 0.136381
0.451197 0.000000 0.131768
0.616298 0.000000 0.127155
0.781399 0.000000 0.122542
0.946500 0.000000 0.117929
1.000000 0.000000 0.114511
0.000000 0.117703 0.137703
0.114286 0.114286 0.134286
0.279387 0.109673 0.129673
0.444488 0.105059 0.125059
0.609589 0.100446 0.120446
0.774690 0.095833 0.115833
0.939791 0.091220 0.111220
1.000000 0.087803 0.107803
0.000000 0.278361 0.128646
0.105229 0.274943 0.125229
0.270330 0.270330 0.120616
0.435431 0.265717 0.116003
0.600533 0.261104 0.111390
0.765634 0.256491 0.106777
0.930735 0.251878 0.102163
1.000000 0.248461 0.098746
0.000000 0.439018 0.119590
0.096173 0.435601 0.116173
0.261274 0.430988 0.111559
0.426375 0.426375 0.106946
0.591476 0.421762 0.102333
0.756577 0.417149 0.097720
0.921678 0.412535 0.093107
1.000000 0.409118 0.089690
0.000000 0.599676 0.110533
0.087116 0.596259 0.107116
0.252217 0.591646 0.102503
0.417318 0.587033 0.097890
0.582419 0.582419 0.093277
0.747521 0.577806 0.088663
0.912622 0.573193 0.084050
1.000000 0.569776 0.080633
0.000000 0.760334 0.101477
0.078059 0.756917 0.098059
0.243161 0.752303 0.093446
0.408262 0.747690 0.088833
0.573363 0.743077 0.084220
0.738464 0.738464 0.079607
0.903565 0.733851 0.074994
1.000000 0.730434 0.071577
0.000000 0.920991 0.092420
0.069003 0.917574 0.089003
0.234104 0.912961 0.084390
0.399205 0.908348 0.079777
0.564306 0.903735 0.075163
0.729407 0.899122 0.070550
0.894509 0.894509 0.065937
1.000000 0.891091 0.062520
0.000000 1.000000 0.085711
0.062294 1.000000 0.082294
0.227395 1.000000 0.077681
0.392497 1.000000 0.073068
0.557598 1.000000 0.068455
0.722699 1.000000 0.063842
0.887800 1.000000 0.059229
1.000000 1.000000 0.055811
0.000000 0.000000 0.312367
0.119235 0.000000 0.308950
0.284337 0.000000 0.304337
0.449438 0.000000 0.299723
0.614539 0.000000 0.295110
0.779640 0.000000 0.290497
0.944741 0.000000 0.285884
1.000000 0.000000 0.282467
0.000000 0.115944 0.305658
0.112527 0.112527 0.302241
0.277628 0.107914 0.297628
0.442729 0.103301 0.293015
0.607830 0.098687 0.288402
0.772931 0.094074 0.283789
0.938033 0.089461 0.279175
1.000000 0.086044 0.275758
0.000000 0.276602 0.296602
0.103470 0.273185 0.293185
0.268571 0.268571 0.288571
0.433673 0.263958 0.283958
0.598774 0.259345 0.279345
0.763875 0.254732 0.274732
0.928976 0.250119 0.270119
1.000000 0.246702 0.266702
0.000000 0.437259 0.287545
0.094414 0.433842 0.284128
0.259515 0.429229 0.279515
0.424616 0.424616 0.274902
0.589717 0.420003 0.270289
0.754818 0.415390 0.265675
0.919919 0.410777 0.261062
1.000000 0.407359 0.257645
0.000000 0.597917 0.278489
0.085357 0.594500 0.275071
0.250458 0.589887 0.270458
0.415559 0.585274 0.265845
0.580661 0.580661 0.261232
0.745762 0.576047 0.256619
0.910863 0.571434 0.252006
1.000000 0.568017 0.248589
0.000000 0.758575 0.269432
0.076301 0.755158 0.266015
0.241402 0.750545 0.261402
0.406503 0.745931 0.256789
0.571604 0.741318 0.252175
0.736705 0.736705 0.247562
0.901806 0.732092 0.242949
1.000000 0.728675 0.239532
0.000000 0.919233 0.260375
0.067244 0.915815 0.256958
0.232345 0.911202 0.252345
0.397446 0.906589 0.247732
0.562547 0.901976 0.243119
0.727649 0.897363 0.238506
0.892750 0.892750 0.233893
1.000000 0.889333 0.230475
0.000000 1.000000 0.253667
0.060535 1.000000 0.250250
0.225637 1.000000 0.245637
0.390738 1.000000 0.241023
0.555839 1.000000 0.236410
0.720940 1.000000 0.231797
0.886041 1.000000 0.227184
1.000000 1.000000 0.223767
0.000000 0.000000 0.480322
0.117477 0.000000 0.476905
0.282578 0.000000 0.472292
0.447679 0.000000 0.467679
0.612780 0.000000 0.463066
0.777881 0.000000 0.458453
0.942982 0.000000 0.453839
1.000000 0.000000 0.450422
0.000000 0.114185 0.473614
0.110768 0.110768 0.470197
0.275869 0.106155 0.465583
0.440970 0.101542 0.460970
0.606071 0.096929 0.456357
0.771173 0.092315 0.451744
0.936274 0.087702 0.447131
1.000000 0.084285 0.443714
0.000000 0.274843 0.464557
0.101711 0.271426 0.461140
0.266813 0.266813 0.456527
0.431914 0.262199 0.451914
0.597015 0.257586 0.447301
0.762116 0.252973 0.442687
0.927217 0.248360 0.438074
1.000000 0.244943 0.434657
0.000000 0.435501 0.455501
0.092655 0.432083 0.452083
0.257756 0.427470 0.447470
0.422857 0.422857 0.442857
0.587958 0.418244 0.438244
0.753059 0.413631 0.433631
0.918161 0.409018 0.429018
1.000000 0.405601 0.425601
0.000000 0.596158 0.446444
0.083598 0.592741 0.443027
0.248699 0.588128 0.438414
0.413801 0.583515 0.433801
0.578902 0.578902 0.429187
0.744003 0.574289 0.424574
0.909104 0.569675 0.419961
1.000000 0.566258 0.416544
0.000000 0.756816 0.437387
0.074542 0.753399 0.433970
0.239643 0.748786 0.429357
0.404744 0.744173 0.424744
0.569845 0.739559 0.420131
0.734946 0.734946 0.415518
0.900047 0.730333 0.410905
1.000000 0.726916 0.407487
0.000000 0.917474 0.428331
0.065485 0.914057 0.424914
0.230586 0.909443 0.420301
0.395687 0.904830 0.415687
0.560789 0.900217 0.411074
0.725890 0.895604 0.406461
0.890991 0.890991 0.401848
1.000000 0.887574 0.398431
0.000000 1.000000 0.421622
0.058777 1.000000 0.418205
0.223878 1.000000 0.413592
0.388979 1.000000 0.408979
0.554080 1.000000 0.404366
0.719181 1.000000 0.399753
0.884282 1.000000 0.395139
1.000000 1.000000 0.391722
0.000000 0.000000 0.648278
0.115718 0.000000 0.644861
0.280819 0.000000 0.640247
0.445920 0.000000 0.635634
0.611021 0.000000 0.631021
0.776122 0.000000 0.626408
0.941223 0.000000 0.621795
1.000000 0.000000 0.618378
0.000000 0.112426 0.641569
0.109009 0.109009 0.638152
0.274110 0.104396 0.633539
0.439211 0.099783 0.628926
0.604313 0.095170 0.624313
0.769414 0.090557 0.619699
0.934515 0.085943 0.615086
1.000000 0.082526 0.611669
0.000000 0.273084 0.632513
0.099953 0.269667 0.629095
0.265054 0.265054 0.624482
0.430155 0.260441 0.619869
0.595256 0.255827 0.615256
0.760357 0.251214 0.610643
0.925458 0.246601 0.606030
1.000000 0.243184 0.602613
0.000000 0.433742 0.623456
0.090896 0.430325 0.620039
0.255997 0.425711 0.615426
0.421098 0.421098 0.610813
0.586199 0.416485 0.606199
0.751301 0.411872 0.601586
0.916402 0.407259 0.596973
1.000000 0.403842 0.593556
0.000000 0.594399 0.614399
0.081839 0.590982 0.610982
0.246941 0.586369 0.606369
0.412042 0.581756 0.601756
0.577143 0.577143 0.597143
0.742244 0.572530 0.592530
0.907345 0.567917 0.587917
1.000000 0.564499 0.584499
0.000000 0.755057 0.605343
0.072783 0.751640 0.601926
0.237884 0.747027 0.597313
0.402985 0.742414 0.592699
0.568086 0.737801 0.588086
0.733187 0.733187 0.583473
0.898289 0.728574 0.578860
1.000000 0.725157 0.575443
0.000000 0.915715 0.596286
0.063726 0.912298 0.592869
0.228827 0.907685 0.588256
0.393929 0.903071 0.583643
0.559030 0.898458 0.579030
0.724131 0.893845 0.574417
0.889232 0.889232 0.569803
1.000000 0.885815 0.566386
0.000000 1.000000 0.589578
0.057018 1.000000 0.586161
0.222119 1.000000 0.581547
0.387220 1.000000 0.576934
0.552321 1.000000 0.572321
0.717422 1.000000 0.567708
0.882523 1.000000 0.563095
1.000000 1.000000 0.559678
0.000000 0.000000 0.816233
0.113959 0.000000 0.812816
0.279060 0.000000 0.808203
0.444161 0.000000 0.803590
0.609262 0.000000 0.798977
0.774363 0.000000 0.794363
0.939465 0.000000 0.789750
1.000000 0.000000 0.786333
0.000000 0.110667 0.809525
0.107250 0.107250 0.806107
0.272351 0.102637 0.801494
0.437453 0.098024 0.796881
0.602554 0.093411 0.792268
0.767655 0.088798 0.787655
0.932756 0.084185 0.783042
1.000000 0.080767 0.779625
0.000000 0.271325 0.800468
0.098194 0.267908 0.797051
0.263295 0.263295 0.792438
0.428396 0.258682 0.787825
0.593497 0.254069 0.783211
0.758598 0.249455 0.778598
0.923699 0.244842 0.773985
1.000000 0.241425 0.770568
0.000000 0.431983 0.791411
0.089137 0.428566 0.787994
0.254238 0.423953 0.783381
0.419339 0.419339 0.778768
0.584441 0.414726 0.774155
0.749542 0.410113 0.769542
0.914643 0.405500 0.764929
1.000000 0.402083 0.761511
0.000000 0.592641 0.782355
0.080081 0.589223 0.778938
0.245182 0.584610 0.774325
0.410283 0.579997 0.769711
0.575384 0.575384 0.765098
0.740485 0.570771 0.760485
0.905586 0.566158 0.755872
1.000000 0.562741 0.752455
0.000000 0.753298 0.773298
0.071024 0.749881 0.769881
0.236125 0.745268 0.765268
0.401226 0.740655 0.760655
0.566327 0.736042 0.756042
0.731429 0.731429 0.751429
0.896530 0.726815 0.746815
1.000000 0.723398 0.743398
0.000000 0.913956 0.764242
0.061967 0.910539 0.760825
0.227069 0.905926 0.756211
0.392170 0.901313 0.751598
0.557271 0.896699 0.746985
0.722372 0.892086 0.742372
0.887473 0.887473 0.737759
1.000000 0.884056 0.734342
0.000000 1.000000 0.757533
0.055259 1.000000 0.754116
0.220360 1.000000 0.749503
0.385461 1.000000 0.744890
0.550562 1.000000 0.740277
0.715663 1.000000 0.735663
0.880765 1.000000 0.731050
1.000000 1.000000 0.727633
0.000000 0.000000 0.984189
0.112200 0.000000 0.980771
0.277301 0.000000 0.976158
0.442402 0.000000 0.971545
0.607503 0.000000 0.966932
0.772605 0.000000 0.962319
0.937706 0.000000 0.957706
1.000000 0.000000 0.954289
0.000000 0.108909 0.977480
0.105491 0.105491 0.974063
0.270593 0.100878 0.969450
0.435694 0.096265 0.964837
0.600795 0.091652 0.960223
0.765896 0.087039 0.955610
0.930997 0.082426 0.950997
1.000000 0.079009 0.947580
0.000000 0.269566 0.968423
0.096435 0.266149 0.965006
0.261536 0.261536 0.960393
0.426637 0.256923 0.955780
0.591738 0.252310 0.951167
0.756839 0.247697 0.946554
0.921941 0.243083 0.941941
1.000000 0.239666 0.938523
0.000000 0.430224 0.959367
0.087378 0.426807 0.955950
0.252479 0.422194 0.951337
0.417581 0.417581 0.946723
0.582682 0.412967 0.942110
0.747783 0.408354 0.937497
0.912884 0.403741 0.932884
1.000000 0.400324 0.929467
0.000000 0.590882 0.950310
0.078322 0.587465 0.946893
0.243423 0.582851 0.942280
0.408524 0.578238 0.937667
0.573625 0.573625 0.933054
0.738726 0.569012 0.928441
0.903827 0.564399 0.923827
1.000000 0.560982 0.920410
0.000000 0.751539 0.941254
0.069265 0.748122 0.937837
0.234366 0.743509 0.933223
0.399467 0.738896 0.928610
0.564569 0.734283 0.923997
0.729670 0.729670 0.919384
0.894771 0.725057 0.914771
1.000000 0.721639 0.911354
0.000000 0.912197 0.932197
0.060209 0.908780 0.928780
0.225310 0.904167 0.924167
0.390411 0.899554 0.919554
0.555512 0.894941 0.914941
0.720613 0.890327 0.910327
0.885714 0.885714 0.905714
1.000000 0.882297 0.902297
0.000000 1.000000 0.925489
0.053500 1.000000 0.922071
0.218601 1.000000 0.917458
0.383702 1.000000 0.912845
0.548803 1.000000 0.908232
0.713905 1.000000 0.903619
0.879006 1.000000 0.899006
1.000000 1.000000 0.895589
0.000000 0.000000 1.000000
0.110897 0.000000 1.000000
0.275998 0.000000 1.000000
0.441099 0.000000 1.000000
0.606201 0.000000 1.000000
0.771302 0.000000 1.000000
0.936403 0.000000 1.000000
1.000000 0.000000 1.000000
0.000000 0.107606 1.000000
0.104189 0.104189 1.000000
0.269290 0.099575 1.000000
0.434391 0.094962 1.000000
0.599492 0.090349 1.000000
0.764593 0.085736 1.000000
0.929694 0.081123 1.000000
1.000000 0.077706 1.000000
0.000000 0.268263 1.000000
0.095132 0.264846 1.000000
0.260233 0.260233 1.000000
0.425334 0.255620 1.000000
0.590435 0.251007 1.000000
0.755537 0.246394 1.000000
0.920638 0.241781 1.000000
1.000000 0.238363 1.000000
0.000000 0.428921 1.000000
0.086075 0.425504 1.000000
0.251177 0.420891 1.000000
0.416278 0.416278 1.000000
0.581379 0.411665 1.000000
0.746480 0.407051 1.000000
0.911581 0.402438 1.000000
1.000000 0.399021 1.000000
0.000000 0.589579 1.000000
0.077019 0.586162 1.000000
0.242120 0.581549 1.000000
0.407221 0.576935 1.000000
0.572322 0.572322 1.000000
0.737423 0.567709 1.000000
0.902525 0.563096 1.000000
1.000000 0.559679 1.000000
0.000000 0.750237 1.000000
0.067962 0.746819 1.000000
0.233063 0.742206 1.000000
0.398165 0.737593 1.000000
0.563266 0.732980 1.000000
0.728367 0.728367 1.000000
0.893468 0.723754 1.000000
1.000000 0.720337 1.000000
0.000000 0.910894 1.000000
0.058906 0.907477 1.000000
0.224007 0.902864 1.000000
0.389108 0.898251 1.000000
0.554209 0.893638 1.000000
0.719310 0.889025 1.000000
0.884411 0.884411 1.000000
1.000000 0.880994 1.000000
0.000000 1.000000 1.000000
0.052197 1.000000 1.000000
0.217298 1.000000 1.000000
0.382399 1.000000 1.000000
0.547501 1.000000 1.000000
0.712602 1.000000 1.000000
0.877703 1.000000 1.000000
1.000000 1.000000 1.000000
