assets/luts/urban.cube
TITLE "都市"
LUT_3D_SIZE 8
DOMAIN_MIN 0.0 0.0 0.0
DOMAIN_MAX 1.0 1.0 1.0
0.000000 0.000000 0.020000
0.086156 0.001335 0.021335
0.244684 0.003791 0.023791
0.403211 0.006247 0.026247
0.561739 0.008703 0.028703
0.720266 0.011159 0.031159
0.878794 0.013615 0.033615
0.964950 0.014950 0.034950
0.002621 0.087442 0.022621
0.088777 0.088777 0.023955
0.247304 0.091233 0.026411
0.405832 0.093689 0.028868
0.564359 0.096145 0.031324
0.722887 0.098601 0.033780
0.881414 0.101057 0.036236
0.967571 0.102392 0.037571
0.007442 0.248335 0.027442
0.093599 0.249670 0.028777
0.252126 0.252126 0.031233
0.410654 0.254582 0.033689
0.569181 0.257038 0.036145
0.727709 0.259494 0.038601
0.886236 0.261950 0.041058
0.972392 0.263285 0.042392
0.012264 0.409228 0.032264
0.098420 0.410563 0.033599
0.256948 0.413019 0.036055
0.415475 0.415475 0.038511
0.574003 0.417931 0.040967
0.732530 0.420387 0.043423
0.891058 0.422844 0.045879
0.977214 0.424178 0.047214
0.017086 0.570122 0.037086
0.103242 0.571456 0.038421
0.261770 0.573912 0.040877
0.420297 0.576369 0.043333
0.578825 0.578825 0.045789
0.737352 0.581281 0.048245
0.895880 0.583737 0.050701
0.982036 0.585072 0.052036
0.021908 0.731015 0.041908
0.108064 0.732350 0.043243
0.266591 0.734806 0.045699
0.425119 0.737262 0.048155
0.583646 0.739718 0.050611
0.742174 0.742174 0.053067
0.900701 0.744630 0.055523
0.986858 0.745965 0.056858
0.026729 0.891908 0.046729
0.112886 0.893243 0.048064
0.271413 0.895699 0.050520
0.429941 0.898155 0.052976
0.588468 0.900611 0.055432
0.746996 0.903067 0.057889
0.905523 0.905523 0.060345
0.991679 0.906858 0.061679
0.029350 0.979350 0.049350
0.115506 0.980685 0.050685
0.274034 0.983141 0.053141
0.432561 0.985597 0.055597
0.591089 0.988053 0.058053
0.749616 0.990509 0.060509
0.908144 0.992965 0.062965
0.994300 0.994300 0.064300
0.000509 0.000509 0.105330
0.086665 0.001844 0.106665
0.245193 0.004300 0.109121
0.403720 0.006756 0.111577
0.562248 0.009212 0.114033
0.720775 0.011668 0.116489
0.879303 0.014124 0.118946
0.965459 0.015459 0.120280
0.003129 0.087951 0.107951
0.089286 0.089286 0.109286
0.247813 0.091742 0.111742
0.406341 0.094198 0.114198
0.564868 0.096654 0.116654
0.723396 0.099110 0.119110
0.881923 0.101566 0.121566
0.968079 0.102901 0.122901
0.007951 0.248844 0.112773
0.094108 0.250179 0.114108
0.252635 0.252635 0.116564
0.411162 0.255091 0.119020
0.569690 0.257547 0.121476
0.728217 0.260003 0.123932
0.886745 0.262459 0.126388
0.972901 0.263794 0.127723
0.012773 0.409737 0.117594
0.098929 0.411072 0.118929
0.257457 0.413528 0.121385
0.415984 0.415984 0.123841
0.574512 0.418440 0.126298
0.733039 0.420896 0.128754
0.891567 0.423352 0.131210
0.977723 0.424687 0.132544
0.017595 0.570631 0.122416
0.103751 0.571965 0.123751
0.262279 0.574421 0.126207
0.420806 0.576877 0.128663
0.579334 0.579334 0.131119
0.737861 0.581790 0.133575
0.896389 0.584246 0.136031
0.982545 0.585581 0.137366
0.022417 0.731524 0.127238
0.108573 0.732859 0.128573
0.267100 0.735315 0.131029
0.425628 0.737771 0.133485
0.584155 0.740227 0.135941
0.742683 0.742683 0.138397
0.901210 0.745139 0.140853
0.987367 0.746474 0.142188
0.027238 0.892417 0.132060
0.113395 0.893752 0.133395
0.271922 0.896208 0.135851
0.430450 0.898664 0.138307
0.588977 0.901120 0.140763
0.747505 0.903576 0.143219
0.906032 0.906032 0.145675
0.992188 0.907367 0.147010
0.029859 0.979859 0.134680
0.116015 0.981194 0.136015
0.274543 0.983650 0.138471
0.433070 0.986106 0.140927
0.591598 0.988562 0.143383
0.750125 0.991018 0.145839
0.908653 0.993474 0.148296
0.994809 0.994809 0.149630
0.001445 0.001445 0.262338
0.087602 0.002780 0.263673
0.246129 0.005236 0.266129
0.404657 0.007692 0.268585
0.563184 0.010148 0.271041
0.721712 0.012604 0.273497
0.880239 0.015061 0.275953
0.966395 0.016395 0.277288
0.004066 0.088887 0.264959
0.090222 0.090222 0.266294
0.248750 0.092678 0.268750
0.407277 0.095134 0.271206
0.565805 0.097590 0.273662
0.724332 0.100046 0.276118
0.882860 0.102503 0.278574
0.969016 0.103837 0.279909
0.008888 0.249781 0.269781
0.095044 0.251115 0.271115
0.253571 0.253571 0.273571
0.412099 0.256027 0.276027
0.570626 0.258484 0.278484
0.729154 0.260940 0.280940
0.887681 0.263396 0.283396
0.973838 0.264731 0.284731
0.013709 0.410674 0.274602
0.099866 0.412009 0.275937
0.258393 0.414465 0.278393
0.416921 0.416921 0.280849
0.575448 0.419377 0.283305
0.733976 0.421833 0.285761
0.892503 0.424289 0.288218
0.978659 0.425624 0.289552
0.018531 0.571567 0.279424
0.104688 0.572902 0.280759
0.263215 0.575358 0.283215
0.421742 0.577814 0.285671
0.580270 0.580270 0.288127
0.738797 0.582726 0.290583
0.897325 0.585182 0.293039
0.983481 0.586517 0.294374
0.023353 0.732460 0.284246
0.109509 0.733795 0.285581
0.268037 0.736251 0.288037
0.426564 0.738707 0.290493
0.585092 0.741163 0.292949
0.743619 0.743619 0.295405
0.902147 0.746075 0.297861
0.988303 0.747410 0.299196
0.028175 0.893353 0.289068
0.114331 0.894688 0.290403
0.272859 0.897144 0.292859
0.431386 0.899600 0.295315
0.589914 0.902056 0.297771
0.748441 0.904512 0.300227
0.906969 0.906969 0.302683
0.993125 0.908303 0.304018
0.030795 0.980795 0.291688
0.116952 0.982130 0.293023
0.275479 0.984586 0.295479
0.434007 0.987042 0.297935
0.592534 0.989498 0.300391
0.751062 0.991954 0.302847
0.909589 0.994411 0.305303
0.995745 0.995745 0.306638
0.002382 0.002382 0.419346
0.088538 0.003717 0.420681
0.247066 0.006173 0.423137
0.405593 0.008629 0.425593
0.564121 0.011085 0.428049
0.722648 0.013541 0.430505
0.881176 0.015997 0.432961
0.967332 0.017332 0.434296
0.005002 0.089824 0.421967
0.091159 0.091159 0.423301
0.249686 0.093615 0.425757
0.408214 0.096071 0.428214
0.566741 0.098527 0.430670
0.725269 0.100983 0.433126
0.883796 0.103439 0.435582
0.969952 0.104774 0.436917
0.009824 0.250717 0.426788
0.095980 0.252052 0.428123
0.254508 0.254508 0.430579
0.413035 0.256964 0.433035
0.571563 0.259420 0.435491
0.730090 0.261876 0.437947
0.888618 0.264332 0.440404
0.974774 0.265667 0.441738
0.014646 0.411610 0.431610
0.100802 0.412945 0.432945
0.259330 0.415401 0.435401
0.417857 0.417857 0.437857
0.576385 0.420313 0.440313
0.734912 0.422769 0.442769
0.893440 0.425225 0.445225
0.979596 0.426560 0.446560
0.019468 0.572503 0.436432
0.105624 0.573838 0.437767
0.264151 0.576294 0.440223
0.422679 0.578750 0.442679
0.581206 0.581206 0.445135
0.739734 0.583662 0.447591
0.898261 0.586119 0.450047
0.984418 0.587453 0.451382
0.024289 0.733397 0.441254
0.110446 0.734731 0.442589
0.268973 0.737187 0.445045
0.427501 0.739644 0.447501
0.586028 0.742100 0.449957
0.744556 0.744556 0.452413
0.903083 0.747012 0.454869
0.989239 0.748347 0.456204
0.029111 0.894290 0.446076
0.115268 0.895625 0.447410
0.273795 0.898081 0.449866
0.432322 0.900537 0.452323
0.590850 0.902993 0.454779
0.749377 0.905449 0.457235
0.907905 0.907905 0.459691
0.994061 0.909240 0.461026
0.031732 0.981732 0.448696
0.117888 0.983067 0.450031
0.276416 0.985523 0.452487
0.434943 0.987979 0.454943
0.593471 0.990435 0.457399
0.751998 0.992891 0.459855
0.910526 0.995347 0.462311
0.996682 0.996682 0.463646
0.003318 0.003318 0.576354
0.089474 0.004653 0.577689
0.248002 0.007109 0.580145
0.406529 0.009565 0.582601
0.565057 0.012021 0.585057
0.723584 0.014477 0.587513
0.882112 0.016933 0.589969
0.968268 0.018268 0.591304
0.005939 0.090760 0.578974
0.092095 0.092095 0.580309
0.250622 0.094551 0.582765
0.409150 0.097007 0.585221
0.567677 0.099463 0.587677
0.726205 0.101919 0.590134
0.884732 0.104375 0.592590
0.970889 0.105710 0.593924
0.010761 0.251653 0.583796
0.096917 0.252988 0.585131
0.255444 0.255444 0.587587
0.413972 0.257900 0.590043
0.572499 0.260356 0.592499
0.731027 0.262813 0.594955
0.889554 0.265269 0.597411
0.975711 0.266603 0.598746
0.015582 0.412547 0.588618
0.101739 0.413881 0.589953
0.260266 0.416337 0.592409
0.418794 0.418794 0.594865
0.577321 0.421250 0.597321
0.735849 0.423706 0.599777
0.894376 0.426162 0.602233
0.980532 0.427497 0.603568
0.020404 0.573440 0.593440
0.106560 0.574775 0.594775
0.265088 0.577231 0.597231
0.423615 0.579687 0.599687
0.582143 0.582143 0.602143
0.740670 0.584599 0.604599
0.899198 0.587055 0.607055
0.985354 0.588390 0.608390
0.025226 0.734333 0.598262
0.111382 0.735668 0.599596
0.269910 0.738124 0.602052
0.428437 0.740580 0.604509
0.586965 0.743036 0.606965
0.745492 0.745492 0.609421
0.904020 0.747948 0.611877
0.990176 0.749283 0.613212
0.030048 0.895226 0.603083
0.116204 0.896561 0.604418
0.274731 0.899017 0.606874
0.433259 0.901473 0.609330
0.591786 0.903929 0.611786
0.750314 0.906385 0.614243
0.908841 0.908841 0.616699
0.994998 0.910176 0.618033
0.032668 0.982668 0.605704
0.118824 0.984003 0.607039
0.277352 0.986459 0.609495
0.435879 0.988915 0.611951
0.594407 0.991371 0.614407
0.752934 0.993827 0.616863
0.911462 0.996283 0.619319
0.997618 0.997618 0.620654
0.004255 0.004255 0.733362
0.090411 0.005589 0.734697
0.248938 0.008046 0.737153
0.407466 0.010502 0.739609
0.565993 0.012958 0.742065
0.724521 0.015414 0.744521
0.883048 0.017870 0.746977
0.969205 0.019205 0.748312
0.006875 0.091697 0.735982
0.093031 0.093031 0.737317
0.251559 0.095488 0.739773
0.410086 0.097944 0.742229
0.568614 0.100400 0.744685
0.727141 0.102856 0.747141
0.885669 0.105312 0.749597
0.971825 0.106647 0.750932
0.011697 0.252590 0.740804
0.097853 0.253925 0.742139
0.256381 0.256381 0.744595
0.414908 0.258837 0.747051
0.573436 0.261293 0.749507
0.731963 0.263749 0.751963
0.890491 0.266205 0.754419
0.976647 0.267540 0.755754
0.016519 0.413483 0.745626
0.102675 0.414818 0.746961
0.261203 0.417274 0.749417
0.419730 0.419730 0.751873
0.578257 0.422186 0.754329
0.736785 0.424642 0.756785
0.895312 0.427098 0.759241
0.981469 0.428433 0.760576
0.021341 0.574376 0.750448
0.107497 0.575711 0.751782
0.266024 0.578167 0.754239
0.424552 0.580623 0.756695
0.583079 0.583079 0.759151
0.741607 0.585535 0.761607
0.900134 0.587991 0.764063
0.986291 0.589326 0.765398
0.026162 0.735269 0.755269
0.112319 0.736604 0.756604
0.270846 0.739060 0.759060
0.429374 0.741516 0.761516
0.587901 0.743972 0.763972
0.746429 0.746429 0.766429
0.904956 0.748885 0.768885
0.991112 0.750219 0.770219
0.030984 0.896163 0.760091
0.117140 0.897497 0.761426
0.275668 0.899954 0.763882
0.434195 0.902410 0.766338
0.592723 0.904866 0.768794
0.751250 0.907322 0.771250
0.909778 0.909778 0.773706
0.995934 0.911113 0.775041
0.033605 0.983605 0.762712
0.119761 0.984939 0.764047
0.278288 0.987396 0.766503
0.436816 0.989852 0.768959
0.595343 0.992308 0.771415
0.753871 0.994764 0.773871
0.912398 0.997220 0.776327
0.998555 0.998555 0.777662
0.005191 0.005191 0.890370
0.091347 0.006526 0.891704
0.249875 0.008982 0.894161
0.408402 0.011438 0.896617
0.566930 0.013894 0.899073
0.725457 0.016350 0.901529
0.883985 0.018806 0.903985
0.970141 0.020141 0.905320
0.007812 0.092633 0.892990
0.093968 0.093968 0.894325
0.252495 0.096424 0.896781
0.411023 0.098880 0.899237
0.569550 0.101336 0.901693
0.728078 0.103792 0.904149
0.886605 0.106248 0.906605
0.972762 0.107583 0.907940
0.012633 0.253526 0.897812
0.098790 0.254861 0.899147
0.257317 0.257317 0.901603
0.415845 0.259773 0.904059
0.574372 0.262229 0.906515
0.732900 0.264685 0.908971
0.891427 0.267141 0.911427
0.977583 0.268476 0.912762
0.017455 0.414419 0.902634
0.103611 0.415754 0.903969
0.262139 0.418210 0.906425
0.420666 0.420666 0.908881
0.579194 0.423122 0.911337
0.737721 0.425579 0.913793
0.896249 0.428035 0.916249
0.982405 0.429369 0.917584
0.022277 0.575313 0.907456
0.108433 0.576647 0.908790
0.266961 0.579104 0.911246
0.425488 0.581560 0.913702
0.584016 0.584016 0.916159
0.742543 0.586472 0.918615
0.901071 0.588928 0.921071
0.987227 0.590263 0.922406
0.027099 0.736206 0.912277
0.113255 0.737541 0.913612
0.271782 0.739997 0.916068
0.430310 0.742453 0.918524
0.588837 0.744909 0.920980
0.747365 0.747365 0.923436
0.905892 0.749821 0.925892
0.992049 0.751156 0.927227
0.031921 0.897099 0.917099
0.118077 0.898434 0.918434
0.276604 0.900890 0.920890
0.435132 0.903346 0.923346
0.593659 0.905802 0.925802
0.752187 0.908258 0.928258
0.910714 0.910714 0.930714
0.996871 0.912049 0.932049
0.034541 0.984541 0.919720
0.120697 0.985876 0.921054
0.279225 0.988332 0.923511
0.437752 0.990788 0.925967
0.596280 0.993244 0.928423
0.754807 0.995700 0.930879
0.913335 0.998156 0.933335
0.999491 0.999491 0.934670
0.005700 0.005700 0.975700
0.091856 0.007035 0.977035
0.250384 0.009491 0.979491
0.408911 0.011947 0.981947
0.567439 0.014403 0.984403
0.725966 0.016859 0.986859
0.884494 0.019315 0.989315
0.970650 0.020650 0.990650
0.008321 0.093142 0.978321
0.094477 0.094477 0.979655
0.253004 0.096933 0.982111
0.411532 0.099389 0.984568
0.570059 0.101845 0.987024
0.728587 0.104301 0.989480
0.887114 0.106757 0.991936
0.973271 0.108092 0.993271
0.013142 0.254035 0.983142
0.099299 0.255370 0.984477
0.257826 0.257826 0.986933
0.416354 0.260282 0.989389
0.574881 0.262738 0.991845
0.733409 0.265194 0.994301
0.891936 0.267650 0.996757
0.978092 0.268985 0.998092
0.017964 0.414928 0.987964
0.104120 0.416263 0.989299
0.262648 0.418719 0.991755
0.421175 0.421175 0.994211
0.579703 0.423631 0.996667
0.738230 0.426087 0.999123
0.896758 0.428544 1.000000
0.982914 0.429878 1.000000
0.022786 0.575822 0.992786
0.108942 0.577156 0.994121
0.267470 0.579612 0.996577
0.425997 0.582069 0.999033
0.584525 0.584525 1.000000
0.743052 0.586981 1.000000
0.901580 0.589437 1.000000
0.987736 0.590772 1.000000
0.027608 0.736715 0.997608
0.113764 0.738050 0.998943
0.272291 0.740506 1.000000
0.430819 0.742962 1.000000
0.589346 0.745418 1.000000
0.747874 0.747874 1.000000
0.906401 0.750330 1.000000
0.992558 0.751665 1.000000
0.032429 0.897608 1.000000
0.118586 0.898943 1.000000
0.277113 0.901399 1.000000
0.435641 0.903855 1.000000
0.594168 0.906311 1.000000
0.752696 0.908767 1.000000
0.911223 0.911223 1.000000
0.997379 0.912558 1.000000
0.035050 0.985050 1.000000
0.121206 0.986385 1.000000
0.279734 0.988841 1.000000
0.438261 0.991297 1.000000
0.596789 0.993753 1.000000
0.755316 0.996209 1.000000
0.913844 0.998665 1.000000
1.000000 1.000000 1.000000
