assets/luts/vintage.cube
TITLE "复古"
LUT_3D_SIZE 8
DOMAIN_MIN 0.0 0.0 0.0
DOMAIN_MAX 1.0 1.0 1.0
0.080000 0.050000 0.030000
0.190546 0.057689 0.037689
0.301091 0.065377 0.045377
0.411637 0.073066 0.053066
0.522183 0.080754 0.060754
0.632729 0.088443 0.068443
0.743274 0.096131 0.076131
0.853820 0.103820 0.083820
0.095094 0.167951 0.045094
0.205640 0.175640 0.052783
0.316186 0.183329 0.060471
0.426731 0.191017 0.068160
0.537277 0.198706 0.075849
0.647823 0.206394 0.083537
0.758369 0.214083 0.091226
0.868914 0.221771 0.098914
0.110189 0.285903 0.060189
0.220734 0.293591 0.067877
0.331280 0.301280 0.075566
0.441826 0.308969 0.083254
0.552371 0.316657 0.090943
0.662917 0.324346 0.098631
0.773463 0.332034 0.106320
0.884009 0.339723 0.114009
0.125283 0.403854 0.075283
0.235829 0.411543 0.082971
0.346374 0.419231 0.090660
0.456920 0.426920 0.098349
0.567466 0.434609 0.106037
0.678011 0.442297 0.113726
0.788557 0.449986 0.121414
0.899103 0.457674 0.129103
0.140377 0.521806 0.090377
0.250923 0.529494 0.098066
0.361469 0.537183 0.105754
0.472014 0.544871 0.113443
0.582560 0.552560 0.121131
0.693106 0.560249 0.128820
0.803651 0.567937 0.136509
0.914197 0.575626 0.144197
0.155471 0.639757 0.105471
0.266017 0.647446 0.113160
0.376563 0.655134 0.120849
0.487109 0.662823 0.128537
0.597654 0.670511 0.136226
0.708200 0.678200 0.143914
0.818746 0.685889 0.151603
0.929291 0.693577 0.159291
0.170566 0.757709 0.120566
0.281111 0.765397 0.128254
0.391657 0.773086 0.135943
0.502203 0.780774 0.143631
0.612749 0.788463 0.151320
0.723294 0.796151 0.159009
0.833840 0.803840 0.166697
0.944386 0.811529 0.174386
0.185660 0.875660 0.135660
0.296206 0.883349 0.143349
0.406751 0.891037 0.151037
0.517297 0.898726 0.158726
0.627843 0.906414 0.166414
0.738389 0.914103 0.174103
0.848934 0.921791 0.181791
0.959480 0.929480 0.189480
0.082931 0.052931 0.135789
0.193477 0.060620 0.143477
0.304023 0.068309 0.151166
0.414569 0.075997 0.158854
0.525114 0.083686 0.166543
0.635660 0.091374 0.174231
0.746206 0.099063 0.181920
0.856751 0.106751 0.189609
0.098026 0.170883 0.150883
0.208571 0.178571 0.158571
0.319117 0.186260 0.166260
0.429663 0.193949 0.173949
0.540209 0.201637 0.181637
0.650754 0.209326 0.189326
0.761300 0.217014 0.197014
0.871846 0.224703 0.204703
0.113120 0.288834 0.165977
0.223666 0.296523 0.173666
0.334211 0.304211 0.181354
0.444757 0.311900 0.189043
0.555303 0.319589 0.196731
0.665849 0.327277 0.204420
0.776394 0.334966 0.212109
0.886940 0.342654 0.219797
0.128214 0.406786 0.181071
0.238760 0.414474 0.188760
0.349306 0.422163 0.196449
0.459851 0.429851 0.204137
0.570397 0.437540 0.211826
0.680943 0.445229 0.219514
0.791489 0.452917 0.227203
0.902034 0.460606 0.234891
0.143309 0.524737 0.196166
0.253854 0.532426 0.203854
0.364400 0.540114 0.211543
0.474946 0.547803 0.219231
0.585491 0.555491 0.226920
0.696037 0.563180 0.234609
0.806583 0.570869 0.242297
0.917129 0.578557 0.249986
0.158403 0.642689 0.211260
0.268949 0.650377 0.218949
0.379494 0.658066 0.226637
0.490040 0.665754 0.234326
0.600586 0.673443 0.242014
0.711131 0.681131 0.249703
0.821677 0.688820 0.257391
0.932223 0.696509 0.265080
0.173497 0.760640 0.226354
0.284043 0.768329 0.234043
0.394589 0.776017 0.241731
0.505134 0.783706 0.249420
0.615680 0.791394 0.257109
0.726226 0.799083 0.264797
0.836771 0.806771 0.272486
0.947317 0.814460 0.280174
0.188591 0.878591 0.241449
0.299137 0.886280 0.249137
0.409683 0.893969 0.256826
0.520229 0.901657 0.264514
0.630774 0.909346 0.272203
0.741320 0.917034 0.279891
0.851866 0.924723 0.287580
0.962411 0.932411 0.295269
0.085863 0.055863 0.241577
0.196409 0.063551 0.249266
0.306954 0.071240 0.256954
0.417500 0.078929 0.264643
0.528046 0.086617 0.272331
0.638591 0.094306 0.280020
0.749137 0.101994 0.287709
0.859683 0.109683 0.295397
0.100957 0.173814 0.256671
0.211503 0.181503 0.264360
0.322049 0.189191 0.272049
0.432594 0.196880 0.279737
0.543140 0.204569 0.287426
0.653686 0.212257 0.295114
0.764231 0.219946 0.302803
0.874777 0.227634 0.310491
0.116051 0.291766 0.271766
0.226597 0.299454 0.279454
0.337143 0.307143 0.287143
0.447689 0.314831 0.294831
0.558234 0.322520 0.302520
0.668780 0.330209 0.310209
0.779326 0.337897 0.317897
0.889871 0.345586 0.325586
0.131146 0.409717 0.286860
0.241691 0.417406 0.294549
0.352237 0.425094 0.302237
0.462783 0.432783 0.309926
0.573329 0.440471 0.317614
0.683874 0.448160 0.325303
0.794420 0.455849 0.332991
0.904966 0.463537 0.340680
0.146240 0.527669 0.301954
0.256786 0.535357 0.309643
0.367331 0.543046 0.317331
0.477877 0.550734 0.325020
0.588423 0.558423 0.332709
0.698969 0.566111 0.340397
0.809514 0.573800 0.348086
0.920060 0.581489 0.355774
0.161334 0.645620 0.317049
0.271880 0.653309 0.324737
0.382426 0.660997 0.332426
0.492971 0.668686 0.340114
0.603517 0.676374 0.347803
0.714063 0.684063 0.355491
0.824609 0.691751 0.363180
0.935154 0.699440 0.370869
0.176429 0.763571 0.332143
0.286974 0.771260 0.339831
0.397520 0.778949 0.347520
0.508066 0.786637 0.355209
0.618611 0.794326 0.362897
0.729157 0.802014 0.370586
0.839703 0.809703 0.378274
0.950249 0.817391 0.385963
0.191523 0.881523 0.347237
0.302069 0.889211 0.354926
0.412614 0.896900 0.362614
0.523160 0.904589 0.370303
0.633706 0.912277 0.377991
0.744251 0.919966 0.385680
0.854797 0.927654 0.393369
0.965343 0.935343 0.401057
0.088794 0.058794 0.347366
0.199340 0.066483 0.355054
0.309886 0.074171 0.362743
0.420431 0.081860 0.370431
0.530977 0.089549 0.378120
0.641523 0.097237 0.385809
0.752069 0.104926 0.393497
0.862614 0.112614 0.401186
0.103889 0.176746 0.362460
0.214434 0.184434 0.370149
0.324980 0.192123 0.377837
0.435526 0.199811 0.385526
0.546071 0.207500 0.393214
0.656617 0.215189 0.400903
0.767163 0.222877 0.408591
0.877709 0.230566 0.416280
0.118983 0.294697 0.377554
0.229529 0.302386 0.385243
0.340074 0.310074 0.392931
0.450620 0.317763 0.400620
0.561166 0.325451 0.408309
0.671711 0.333140 0.415997
0.782257 0.340829 0.423686
0.892803 0.348517 0.431374
0.134077 0.412649 0.392649
0.244623 0.420337 0.400337
0.355169 0.428026 0.408026
0.465714 0.435714 0.415714
0.576260 0.443403 0.423403
0.686806 0.451091 0.431091
0.797351 0.458780 0.438780
0.907897 0.466469 0.446469
0.149171 0.530600 0.407743
0.259717 0.538289 0.415431
0.370263 0.545977 0.423120
0.480809 0.553666 0.430809
0.591354 0.561354 0.438497
0.701900 0.569043 0.446186
0.812446 0.576731 0.453874
0.922991 0.584420 0.461563
0.164266 0.648551 0.422837
0.274811 0.656240 0.430526
0.385357 0.663929 0.438214
0.495903 0.671617 0.445903
0.606449 0.679306 0.453591
0.716994 0.686994 0.461280
0.827540 0.694683 0.468969
0.938086 0.702371 0.476657
0.179360 0.766503 0.437931
0.289906 0.774191 0.445620
0.400451 0.781880 0.453309
0.510997 0.789569 0.460997
0.621543 0.797257 0.468686
0.732089 0.804946 0.476374
0.842634 0.812634 0.484063
0.953180 0.820323 0.491751
0.194454 0.884454 0.453026
0.305000 0.892143 0.460714
0.415546 0.899831 0.468403
0.526091 0.907520 0.476091
0.636637 0.915209 0.483780
0.747183 0.922897 0.491469
0.857729 0.930586 0.499157
0.968274 0.938274 0.506846
0.091726 0.061726 0.453154
0.202271 0.069414 0.460843
0.312817 0.077103 0.468531
0.423363 0.084791 0.476220
0.533909 0.092480 0.483909
0.644454 0.100169 0.491597
0.755000 0.107857 0.499286
0.865546 0.115546 0.506974
0.106820 0.179677 0.468249
0.217366 0.187366 0.475937
0.327911 0.195054 0.483626
0.438457 0.202743 0.491314
0.549003 0.210431 0.499003
0.659549 0.218120 0.506691
0.770094 0.225809 0.514380
0.880640 0.233497 0.522069
0.121914 0.297629 0.483343
0.232460 0.305317 0.491031
0.343006 0.313006 0.498720
0.453551 0.320694 0.506409
0.564097 0.328383 0.514097
0.674643 0.336071 0.521786
0.785189 0.343760 0.529474
0.895734 0.351449 0.537163
0.137009 0.415580 0.498437
0.247554 0.423269 0.506126
0.358100 0.430957 0.513814
0.468646 0.438646 0.521503
0.579191 0.446334 0.529191
0.689737 0.454023 0.536880
0.800283 0.461711 0.544569
0.910829 0.469400 0.552257
0.152103 0.533531 0.513531
0.262649 0.541220 0.521220
0.373194 0.548909 0.528909
0.483740 0.556597 0.536597
0.594286 0.564286 0.544286
0.704831 0.571974 0.551974
0.815377 0.579663 0.559663
0.925923 0.587351 0.567351
0.167197 0.651483 0.528626
0.277743 0.659171 0.536314
0.388289 0.666860 0.544003
0.498834 0.674549 0.551691
0.609380 0.682237 0.559380
0.719926 0.689926 0.567069
0.830471 0.697614 0.574757
0.941017 0.705303 0.582446
0.182291 0.769434 0.543720
0.292837 0.777123 0.551409
0.403383 0.784811 0.559097
0.513929 0.792500 0.566786
0.624474 0.800189 0.574474
0.735020 0.807877 0.582163
0.845566 0.815566 0.589851
0.956111 0.823254 0.597540
0.197386 0.887386 0.558814
0.307931 0.895074 0.566503
0.418477 0.902763 0.574191
0.529023 0.910451 0.581880
0.639569 0.918140 0.589569
0.750114 0.925829 0.597257
0.860660 0.933517 0.604946
0.971206 0.941206 0.612634
0.094657 0.064657 0.558943
0.205203 0.072346 0.566631
0.315749 0.080034 0.574320
0.426294 0.087723 0.582009
0.536840 0.095411 0.589697
0.647386 0.103100 0.597386
0.757931 0.110789 0.605074
0.868477 0.118477 0.612763
0.109751 0.182609 0.574037
0.220297 0.190297 0.581726
0.330843 0.197986 0.589414
0.441389 0.205674 0.597103
0.551934 0.213363 0.604791
0.662480 0.221051 0.612480
0.773026 0.228740 0.620169
0.883571 0.236429 0.627857
0.124846 0.300560 0.589131
0.235391 0.308249 0.596820
0.345937 0.315937 0.604509
0.456483 0.323626 0.612197
0.567029 0.331314 0.619886
0.677574 0.339003 0.627574
0.788120 0.346691 0.635263
0.898666 0.354380 0.642951
0.139940 0.418511 0.604226
0.250486 0.426200 0.611914
0.361031 0.433889 0.619603
0.471577 0.441577 0.627291
0.582123 0.449266 0.634980
0.692669 0.456954 0.642669
0.803214 0.464643 0.650357
0.913760 0.472331 0.658046
0.155034 0.536463 0.619320
0.265580 0.544151 0.627009
0.376126 0.551840 0.634697
0.486671 0.559529 0.642386
0.597217 0.567217 0.650074
0.707763 0.574906 0.657763
0.818309 0.582594 0.665451
0.928854 0.590283 0.673140
0.170129 0.654414 0.634414
0.280674 0.662103 0.642103
0.391220 0.669791 0.649791
0.501766 0.677480 0.657480
0.612311 0.685169 0.665169
0.722857 0.692857 0.672857
0.833403 0.700546 0.680546
0.943949 0.708234 0.688234
0.185223 0.772366 0.649509
0.295769 0.780054 0.657197
0.406314 0.787743 0.664886
0.516860 0.795431 0.672574
0.627406 0.803120 0.680263
0.737951 0.810809 0.687951
0.848497 0.818497 0.695640
0.959043 0.826186 0.703329
0.200317 0.890317 0.664603
0.310863 0.898006 0.672291
0.421409 0.905694 0.679980
0.531954 0.913383 0.687669
0.642500 0.921071 0.695357
0.753046 0.928760 0.703046
0.863591 0.936449 0.710734
0.974137 0.944137 0.718423
0.097589 0.067589 0.664731
0.208134 0.075277 0.672420
0.318680 0.082966 0.680109
0.429226 0.090654 0.687797
0.539771 0.098343 0.695486
0.650317 0.106031 0.703174
0.760863 0.113720 0.710863
0.871409 0.121409 0.718551
0.112683 0.185540 0.679826
0.223229 0.193229 0.687514
0.333774 0.200917 0.695203
0.444320 0.208606 0.702891
0.554866 0.216294 0.710580
0.665411 0.223983 0.718269
0.775957 0.231671 0.725957
0.886503 0.239360 0.733646
0.127777 0.303491 0.694920
0.238323 0.311180 0.702609
0.348869 0.318869 0.710297
0.459414 0.326557 0.717986
0.569960 0.334246 0.725674
0.680506 0.341934 0.733363
0.791051 0.349623 0.741051
0.901597 0.357311 0.748740
0.142871 0.421443 0.710014
0.253417 0.429131 0.717703
0.363963 0.436820 0.725391
0.474509 0.444509 0.733080
0.585054 0.452197 0.740769
0.695600 0.459886 0.748457
0.806146 0.467574 0.756146
0.916691 0.475263 0.763834
0.157966 0.539394 0.725109
0.268511 0.547083 0.732797
0.379057 0.554771 0.740486
0.489603 0.562460 0.748174
0.600149 0.570149 0.755863
0.710694 0.577837 0.763551
0.821240 0.585526 0.771240
0.931786 0.593214 0.778929
0.173060 0.657346 0.740203
0.283606 0.665034 0.747891
0.394151 0.672723 0.755580
0.504697 0.680411 0.763269
0.615243 0.688100 0.770957
0.725789 0.695789 0.778646
0.836334 0.703477 0.786334
0.946880 0.711166 0.794023
0.188154 0.775297 0.755297
0.298700 0.782986 0.762986
0.409246 0.790674 0.770674
0.519791 0.798363 0.778363
0.630337 0.806051 0.786051
0.740883 0.813740 0.793740
0.851429 0.821429 0.801429
0.961974 0.829117 0.809117
0.203249 0.893249 0.770391
0.313794 0.900937 0.778080
0.424340 0.908626 0.785769
0.534886 0.916314 0.793457
0.645431 0.924003 0.801146
0.755977 0.931691 0.808834
0.866523 0.939380 0.816523
0.977069 0.947069 0.824211
0.100520 0.070520 0.770520
0.211066 0.078209 0.778209
0.321611 0.085897 0.785897
0.432157 0.093586 0.793586
0.542703 0.101274 0.801274
0.653249 0.108963 0.808963
0.763794 0.116651 0.816651
0.874340 0.124340 0.824340
0.115614 0.188471 0.785614
0.226160 0.196160 0.793303
0.336706 0.203849 0.800991
0.447251 0.211537 0.808680
0.557797 0.219226 0.816369
0.668343 0.226914 0.824057
0.778889 0.234603 0.831746
0.889434 0.242291 0.839434
0.130709 0.306423 0.800709
0.241254 0.314111 0.808397
0.351800 0.321800 0.816086
0.462346 0.329489 0.823774
0.572891 0.337177 0.831463
0.683437 0.344866 0.839151
0.793983 0.352554 0.846840
0.904529 0.360243 0.854529
0.145803 0.424374 0.815803
0.256349 0.432063 0.823491
0.366894 0.439751 0.831180
0.477440 0.447440 0.838869
0.587986 0.455129 0.846557
0.698531 0.462817 0.854246
0.809077 0.470506 0.861934
0.919623 0.478194 0.869623
0.160897 0.542326 0.830897
0.271443 0.550014 0.838586
0.381989 0.557703 0.846274
0.492534 0.565391 0.853963
0.603080 0.573080 0.861651
0.713626 0.580769 0.869340
0.824171 0.588457 0.877029
0.934717 0.596146 0.884717
0.175991 0.660277 0.845991
0.286537 0.667966 0.853680
0.397083 0.675654 0.861369
0.507629 0.683343 0.869057
0.618174 0.691031 0.876746
0.728720 0.698720 0.884434
0.839266 0.706409 0.892123
0.949811 0.714097 0.899811
0.191086 0.778229 0.861086
0.301631 0.785917 0.868774
0.412177 0.793606 0.876463
0.522723 0.801294 0.884151
0.633269 0.808983 0.891840
0.743814 0.816671 0.899529
0.854360 0.824360 0.907217
0.964906 0.832049 0.914906
0.206180 0.896180 0.876180
0.316726 0.903869 0.883869
0.427271 0.911557 0.891557
0.537817 0.919246 0.899246
0.648363 0.926934 0.906934
0.758909 0.934623 0.914623
0.869454 0.942311 0.922311
0.980000 0.950000 0.930000
