assets/luts/vivid.cube
TITLE "鲜艳"
LUT_3D_SIZE 8
DOMAIN_MIN 0.0 0.0 0.0
DOMAIN_MAX 1.0 1.0 1.0
0.000000 0.000000 0.000000
0.101804 0.000000 0.000000
0.289122 0.000000 0.000000
0.476441 0.000000 0.000000
0.663759 0.000000 0.000000
0.851078 0.000000 0.000000
1.000000 0.000000 0.000000
1.000000 0.000000 0.000000
0.000000 0.096661 0.000000
0.091321 0.091321 0.000000
0.278640 0.081497 0.000000
0.465959 0.071673 0.000000
0.653277 0.061849 0.000000
0.840596 0.052024 0.000000
1.000000 0.042200 0.000000
1.000000 0.036861 0.000000
0.000000 0.274516 0.000000
0.072034 0.269177 0.000000
0.259353 0.259353 0.000000
0.446671 0.249529 0.000000
0.633990 0.239704 0.000000
0.821309 0.229880 0.000000
1.000000 0.220056 0.000000
1.000000 0.214716 0.000000
0.000000 0.452372 0.000000
0.052747 0.447033 0.000000
0.240066 0.437209 0.000000
0.427384 0.427384 0.000000
0.614703 0.417560 0.000000
0.802021 0.407736 0.000000
0.989340 0.397911 0.000000
1.000000 0.392572 0.000000
0.000000 0.630228 0.000000
0.033460 0.624889 0.000000
0.220779 0.615064 0.000000
0.408097 0.605240 0.000000
0.595416 0.595416 0.000000
0.782734 0.585591 0.000000
0.970053 0.575767 0.000000
1.000000 0.570428 0.000000
0.000000 0.808084 0.000000
0.014173 0.802744 0.000000
0.201491 0.792920 0.000000
0.388810 0.783096 0.000000
0.576129 0.773271 0.000000
0.763447 0.763447 0.000000
0.950766 0.753623 0.000000
1.000000 0.748284 0.000000
0.000000 0.985939 0.000000
0.000000 0.980600 0.000000
0.182204 0.970776 0.000000
0.369523 0.960951 0.000000
0.556841 0.951127 0.000000
0.744160 0.941303 0.000000
0.931479 0.931479 0.000000
1.000000 0.926139 0.000000
0.000000 1.000000 0.000000
0.000000 1.000000 0.000000
0.171722 1.000000 0.000000
0.359041 1.000000 0.000000
0.546359 1.000000 0.000000
0.733678 1.000000 0.000000
0.920996 1.000000 0.000000
1.000000 1.000000 0.000000
0.000000 0.000000 0.105107
0.099768 0.000000 0.099768
0.287086 0.000000 0.089944
0.474405 0.000000 0.080119
0.661724 0.000000 0.070295
0.849042 0.000000 0.060471
1.000000 0.000000 0.050646
1.000000 0.000000 0.045307
0.000000 0.094625 0.094625
0.089286 0.089286 0.089286
0.276604 0.079461 0.079461
0.463923 0.069637 0.069637
0.651241 0.059813 0.059813
0.838560 0.049989 0.049989
1.000000 0.040164 0.040164
1.000000 0.034825 0.034825
0.000000 0.272481 0.075338
0.069999 0.267141 0.069999
0.257317 0.257317 0.060174
0.444636 0.247493 0.050350
0.631954 0.237669 0.040526
0.819273 0.227844 0.030701
1.000000 0.218020 0.020877
1.000000 0.212681 0.015538
0.000000 0.450336 0.056051
0.050711 0.444997 0.050711
0.238030 0.435173 0.040887
0.425349 0.425349 0.031063
0.612667 0.415524 0.021239
0.799986 0.405700 0.011414
0.987304 0.395876 0.001590
1.000000 0.390536 0.000000
0.000000 0.628192 0.036764
0.031424 0.622853 0.031424
0.218743 0.613029 0.021600
0.406061 0.603204 0.011776
0.593380 0.593380 0.001951
0.780699 0.583556 0.000000
0.968017 0.573731 0.000000
1.000000 0.568392 0.000000
0.000000 0.806048 0.017476
0.012137 0.800709 0.012137
0.199456 0.790884 0.002313
0.386774 0.781060 0.000000
0.574093 0.771236 0.000000
0.761411 0.761411 0.000000
0.948730 0.751587 0.000000
1.000000 0.746248 0.000000
0.000000 0.983904 0.000000
0.000000 0.978564 0.000000
0.180169 0.968740 0.000000
0.367487 0.958916 0.000000
0.554806 0.949091 0.000000
0.742124 0.939267 0.000000
0.929443 0.929443 0.000000
1.000000 0.924104 0.000000
0.000000 1.000000 0.000000
0.000000 1.000000 0.000000
0.169686 1.000000 0.000000
0.357005 1.000000 0.000000
0.544324 1.000000 0.000000
0.731642 1.000000 0.000000
0.918961 1.000000 0.000000
1.000000 1.000000 0.000000
0.000000 0.000000 0.298504
0.096022 0.000000 0.293165
0.283341 0.000000 0.283341
0.470659 0.000000 0.273516
0.657978 0.000000 0.263692
0.845296 0.000000 0.253868
1.000000 0.000000 0.244044
1.000000 0.000000 0.238704
0.000000 0.090879 0.288022
0.085540 0.085540 0.282683
0.272859 0.075716 0.272859
0.460177 0.065891 0.263034
0.647496 0.056067 0.253210
0.834814 0.046243 0.243386
1.000000 0.036419 0.233561
1.000000 0.031079 0.228222
0.000000 0.268735 0.268735
0.066253 0.263396 0.263396
0.253571 0.253571 0.253571
0.440890 0.243747 0.243747
0.628209 0.233923 0.233923
0.815527 0.224099 0.224099
1.000000 0.214274 0.214274
1.000000 0.208935 0.208935
0.000000 0.446591 0.249448
0.046966 0.441251 0.244109
0.234284 0.431427 0.234284
0.421603 0.421603 0.224460
0.608921 0.411779 0.214636
0.796240 0.401954 0.204811
0.983559 0.392130 0.194987
1.000000 0.386791 0.189648
0.000000 0.624446 0.230161
0.027679 0.619107 0.224821
0.214997 0.609283 0.214997
0.402316 0.599459 0.205173
0.589634 0.589634 0.195349
0.776953 0.579810 0.185524
0.964271 0.569986 0.175700
1.000000 0.564646 0.170361
0.000000 0.802302 0.210874
0.008391 0.796963 0.205534
0.195710 0.787139 0.195710
0.383029 0.777314 0.185886
0.570347 0.767490 0.176061
0.757666 0.757666 0.166237
0.944984 0.747841 0.156413
1.000000 0.742502 0.151074
0.000000 0.980158 0.191586
0.000000 0.974819 0.186247
0.176423 0.964994 0.176423
0.363741 0.955170 0.166599
0.551060 0.945346 0.156774
0.738379 0.935521 0.146950
0.925697 0.925697 0.137126
1.000000 0.920358 0.131786
0.000000 1.000000 0.181104
0.000000 1.000000 0.175765
0.165941 1.000000 0.165941
0.353259 1.000000 0.156116
0.540578 1.000000 0.146292
0.727896 1.000000 0.136468
0.915215 1.000000 0.126644
1.000000 1.000000 0.121304
0.000000 0.000000 0.491901
0.092276 0.000000 0.486562
0.279595 0.000000 0.476738
0.466914 0.000000 0.466914
0.654232 0.000000 0.457089
0.841551 0.000000 0.447265
1.000000 0.000000 0.437441
1.000000 0.000000 0.432101
0.000000 0.087134 0.481419
0.081794 0.081794 0.476080
0.269113 0.071970 0.466256
0.456431 0.062146 0.456431
0.643750 0.052321 0.446607
0.831069 0.042497 0.436783
1.000000 0.032673 0.426959
1.000000 0.027334 0.421619
0.000000 0.264989 0.462132
0.062507 0.259650 0.456793
0.249826 0.249826 0.446969
0.437144 0.240001 0.437144
0.624463 0.230177 0.427320
0.811781 0.220353 0.417496
0.999100 0.210529 0.407671
1.000000 0.205189 0.402332
0.000000 0.442845 0.442845
0.043220 0.437506 0.437506
0.230539 0.427681 0.427681
0.417857 0.417857 0.417857
0.605176 0.408033 0.408033
0.792494 0.398209 0.398209
0.979813 0.388384 0.388384
1.000000 0.383045 0.383045
0.000000 0.620701 0.423558
0.023933 0.615361 0.418219
0.211251 0.605537 0.408394
0.398570 0.595713 0.398570
0.585889 0.585889 0.388746
0.773207 0.576064 0.378921
0.960526 0.566240 0.369097
1.000000 0.560901 0.363758
0.000000 0.798556 0.404271
0.004646 0.793217 0.398931
0.191964 0.783393 0.389107
0.379283 0.773569 0.379283
0.566601 0.763744 0.369459
0.753920 0.753920 0.359634
0.941239 0.744096 0.349810
1.000000 0.738756 0.344471
0.000000 0.976412 0.384984
0.000000 0.971073 0.379644
0.172677 0.961249 0.369820
0.359996 0.951424 0.359996
0.547314 0.941600 0.350171
0.734633 0.931776 0.340347
0.921951 0.921951 0.330523
1.000000 0.916612 0.325184
0.000000 1.000000 0.374501
0.000000 1.000000 0.369162
0.162195 1.000000 0.359338
0.349514 1.000000 0.349514
0.536832 1.000000 0.339689
0.724151 1.000000 0.329865
0.911469 1.000000 0.320041
1.000000 1.000000 0.314701
0.000000 0.000000 0.685299
0.088531 0.000000 0.679959
0.275849 0.000000 0.670135
0.463168 0.000000 0.660311
0.650486 0.000000 0.650486
0.837805 0.000000 0.640662
1.000000 0.000000 0.630838
1.000000 0.000000 0.625499
0.000000 0.083388 0.674816
0.078049 0.078049 0.669477
0.265367 0.068224 0.659653
0.452686 0.058400 0.649829
0.640004 0.048576 0.640004
0.827323 0.038751 0.630180
1.000000 0.028927 0.620356
1.000000 0.023588 0.615016
0.000000 0.261244 0.655529
0.058761 0.255904 0.650190
0.246080 0.246080 0.640366
0.433399 0.236256 0.630541
0.620717 0.226431 0.620717
0.808036 0.216607 0.610893
0.995354 0.206783 0.601069
1.000000 0.201444 0.595729
0.000000 0.439099 0.636242
0.039474 0.433760 0.630903
0.226793 0.423936 0.621079
0.414111 0.414111 0.611254
0.601430 0.404287 0.601430
0.788749 0.394463 0.591606
0.976067 0.384639 0.581781
1.000000 0.379299 0.576442
0.000000 0.616955 0.616955
0.020187 0.611616 0.611616
0.207506 0.601791 0.601791
0.394824 0.591967 0.591967
0.582143 0.582143 0.582143
0.769461 0.572319 0.572319
0.956780 0.562494 0.562494
1.000000 0.557155 0.557155
0.000000 0.794811 0.597668
0.000900 0.789471 0.592329
0.188219 0.779647 0.582504
0.375537 0.769823 0.572680
0.562856 0.759999 0.562856
0.750174 0.750174 0.553031
0.937493 0.740350 0.543207
1.000000 0.735011 0.537868
0.000000 0.972666 0.578381
0.000000 0.967327 0.573041
0.168931 0.957503 0.563217
0.356250 0.947679 0.553393
0.543569 0.937854 0.543569
0.730887 0.928030 0.533744
0.918206 0.918206 0.523920
1.000000 0.912866 0.518581
0.000000 1.000000 0.567899
0.000000 1.000000 0.562559
0.158449 1.000000 0.552735
0.345768 1.000000 0.542911
0.533086 1.000000 0.533086
0.720405 1.000000 0.523262
0.907724 1.000000 0.513438
1.000000 1.000000 0.508099
0.000000 0.000000 0.878696
0.084785 0.000000 0.873356
0.272104 0.000000 0.863532
0.459422 0.000000 0.853708
0.646741 0.000000 0.843884
0.834059 0.000000 0.834059
1.000000 0.000000 0.824235
1.000000 0.000000 0.818896
0.000000 0.079642 0.868214
0.074303 0.074303 0.862874
0.261621 0.064479 0.853050
0.448940 0.054654 0.843226
0.636259 0.044830 0.833401
0.823577 0.035006 0.823577
1.000000 0.025181 0.813753
1.000000 0.019842 0.808414
0.000000 0.257498 0.848926
0.055016 0.252159 0.843587
0.242334 0.242334 0.833763
0.429653 0.232510 0.823939
0.616971 0.222686 0.814114
0.804290 0.212861 0.804290
0.991609 0.203037 0.794466
1.000000 0.197698 0.789126
0.000000 0.435354 0.829639
0.035729 0.430014 0.824300
0.223047 0.420190 0.814476
0.410366 0.410366 0.804651
0.597684 0.400541 0.794827
0.785003 0.390717 0.785003
0.972321 0.380893 0.775179
1.000000 0.375554 0.769839
0.000000 0.613209 0.810352
0.016441 0.607870 0.805013
0.203760 0.598046 0.795189
0.391079 0.588221 0.785364
0.578397 0.578397 0.775540
0.765716 0.568573 0.765716
0.953034 0.558749 0.755891
1.000000 0.553409 0.750552
0.000000 0.791065 0.791065
0.000000 0.785726 0.785726
0.184473 0.775901 0.775901
0.371791 0.766077 0.766077
0.559110 0.756253 0.756253
0.746429 0.746429 0.746429
0.933747 0.736604 0.736604
1.000000 0.731265 0.731265
0.000000 0.968921 0.771778
0.000000 0.963581 0.766439
0.165186 0.953757 0.756614
0.352504 0.943933 0.746790
0.539823 0.934109 0.736966
0.727141 0.924284 0.727141
0.914460 0.914460 0.717317
1.000000 0.909121 0.711978
0.000000 1.000000 0.761296
0.000000 1.000000 0.755956
0.154704 1.000000 0.746132
0.342022 1.000000 0.736308
0.529341 1.000000 0.726484
0.716659 1.000000 0.716659
0.903978 1.000000 0.706835
1.000000 1.000000 0.701496
0.000000 0.000000 1.000000
0.081039 0.000000 1.000000
0.268358 0.000000 1.000000
0.455676 0.000000 1.000000
0.642995 0.000000 1.000000
0.830314 0.000000 1.000000
1.000000 0.000000 1.000000
1.000000 0.000000 1.000000
0.000000 0.075896 1.000000
0.070557 0.070557 1.000000
0.257876 0.060733 1.000000
0.445194 0.050909 1.000000
0.632513 0.041084 1.000000
0.819831 0.031260 1.000000
1.000000 0.021436 1.000000
1.000000 0.016096 1.000000
0.000000 0.253752 1.000000
0.051270 0.248413 1.000000
0.238589 0.238589 1.000000
0.425907 0.228764 1.000000
0.613226 0.218940 1.000000
0.800544 0.209116 0.997687
0.987863 0.199291 0.987863
1.000000 0.193952 0.982524
0.000000 0.431608 1.000000
0.031983 0.426269 1.000000
0.219301 0.416444 1.000000
0.406620 0.406620 0.998049
0.593939 0.396796 0.988224
0.781257 0.386971 0.978400
0.968576 0.377147 0.968576
1.000000 0.371808 0.963236
0.000000 0.609464 1.000000
0.012696 0.604124 0.998410
0.200014 0.594300 0.988586
0.387333 0.584476 0.978761
0.574651 0.574651 0.968937
0.761970 0.564827 0.959113
0.949289 0.555003 0.949289
1.000000 0.549664 0.943949
0.000000 0.787319 0.984462
0.000000 0.781980 0.979123
0.180727 0.772156 0.969299
0.368046 0.762331 0.959474
0.555364 0.752507 0.949650
0.742683 0.742683 0.939826
0.930001 0.732859 0.930001
1.000000 0.727519 0.924662
0.000000 0.965175 0.965175
0.000000 0.959836 0.959836
0.161440 0.950011 0.950011
0.348759 0.940187 0.940187
0.536077 0.930363 0.930363
0.723396 0.920539 0.920539
0.910714 0.910714 0.910714
1.000000 0.905375 0.905375
0.000000 1.000000 0.954693
0.000000 1.000000 0.949354
0.150958 1.000000 0.939529
0.338276 1.000000 0.929705
0.525595 1.000000 0.919881
0.712914 1.000000 0.910056
0.900232 1.000000 0.900232
1.000000 1.000000 0.894893
0.000000 0.000000 1.000000
0.079004 0.000000 1.000000
0.266322 0.000000 1.000000
0.453641 0.000000 1.000000
0.640959 0.000000 1.000000
0.828278 0.000000 1.000000
1.000000 0.000000 1.000000
1.000000 0.000000 1.000000
0.000000 0.073861 1.000000
0.068521 0.068521 1.000000
0.255840 0.058697 1.000000
0.443159 0.048873 1.000000
0.630477 0.039049 1.000000
0.817796 0.029224 1.000000
1.000000 0.019400 1.000000
1.000000 0.014061 1.000000
0.000000 0.251716 1.000000
0.049234 0.246377 1.000000
0.236553 0.236553 1.000000
0.423871 0.226729 1.000000
0.611190 0.216904 1.000000
0.798509 0.207080 1.000000
0.985827 0.197256 1.000000
1.000000 0.191916 1.000000
0.000000 0.429572 1.000000
0.029947 0.424233 1.000000
0.217266 0.414409 1.000000
0.404584 0.404584 1.000000
0.591903 0.394760 1.000000
0.779221 0.384936 1.000000
0.966540 0.375111 1.000000
1.000000 0.369772 1.000000
0.000000 0.607428 1.000000
0.010660 0.602089 1.000000
0.197979 0.592264 1.000000
0.385297 0.582440 1.000000
0.572616 0.572616 1.000000
0.759934 0.562791 1.000000
0.947253 0.552967 1.000000
1.000000 0.547628 1.000000
0.000000 0.785284 1.000000
0.000000 0.779944 1.000000
0.178691 0.770120 1.000000
0.366010 0.760296 1.000000
0.553329 0.750471 1.000000
0.740647 0.740647 1.000000
0.927966 0.730823 1.000000
1.000000 0.725484 1.000000
0.000000 0.963139 1.000000
0.000000 0.957800 1.000000
0.159404 0.947976 1.000000
0.346723 0.938151 1.000000
0.534041 0.928327 1.000000
0.721360 0.918503 1.000000
0.908679 0.908679 1.000000
1.000000 0.903339 1.000000
0.000000 1.000000 1.000000
0.000000 1.000000 1.000000
0.148922 1.000000 1.000000
0.336241 1.000000 1.000000
0.523559 1.000000 1.000000
0.710878 1.000000 1.000000
0.898196 1.000000 1.000000
1.000000 1.000000 1.000000
