assets/luts/warm.cube
TITLE "暖色"
LUT_3D_SIZE 8
DOMAIN_MIN 0.0 0.0 0.0
DOMAIN_MAX 1.0 1.0 1.0
0.050000 0.000000 0.000000
0.190471 0.000000 0.000000
0.341293 0.000000 0.000000
0.492114 0.000000 0.000000
0.642936 0.000000 0.000000
0.793757 0.000000 0.000000
0.944579 0.000000 0.000000
1.000000 0.000000 0.000000
0.046017 0.138517 0.000000
0.186488 0.136488 0.000000
0.337309 0.134309 0.000000
0.488131 0.132131 0.000000
0.638953 0.129953 0.000000
0.789774 0.127774 0.000000
0.940596 0.125596 0.000000
1.000000 0.123567 0.000000
0.041740 0.287240 0.000000
0.182211 0.285211 0.000000
0.333033 0.283033 0.000000
0.483854 0.280854 0.000000
0.634676 0.278676 0.000000
0.785497 0.276497 0.000000
0.936319 0.274319 0.000000
1.000000 0.272290 0.000000
0.037463 0.435963 0.000000
0.177934 0.433934 0.000000
0.328756 0.431756 0.000000
0.479578 0.429578 0.000000
0.630399 0.427399 0.000000
0.781221 0.425221 0.000000
0.932042 0.423042 0.000000
1.000000 0.421013 0.000000
0.033187 0.584687 0.000000
0.173658 0.582658 0.000000
0.324479 0.580479 0.000000
0.475301 0.578301 0.000000
0.626122 0.576122 0.000000
0.776944 0.573944 0.000000
0.927766 0.571766 0.000000
1.000000 0.569737 0.000000
0.028910 0.733410 0.000000
0.169381 0.731381 0.000000
0.320203 0.729203 0.000000
0.471024 0.727024 0.000000
0.621846 0.724846 0.000000
0.772667 0.722667 0.000000
0.923489 0.720489 0.000000
1.000000 0.718460 0.000000
0.024633 0.882133 0.000000
0.165104 0.880104 0.000000
0.315926 0.877926 0.000000
0.466747 0.875747 0.000000
0.617569 0.873569 0.000000
0.768391 0.871391 0.000000
0.919212 0.869212 0.000000
1.000000 0.867183 0.000000
0.020650 1.000000 0.000000
0.161121 1.000000 0.000000
0.311943 1.000000 0.000000
0.462764 1.000000 0.000000
0.613586 1.000000 0.000000
0.764407 1.000000 0.000000
0.915229 1.000000 0.000000
1.000000 1.000000 0.000000
0.049226 0.000000 0.111726
0.189697 0.000000 0.109697
0.340519 0.000000 0.107519
0.491341 0.000000 0.105341
0.642162 0.000000 0.103162
0.792984 0.000000 0.100984
0.943805 0.000000 0.098805
1.000000 0.000000 0.096776
0.045243 0.137743 0.107743
0.185714 0.135714 0.105714
0.336536 0.133536 0.103536
0.487357 0.131357 0.101357
0.638179 0.129179 0.099179
0.789001 0.127001 0.097001
0.939822 0.124822 0.094822
1.000000 0.122793 0.092793
0.040967 0.286467 0.103466
0.181438 0.284438 0.101438
0.332259 0.282259 0.099259
0.483081 0.280081 0.097081
0.633902 0.277902 0.094902
0.784724 0.275724 0.092724
0.935545 0.273545 0.090545
1.000000 0.271516 0.088516
0.036690 0.435190 0.099190
0.177161 0.433161 0.097161
0.327982 0.430982 0.094982
0.478804 0.428804 0.092804
0.629626 0.426626 0.090626
0.780447 0.424447 0.088447
0.931269 0.422269 0.086269
1.000000 0.420240 0.084240
0.032413 0.583913 0.094913
0.172884 0.581884 0.092884
0.323706 0.579706 0.090706
0.474527 0.577527 0.088527
0.625349 0.575349 0.086349
0.776170 0.573170 0.084170
0.926992 0.570992 0.081992
1.000000 0.568963 0.079963
0.028136 0.732636 0.090636
0.168607 0.730607 0.088607
0.319429 0.728429 0.086429
0.470251 0.726251 0.084251
0.621072 0.724072 0.082072
0.771894 0.721894 0.079894
0.922715 0.719715 0.077715
1.000000 0.717686 0.075686
0.023860 0.881360 0.086360
0.164331 0.879331 0.084331
0.315152 0.877152 0.082152
0.465974 0.874974 0.079974
0.616795 0.872795 0.077795
0.767617 0.870617 0.075617
0.918439 0.868439 0.073439
1.000000 0.866410 0.071410
0.019876 1.000000 0.082376
0.160347 1.000000 0.080347
0.311169 1.000000 0.078169
0.461991 1.000000 0.075991
0.612812 1.000000 0.073812
0.763634 1.000000 0.071634
0.914455 1.000000 0.069455
1.000000 1.000000 0.067426
0.048396 0.000000 0.263896
0.188867 0.000000 0.261867
0.339689 0.000000 0.259688
0.490510 0.000000 0.257510
0.641332 0.000000 0.255332
0.792153 0.000000 0.253153
0.942975 0.000000 0.250975
1.000000 0.000000 0.248946
0.044413 0.136913 0.259913
0.184884 0.134884 0.257884
0.335705 0.132705 0.255705
0.486527 0.130527 0.253527
0.637348 0.128348 0.251348
0.788170 0.126170 0.249170
0.938992 0.123992 0.246992
1.000000 0.121963 0.244963
0.040136 0.285636 0.255636
0.180607 0.283607 0.253607
0.331429 0.281429 0.251429
0.482250 0.279250 0.249250
0.633072 0.277072 0.247072
0.783893 0.274893 0.244893
0.934715 0.272715 0.242715
1.000000 0.270686 0.240686
0.035859 0.434359 0.251359
0.176330 0.432330 0.249330
0.327152 0.430152 0.247152
0.477973 0.427973 0.244973
0.628795 0.425795 0.242795
0.779617 0.423617 0.240617
0.930438 0.421438 0.238438
1.000000 0.419409 0.236409
0.031582 0.583082 0.247083
0.172054 0.581054 0.245054
0.322875 0.578875 0.242875
0.473697 0.576697 0.240697
0.624518 0.574518 0.238518
0.775340 0.572340 0.236340
0.926161 0.570161 0.234161
1.000000 0.568132 0.232132
0.027306 0.731806 0.242806
0.167777 0.729777 0.240777
0.318598 0.727598 0.238598
0.469420 0.725420 0.236420
0.620242 0.723242 0.234242
0.771063 0.721063 0.232063
0.921885 0.718885 0.229885
1.000000 0.716856 0.227856
0.023029 0.880529 0.238529
0.163500 0.878500 0.236500
0.314322 0.876322 0.234322
0.465143 0.874143 0.232143
0.615965 0.871965 0.229965
0.766786 0.869786 0.227786
0.917608 0.867608 0.225608
1.000000 0.865579 0.223579
0.019046 1.000000 0.234546
0.159517 1.000000 0.232517
0.310338 1.000000 0.230338
0.461160 1.000000 0.228160
0.611982 1.000000 0.225982
0.762803 1.000000 0.223803
0.913625 1.000000 0.221625
1.000000 1.000000 0.219596
0.047565 0.000000 0.416065
0.188036 0.000000 0.414036
0.338858 0.000000 0.411858
0.489679 0.000000 0.409679
0.640501 0.000000 0.407501
0.791323 0.000000 0.405323
0.942144 0.000000 0.403144
1.000000 0.000000 0.401115
0.043582 0.136082 0.412082
0.184053 0.134053 0.410053
0.334875 0.131875 0.407875
0.485696 0.129696 0.405696
0.636518 0.127518 0.403518
0.787339 0.125339 0.401339
0.938161 0.123161 0.399161
1.000000 0.121132 0.397132
0.039305 0.284805 0.407805
0.179776 0.282776 0.405776
0.330598 0.280598 0.403598
0.481420 0.278420 0.401420
0.632241 0.276241 0.399241
0.783063 0.274063 0.397063
0.933884 0.271884 0.394884
1.000000 0.269855 0.392855
0.035029 0.433529 0.403529
0.175500 0.431500 0.401500
0.326321 0.429321 0.399321
0.477143 0.427143 0.397143
0.627964 0.424964 0.394964
0.778786 0.422786 0.392786
0.929608 0.420608 0.390608
1.000000 0.418579 0.388579
0.030752 0.582252 0.399252
0.171223 0.580223 0.397223
0.322045 0.578045 0.395045
0.472866 0.575866 0.392866
0.623688 0.573688 0.390688
0.774509 0.571509 0.388509
0.925331 0.569331 0.386331
1.000000 0.567302 0.384302
0.026475 0.730975 0.394975
0.166946 0.728946 0.392946
0.317768 0.726768 0.390768
0.468589 0.724589 0.388589
0.619411 0.722411 0.386411
0.770233 0.720233 0.384233
0.921054 0.718054 0.382054
1.000000 0.716025 0.380025
0.022198 0.879699 0.390698
0.162670 0.877670 0.388670
0.313491 0.875491 0.386491
0.464313 0.873313 0.384313
0.615134 0.871134 0.382134
0.765956 0.868956 0.379956
0.916777 0.866777 0.377777
1.000000 0.864749 0.375748
0.018215 1.000000 0.386715
0.158686 1.000000 0.384686
0.309508 1.000000 0.382508
0.460329 1.000000 0.380329
0.611151 1.000000 0.378151
0.761973 1.000000 0.375973
0.912794 1.000000 0.373794
1.000000 1.000000 0.371765
0.046735 0.000000 0.568235
0.187206 0.000000 0.566206
0.338027 0.000000 0.564027
0.488849 0.000000 0.561849
0.639671 0.000000 0.559670
0.790492 0.000000 0.557492
0.941314 0.000000 0.555314
1.000000 0.000000 0.553285
0.042751 0.135251 0.564251
0.183223 0.133223 0.562223
0.334044 0.131044 0.560044
0.484866 0.128866 0.557866
0.635687 0.126687 0.555687
0.786509 0.124509 0.553509
0.937330 0.122330 0.551330
1.000000 0.120301 0.549301
0.038475 0.283975 0.559975
0.178946 0.281946 0.557946
0.329767 0.279767 0.555767
0.480589 0.277589 0.553589
0.631411 0.275411 0.551411
0.782232 0.273232 0.549232
0.933054 0.271054 0.547054
1.000000 0.269025 0.545025
0.034198 0.432698 0.555698
0.174669 0.430669 0.553669
0.325491 0.428491 0.551491
0.476312 0.426312 0.549312
0.627134 0.424134 0.547134
0.777955 0.421955 0.544955
0.928777 0.419777 0.542777
1.000000 0.417748 0.540748
0.029921 0.581421 0.551421
0.170392 0.579392 0.549392
0.321214 0.577214 0.547214
0.472036 0.575036 0.545036
0.622857 0.572857 0.542857
0.773679 0.570679 0.540679
0.924500 0.568500 0.538500
1.000000 0.566471 0.536471
0.025645 0.730145 0.547145
0.166116 0.728116 0.545116
0.316937 0.725937 0.542937
0.467759 0.723759 0.540759
0.618580 0.721580 0.538580
0.769402 0.719402 0.536402
0.920224 0.717224 0.534224
1.000000 0.715195 0.532195
0.021368 0.878868 0.542868
0.161839 0.876839 0.540839
0.312661 0.874661 0.538661
0.463482 0.872482 0.536482
0.614304 0.870304 0.534304
0.765125 0.868125 0.532125
0.915947 0.865947 0.529947
1.000000 0.863918 0.527918
0.017385 1.000000 0.538885
0.157856 1.000000 0.536856
0.308677 1.000000 0.534677
0.459499 1.000000 0.532499
0.610321 1.000000 0.530320
0.761142 1.000000 0.528142
0.911964 1.000000 0.525964
1.000000 1.000000 0.523935
0.045904 0.000000 0.720404
0.186375 0.000000 0.718375
0.337197 0.000000 0.716197
0.488018 0.000000 0.714018
0.638840 0.000000 0.711840
0.789661 0.000000 0.709661
0.940483 0.000000 0.707483
1.000000 0.000000 0.705454
0.041921 0.134421 0.716421
0.182392 0.132392 0.714392
0.333214 0.130214 0.712214
0.484035 0.128035 0.710035
0.634857 0.125857 0.707857
0.785678 0.123678 0.705678
0.936500 0.121500 0.703500
1.000000 0.119471 0.701471
0.037644 0.283144 0.712144
0.178115 0.281115 0.710115
0.328937 0.278937 0.707937
0.479758 0.276758 0.705758
0.630580 0.274580 0.703580
0.781402 0.272402 0.701402
0.932223 0.270223 0.699223
1.000000 0.268194 0.697194
0.033368 0.431867 0.707867
0.173839 0.429839 0.705839
0.324660 0.427660 0.703660
0.475482 0.425482 0.701482
0.626303 0.423303 0.699303
0.777125 0.421125 0.697125
0.927946 0.418946 0.694946
1.000000 0.416917 0.692917
0.029091 0.580591 0.703591
0.169562 0.578562 0.701562
0.320383 0.576383 0.699383
0.471205 0.574205 0.697205
0.622027 0.572027 0.695027
0.772848 0.569848 0.692848
0.923670 0.567670 0.690670
1.000000 0.565641 0.688641
0.024814 0.729314 0.699314
0.165285 0.727285 0.697285
0.316107 0.725107 0.695107
0.466928 0.722928 0.692928
0.617750 0.720750 0.690750
0.768571 0.718571 0.688571
0.919393 0.716393 0.686393
1.000000 0.714364 0.684364
0.020537 0.878037 0.695037
0.161008 0.876008 0.693008
0.311830 0.873830 0.690830
0.462652 0.871652 0.688652
0.613473 0.869473 0.686473
0.764295 0.867295 0.684295
0.915116 0.865116 0.682116
1.000000 0.863087 0.680087
0.016554 1.000000 0.691054
0.157025 1.000000 0.689025
0.307847 1.000000 0.686847
0.458668 1.000000 0.684668
0.609490 1.000000 0.682490
0.760311 1.000000 0.680311
0.911133 1.000000 0.678133
1.000000 1.000000 0.676104
0.045074 0.000000 0.872574
0.185545 0.000000 0.870545
0.336366 0.000000 0.868366
0.487188 0.000000 0.866188
0.638009 0.000000 0.864009
0.788831 0.000000 0.861831
0.939653 0.000000 0.859653
1.000000 0.000000 0.857624
0.041090 0.133590 0.868590
0.181561 0.131561 0.866561
0.332383 0.129383 0.864383
0.483205 0.127205 0.862205
0.634026 0.125026 0.860026
0.784848 0.122848 0.857848
0.935669 0.120669 0.855669
1.000000 0.118640 0.853640
0.036814 0.282314 0.864314
0.177285 0.280285 0.862285
0.328106 0.278106 0.860106
0.478928 0.275928 0.857928
0.629749 0.273749 0.855749
0.780571 0.271571 0.853571
0.931393 0.269393 0.851393
1.000000 0.267364 0.849364
0.032537 0.431037 0.860037
0.173008 0.429008 0.858008
0.323830 0.426830 0.855830
0.474651 0.424651 0.853651
0.625473 0.422473 0.851473
0.776294 0.420294 0.849294
0.927116 0.418116 0.847116
1.000000 0.416087 0.845087
0.028260 0.579760 0.855760
0.168731 0.577731 0.853731
0.319553 0.575553 0.851553
0.470374 0.573374 0.849374
0.621196 0.571196 0.847196
0.772018 0.569018 0.845018
0.922839 0.566839 0.842839
1.000000 0.564810 0.840810
0.023984 0.728483 0.851484
0.164455 0.726455 0.849455
0.315276 0.724276 0.847276
0.466098 0.722098 0.845098
0.616919 0.719919 0.842919
0.767741 0.717741 0.840741
0.918562 0.715562 0.838562
1.000000 0.713533 0.836534
0.019707 0.877207 0.847207
0.160178 0.875178 0.845178
0.310999 0.872999 0.842999
0.461821 0.870821 0.840821
0.612643 0.868643 0.838643
0.763464 0.866464 0.836464
0.914286 0.864286 0.834286
1.000000 0.862257 0.832257
0.015724 1.000000 0.843224
0.156195 1.000000 0.841195
0.307016 1.000000 0.839016
0.457838 1.000000 0.836838
0.608659 1.000000 0.834659
0.759481 1.000000 0.832481
0.910303 1.000000 0.830303
1.000000 1.000000 0.828274
0.044300 0.000000 1.000000
0.184771 0.000000 1.000000
0.335593 0.000000 1.000000
0.486414 0.000000 1.000000
0.637236 0.000000 1.000000
0.788057 0.000000 1.000000
0.938879 0.000000 1.000000
1.000000 0.000000 0.999350
0.040317 0.132817 1.000000
0.180788 0.130788 1.000000
0.331609 0.128609 1.000000
0.482431 0.126431 1.000000
0.633253 0.124253 1.000000
0.784074 0.122074 0.999574
0.934896 0.119896 0.997396
1.000000 0.117867 0.995367
0.036040 0.281540 1.000000
0.176511 0.279511 1.000000
0.327333 0.277333 1.000000
0.478154 0.275154 0.999654
0.628976 0.272976 0.997476
0.779797 0.270797 0.995297
0.930619 0.268619 0.993119
1.000000 0.266590 0.991090
0.031763 0.430263 1.000000
0.172234 0.428234 0.999734
0.323056 0.426056 0.997556
0.473878 0.423878 0.995378
0.624699 0.421699 0.993199
0.775521 0.419521 0.991021
0.926342 0.417342 0.988842
1.000000 0.415313 0.986813
0.027487 0.578987 0.997487
0.167958 0.576958 0.995458
0.318779 0.574779 0.993279
0.469601 0.572601 0.991101
0.620422 0.570422 0.988922
0.771244 0.568244 0.986744
0.922066 0.566066 0.984566
1.000000 0.564037 0.982537
0.023210 0.727710 0.993210
0.163681 0.725681 0.991181
0.314503 0.723503 0.989003
0.465324 0.721324 0.986824
0.616146 0.719146 0.984646
0.766967 0.716967 0.982467
0.917789 0.714789 0.980289
1.000000 0.712760 0.978260
0.018933 0.876433 0.988933
0.159404 0.874404 0.986904
0.310226 0.872226 0.984726
0.461047 0.870047 0.982547
0.611869 0.867869 0.980369
0.762691 0.865691 0.978191
0.913512 0.863512 0.976012
1.000000 0.861483 0.973983
0.014950 1.000000 0.984950
0.155421 1.000000 0.982921
0.306243 1.000000 0.980743
0.457064 1.000000 0.978564
0.607886 1.000000 0.976386
0.758707 1.000000 0.974207
0.909529 1.000000 0.972029
1.000000 1.000000 0.970000
