assets/luts/winter.cube
TITLE "冬季"
LUT_3D_SIZE 8
DOMAIN_MIN 0.0 0.0 0.0
DOMAIN_MAX 1.0 1.0 1.0
0.000000 0.000000 0.030000
0.130957 0.002029 0.032029
0.271564 0.004207 0.034207
0.412171 0.006386 0.036386
0.552778 0.008564 0.038564
0.693385 0.010743 0.040743
0.833993 0.012921 0.042921
0.964950 0.014950 0.044950
0.003983 0.132912 0.033983
0.134941 0.134941 0.036012
0.275548 0.137119 0.038191
0.416155 0.139298 0.040369
0.556762 0.141476 0.042547
0.697369 0.143654 0.044726
0.837976 0.145833 0.046904
0.968933 0.147862 0.048933
0.008260 0.275617 0.038260
0.139217 0.277646 0.040289
0.279824 0.279824 0.042467
0.420431 0.282003 0.044646
0.561038 0.284181 0.046824
0.701645 0.286360 0.049003
0.842252 0.288538 0.051181
0.973210 0.290567 0.053210
0.012537 0.418322 0.042537
0.143494 0.420351 0.044566
0.284101 0.422530 0.046744
0.424708 0.424708 0.048922
0.565315 0.426887 0.051101
0.705922 0.429065 0.053279
0.846529 0.431243 0.055458
0.977487 0.433272 0.057487
0.016813 0.561028 0.046813
0.147771 0.563057 0.048842
0.288378 0.565235 0.051021
0.428985 0.567413 0.053199
0.569592 0.569592 0.055378
0.710199 0.571770 0.057556
0.850806 0.573949 0.059734
0.981763 0.575978 0.061763
0.021090 0.703733 0.051090
0.152048 0.705762 0.053119
0.292655 0.707940 0.055297
0.433262 0.710119 0.057476
0.573869 0.712297 0.059654
0.714476 0.714476 0.061833
0.855083 0.716654 0.064011
0.986040 0.718683 0.066040
0.025367 0.846438 0.055367
0.156324 0.848467 0.057396
0.296931 0.850646 0.059574
0.437538 0.852824 0.061753
0.578145 0.855002 0.063931
0.718752 0.857181 0.066109
0.859359 0.859359 0.068288
0.990317 0.861388 0.070317
0.029350 0.979350 0.059350
0.160307 0.981379 0.061379
0.300915 0.983557 0.063557
0.441521 0.985736 0.065736
0.582129 0.987914 0.067914
0.722735 0.990093 0.070093
0.863343 0.992271 0.072271
0.994300 0.994300 0.074300
0.000774 0.000774 0.159702
0.131731 0.002802 0.161731
0.272338 0.004981 0.163909
0.412945 0.007159 0.166088
0.553552 0.009338 0.168266
0.694159 0.011516 0.170445
0.834766 0.013695 0.172623
0.965724 0.015724 0.174652
0.004757 0.133685 0.163685
0.135714 0.135714 0.165714
0.276321 0.137893 0.167893
0.416928 0.140071 0.170071
0.557535 0.142250 0.172250
0.698142 0.144428 0.174428
0.838749 0.146606 0.176606
0.969707 0.148635 0.178635
0.009033 0.276391 0.167962
0.139991 0.278420 0.169991
0.280598 0.280598 0.172169
0.421205 0.282776 0.174348
0.561812 0.284955 0.176526
0.702419 0.287133 0.178705
0.843026 0.289312 0.180883
0.973983 0.291341 0.182912
0.013310 0.419096 0.172239
0.144268 0.421125 0.174268
0.284875 0.423303 0.176446
0.425482 0.425482 0.178625
0.566089 0.427660 0.180803
0.706696 0.429839 0.182981
0.847303 0.432017 0.185160
0.978260 0.434046 0.187189
0.017587 0.561801 0.176515
0.148544 0.563830 0.178544
0.289151 0.566009 0.180723
0.429758 0.568187 0.182901
0.570365 0.570365 0.185080
0.710972 0.572544 0.187258
0.851579 0.574722 0.189437
0.982537 0.576751 0.191465
0.021864 0.704506 0.180792
0.152821 0.706535 0.182821
0.293428 0.708714 0.185000
0.434035 0.710892 0.187178
0.574642 0.713071 0.189356
0.715249 0.715249 0.191535
0.855856 0.717428 0.193713
0.986814 0.719456 0.195742
0.026140 0.847212 0.185069
0.157098 0.849241 0.187098
0.297705 0.851419 0.189276
0.438312 0.853598 0.191455
0.578919 0.855776 0.193633
0.719526 0.857954 0.195812
0.860133 0.860133 0.197990
0.991090 0.862162 0.200019
0.030124 0.980124 0.189052
0.161081 0.982152 0.191081
0.301688 0.984331 0.193260
0.442295 0.986509 0.195438
0.582902 0.988688 0.197616
0.723509 0.990866 0.199795
0.864116 0.993045 0.201973
0.995074 0.995074 0.204002
0.001604 0.001604 0.298961
0.132562 0.003633 0.300990
0.273169 0.005812 0.303169
0.413776 0.007990 0.305347
0.554383 0.010168 0.307526
0.694990 0.012347 0.309704
0.835597 0.014525 0.311882
0.966554 0.016554 0.313911
0.005587 0.134516 0.302944
0.136545 0.136545 0.304973
0.277152 0.138723 0.307152
0.417759 0.140902 0.309330
0.558366 0.143080 0.311509
0.698973 0.145259 0.313687
0.839580 0.147437 0.315866
0.970537 0.149466 0.317894
0.009864 0.277221 0.307221
0.140822 0.279250 0.309250
0.281429 0.281429 0.311429
0.422036 0.283607 0.313607
0.562643 0.285785 0.315785
0.703250 0.287964 0.317964
0.843857 0.290142 0.320142
0.974814 0.292171 0.322171
0.014141 0.419926 0.311498
0.145098 0.421955 0.313527
0.285705 0.424134 0.315705
0.426312 0.426312 0.317884
0.566919 0.428491 0.320062
0.707526 0.430669 0.322241
0.848133 0.432848 0.324419
0.979091 0.434876 0.326448
0.018418 0.562632 0.315775
0.149375 0.564661 0.317804
0.289982 0.566839 0.319982
0.430589 0.569018 0.322160
0.571196 0.571196 0.324339
0.711803 0.573374 0.326517
0.852410 0.575553 0.328696
0.983367 0.577582 0.330725
0.022694 0.705337 0.320051
0.153652 0.707366 0.322080
0.294259 0.709544 0.324259
0.434866 0.711723 0.326437
0.575473 0.713901 0.328616
0.716080 0.716080 0.330794
0.856687 0.718258 0.332972
0.987644 0.720287 0.335001
0.026971 0.848042 0.324328
0.157928 0.850071 0.326357
0.298535 0.852250 0.328535
0.439142 0.854428 0.330714
0.579749 0.856607 0.332892
0.720356 0.858785 0.335071
0.860963 0.860963 0.337249
0.991921 0.862992 0.339278
0.030954 0.980954 0.328311
0.161912 0.982983 0.330340
0.302519 0.985162 0.332519
0.443126 0.987340 0.334697
0.583733 0.989518 0.336875
0.724340 0.991697 0.339054
0.864947 0.993875 0.341232
0.995904 0.995904 0.343261
0.002435 0.002435 0.438220
0.133392 0.004464 0.440249
0.273999 0.006642 0.442428
0.414606 0.008821 0.444606
0.555213 0.010999 0.446785
0.695820 0.013177 0.448963
0.836427 0.015356 0.451141
0.967385 0.017385 0.453170
0.006418 0.135346 0.442204
0.137375 0.137375 0.444233
0.277982 0.139554 0.446411
0.418589 0.141732 0.448589
0.559196 0.143911 0.450768
0.699803 0.146089 0.452946
0.840410 0.148268 0.455125
0.971368 0.150296 0.457154
0.010695 0.278052 0.446480
0.141652 0.280081 0.448509
0.282259 0.282259 0.450688
0.422866 0.284438 0.452866
0.563473 0.286616 0.455045
0.704080 0.288794 0.457223
0.844687 0.290973 0.459401
0.975645 0.293002 0.461430
0.014971 0.420757 0.450757
0.145929 0.422786 0.452786
0.286536 0.424964 0.454964
0.427143 0.427143 0.457143
0.567750 0.429321 0.459321
0.708357 0.431500 0.461500
0.848964 0.433678 0.463678
0.979921 0.435707 0.465707
0.019248 0.563462 0.455034
0.150206 0.565491 0.457063
0.290813 0.567670 0.459241
0.431420 0.569848 0.461420
0.572027 0.572027 0.463598
0.712634 0.574205 0.465776
0.853241 0.576383 0.467955
0.984198 0.578412 0.469984
0.023525 0.706168 0.459310
0.154482 0.708197 0.461339
0.295089 0.710375 0.463518
0.435696 0.712553 0.465696
0.576303 0.714732 0.467875
0.716910 0.716910 0.470053
0.857517 0.719089 0.472232
0.988475 0.721118 0.474260
0.027802 0.848873 0.463587
0.158759 0.850902 0.465616
0.299366 0.853080 0.467795
0.439973 0.855259 0.469973
0.580580 0.857437 0.472151
0.721187 0.859616 0.474330
0.861794 0.861794 0.476508
0.992752 0.863823 0.478537
0.031785 0.981785 0.467570
0.162742 0.983814 0.469599
0.303349 0.985992 0.471778
0.443956 0.988170 0.473956
0.584563 0.990349 0.476135
0.725170 0.992527 0.478313
0.865777 0.994706 0.480491
0.996735 0.996735 0.482520
0.003265 0.003265 0.577480
0.134223 0.005294 0.579508
0.274830 0.007473 0.581687
0.415437 0.009651 0.583865
0.556044 0.011830 0.586044
0.696651 0.014008 0.588222
0.837258 0.016186 0.590401
0.968215 0.018215 0.592430
0.007249 0.136177 0.581463
0.138206 0.138206 0.583492
0.278813 0.140384 0.585670
0.419420 0.142563 0.587849
0.560027 0.144741 0.590027
0.700634 0.146920 0.592205
0.841241 0.149098 0.594384
0.972198 0.151127 0.596413
0.011525 0.278882 0.585740
0.142483 0.280911 0.587768
0.283090 0.283090 0.589947
0.423697 0.285268 0.592125
0.564304 0.287447 0.594304
0.704911 0.289625 0.596482
0.845518 0.291803 0.598661
0.976475 0.293832 0.600689
0.015802 0.421588 0.590016
0.146759 0.423617 0.592045
0.287366 0.425795 0.594224
0.427973 0.427973 0.596402
0.568580 0.430152 0.598580
0.709187 0.432330 0.600759
0.849794 0.434509 0.602937
0.980752 0.436538 0.604966
0.020079 0.564293 0.594293
0.151036 0.566322 0.596322
0.291643 0.568500 0.598500
0.432250 0.570679 0.600679
0.572857 0.572857 0.602857
0.713464 0.575036 0.605036
0.854071 0.577214 0.607214
0.985029 0.579243 0.609243
0.024355 0.706998 0.598570
0.155313 0.709027 0.600599
0.295920 0.711206 0.602777
0.436527 0.713384 0.604955
0.577134 0.715562 0.607134
0.717741 0.717741 0.609312
0.858348 0.719919 0.611491
0.989305 0.721948 0.613520
0.028632 0.849703 0.602846
0.159590 0.851732 0.604875
0.300197 0.853911 0.607054
0.440804 0.856089 0.609232
0.581411 0.858268 0.611411
0.722018 0.860446 0.613589
0.862625 0.862625 0.615767
0.993582 0.864654 0.617796
0.032615 0.982615 0.606830
0.163573 0.984644 0.608858
0.304180 0.986823 0.611037
0.444787 0.989001 0.613215
0.585394 0.991179 0.615394
0.726001 0.993358 0.617572
0.866608 0.995536 0.619751
0.997565 0.997565 0.621780
0.004096 0.004096 0.716739
0.135053 0.006125 0.718768
0.275660 0.008303 0.720946
0.416267 0.010482 0.723124
0.556874 0.012660 0.725303
0.697481 0.014839 0.727481
0.838088 0.017017 0.729660
0.969046 0.019046 0.731689
0.008079 0.137008 0.720722
0.139037 0.139037 0.722751
0.279644 0.141215 0.724929
0.420251 0.143393 0.727108
0.560858 0.145572 0.729286
0.701465 0.147750 0.731465
0.842072 0.149929 0.733643
0.973029 0.151958 0.735672
0.012356 0.279713 0.724999
0.143313 0.281742 0.727028
0.283920 0.283920 0.729206
0.424527 0.286099 0.731384
0.565134 0.288277 0.733563
0.705741 0.290456 0.735741
0.846348 0.292634 0.737920
0.977306 0.294663 0.739949
0.016632 0.422418 0.729275
0.147590 0.424447 0.731304
0.288197 0.426626 0.733483
0.428804 0.428804 0.735661
0.569411 0.430982 0.737840
0.710018 0.433161 0.740018
0.850625 0.435339 0.742196
0.981583 0.437368 0.744225
0.020909 0.565124 0.733552
0.151867 0.567152 0.735581
0.292474 0.569331 0.737759
0.433081 0.571509 0.739938
0.573688 0.573688 0.742116
0.714295 0.575866 0.744295
0.854902 0.578045 0.746473
0.985859 0.580074 0.748502
0.025186 0.707829 0.737829
0.156143 0.709858 0.739858
0.296750 0.712036 0.742036
0.437357 0.714215 0.744215
0.577964 0.716393 0.746393
0.718571 0.718571 0.748571
0.859178 0.720750 0.750750
0.990136 0.722779 0.752779
0.029463 0.850534 0.742105
0.160420 0.852563 0.744134
0.301027 0.854741 0.746313
0.441634 0.856920 0.748491
0.582241 0.859098 0.750670
0.722848 0.861277 0.752848
0.863455 0.863455 0.755027
0.994413 0.865484 0.757055
0.033446 0.983446 0.746089
0.164403 0.985475 0.748118
0.305010 0.987653 0.750296
0.445617 0.989832 0.752474
0.586224 0.992010 0.754653
0.726831 0.994189 0.756831
0.867438 0.996367 0.759010
0.998396 0.998396 0.761039
0.004926 0.004926 0.855998
0.135884 0.006955 0.858027
0.276491 0.009134 0.860205
0.417098 0.011312 0.862384
0.557705 0.013491 0.864562
0.698312 0.015669 0.866741
0.838919 0.017848 0.868919
0.969876 0.019876 0.870948
0.008910 0.137838 0.859981
0.139867 0.139867 0.862010
0.280474 0.142046 0.864188
0.421081 0.144224 0.866367
0.561688 0.146402 0.868545
0.702295 0.148581 0.870724
0.842902 0.150759 0.872902
0.973860 0.152788 0.874931
0.013186 0.280544 0.864258
0.144144 0.282572 0.866287
0.284751 0.284751 0.868465
0.425358 0.286929 0.870644
0.565965 0.289108 0.872822
0.706572 0.291286 0.875000
0.847179 0.293465 0.877179
0.978136 0.295494 0.879208
0.017463 0.423249 0.868534
0.148421 0.425278 0.870563
0.289028 0.427456 0.872742
0.429635 0.429635 0.874920
0.570242 0.431813 0.877099
0.710849 0.433991 0.879277
0.851456 0.436170 0.881456
0.982413 0.438199 0.883485
0.021740 0.565954 0.872811
0.152697 0.567983 0.874840
0.293304 0.570161 0.877019
0.433911 0.572340 0.879197
0.574518 0.574518 0.881375
0.715125 0.576697 0.883554
0.855732 0.578875 0.885732
0.986690 0.580904 0.887761
0.026016 0.708659 0.877088
0.156974 0.710688 0.879117
0.297581 0.712867 0.881295
0.438188 0.715045 0.883474
0.578795 0.717224 0.885652
0.719402 0.719402 0.887831
0.860009 0.721580 0.890009
0.990966 0.723609 0.892038
0.030293 0.851365 0.881365
0.161251 0.853394 0.883394
0.301858 0.855572 0.885572
0.442465 0.857750 0.887750
0.583072 0.859929 0.889929
0.723679 0.862107 0.892107
0.864286 0.864286 0.894286
0.995243 0.866315 0.896315
0.034276 0.984276 0.885348
0.165234 0.986305 0.887377
0.305841 0.988484 0.889555
0.446448 0.990662 0.891734
0.587055 0.992841 0.893912
0.727662 0.995019 0.896091
0.868269 0.997197 0.898269
0.999226 0.999226 0.900298
0.005700 0.005700 0.985700
0.136657 0.007729 0.987729
0.277264 0.009907 0.989907
0.417871 0.012086 0.992086
0.558478 0.014264 0.994264
0.699085 0.016443 0.996443
0.839692 0.018621 0.998621
0.970650 0.020650 1.000000
0.009683 0.138612 0.989683
0.140641 0.140641 0.991712
0.281248 0.142819 0.993891
0.421855 0.144998 0.996069
0.562462 0.147176 0.998247
0.703069 0.149354 1.000000
0.843676 0.151533 1.000000
0.974633 0.153562 1.000000
0.013960 0.281317 0.993960
0.144917 0.283346 0.995989
0.285524 0.285524 0.998167
0.426131 0.287703 1.000000
0.566738 0.289881 1.000000
0.707345 0.292060 1.000000
0.847952 0.294238 1.000000
0.978910 0.296267 1.000000
0.018237 0.424022 0.998237
0.149194 0.426051 1.000000
0.289801 0.428230 1.000000
0.430408 0.430408 1.000000
0.571015 0.432587 1.000000
0.711622 0.434765 1.000000
0.852229 0.436943 1.000000
0.983187 0.438972 1.000000
0.022513 0.566728 1.000000
0.153471 0.568757 1.000000
0.294078 0.570935 1.000000
0.434685 0.573113 1.000000
0.575292 0.575292 1.000000
0.715899 0.577470 1.000000
0.856506 0.579649 1.000000
0.987463 0.581678 1.000000
0.026790 0.709433 1.000000
0.157748 0.711462 1.000000
0.298355 0.713640 1.000000
0.438962 0.715819 1.000000
0.579569 0.717997 1.000000
0.720176 0.720176 1.000000
0.860783 0.722354 1.000000
0.991740 0.724383 1.000000
0.031067 0.852138 1.000000
0.162024 0.854167 1.000000
0.302631 0.856346 1.000000
0.443238 0.858524 1.000000
0.583845 0.860702 1.000000
0.724452 0.862881 1.000000
0.865059 0.865059 1.000000
0.996017 0.867088 1.000000
0.035050 0.985050 1.000000
0.166007 0.987079 1.000000
0.306614 0.989257 1.000000
0.447221 0.991436 1.000000
0.587828 0.993614 1.000000
0.728435 0.995793 1.000000
0.869043 0.997971 1.000000
1.000000 1.000000 1.000000
